storage/U2719D #1 2019-05-01 13-11 D6500 2.2 F-S XYZLUT+MTX/U2719D #1 2019-05-01 13-11 D6500 2.2 F-S XYZLUT+MTX.cal
CAL    

DESCRIPTOR "Argyll Device Calibration Curves"
ORIGINATOR "Argyll dispcal"
CREATED "Wed May 01 13:21:17 2019"
DEVICE_CLASS "DISPLAY"
COLOR_REP "RGB"
VIDEO_LUT_CALIBRATION_POSSIBLE "YES"
TV_OUTPUT_ENCODING "NO"
DEVICE_TYPE "n"
TARGET_WHITE_XYZ "180.087801 189.531845 206.120920"
TARGET_GAMMA "2.2"
DEGREE_OF_BLACK_OUTPUT_OFFSET "1.0"
BLACK_POINT_CORRECTION "0.0"
BLACK_NEUTRAL_BLEND_RATE "4.0"
BLACK_POINT_HACK "YES"
QUALITY "low"

BEGIN_ARGYLL_DISPCAL_ARGS
-v2 -d1 -c1 -yn -P0.455185358986,0.582591493571,1.0 -Ibw -ql -t6500 -g2.2 -f1.0 -k0 -A4.0 -b
END_ARGYLL_DISPCAL_ARGS


NUMBER_OF_FIELDS 4
BEGIN_DATA_FORMAT
RGB_I RGB_R RGB_G RGB_B
END_DATA_FORMAT

NUMBER_OF_SETS 256
BEGIN_DATA
0.00000000 0.00000000 0.00000000 0.00000000
0.00392157 0.00543350 0.00515631 0.00500957
0.00784314 0.01068930 0.01019730 0.00996592
0.01176470 0.01577610 0.01512680 0.01486990
0.01568630 0.02070170 0.01994850 0.01972230
0.01960780 0.02547390 0.02466580 0.02452400
0.02352940 0.03009950 0.02928220 0.02927570
0.02745100 0.03458530 0.03380060 0.03397780
0.03137250 0.03893540 0.03821980 0.03861890
0.03529410 0.04314620 0.04252770 0.04317990
0.03921570 0.04721470 0.04672040 0.04764860
0.04313730 0.05114680 0.05079160 0.05200910
0.04705880 0.05496010 0.05474920 0.05625940
0.05098040 0.05867410 0.05861000 0.06041420
0.05490200 0.06230470 0.06238600 0.06448680
0.05882350 0.06586340 0.06608470 0.06848590
0.06274510 0.06935790 0.06970970 0.07241810
0.06666670 0.07279510 0.07327370 0.07629320
0.07058820 0.07618780 0.07679410 0.08011700
0.07450980 0.07954840 0.08028650 0.08389980
0.07843140 0.08288830 0.08376600 0.08765880
0.08235290 0.08622380 0.08724470 0.09140670
0.08627450 0.08956390 0.09073310 0.09516140
0.09019610 0.09291960 0.09424140 0.09893300
0.09411760 0.09629960 0.09777840 0.10273400
0.09803920 0.09970520 0.10135200 0.10656200
0.10196100 0.10314600 0.10496100 0.11041300
0.10588200 0.10661800 0.10859900 0.11427700
0.10980400 0.11011700 0.11226200 0.11814900
0.11372500 0.11364700 0.11594300 0.12202100
0.11764700 0.11720400 0.11963700 0.12589000
0.12156900 0.12078200 0.12334300 0.12975300
0.12549000 0.12437500 0.12705800 0.13360800
0.12941200 0.12798700 0.13077900 0.13745800
0.13333300 0.13161300 0.13450800 0.14130600
0.13725500 0.13525000 0.13824100 0.14515200
0.14117600 0.13889600 0.14198100 0.14899800
0.14509800 0.14255200 0.14572100 0.15284300
0.14902000 0.14622900 0.14946700 0.15669200
0.15294100 0.14992200 0.15321400 0.16054600
0.15686300 0.15363700 0.15696000 0.16440800
0.16078400 0.15737400 0.16070800 0.16827300
0.16470600 0.16112900 0.16446300 0.17213900
0.16862700 0.16491100 0.16821300 0.17600900
0.17254900 0.16872600 0.17196100 0.17988300
0.17647100 0.17256800 0.17571100 0.18374900
0.18039200 0.17643500 0.17945900 0.18761100
0.18431400 0.18033400 0.18319400 0.19147500
0.18823500 0.18426600 0.18691800 0.19534100
0.19215700 0.18821300 0.19063300 0.19921600
0.19607800 0.19217500 0.19434100 0.20309400
0.20000000 0.19615100 0.19804500 0.20697800
0.20392200 0.20013900 0.20173700 0.21086800
0.20784300 0.20413700 0.20541300 0.21476600
0.21176500 0.20812400 0.20906700 0.21867000
0.21568600 0.21209700 0.21271100 0.22257200
0.21960800 0.21604500 0.21634500 0.22646200
0.22352900 0.21998100 0.21996700 0.23034000
0.22745100 0.22390500 0.22356900 0.23419800
0.23137300 0.22780400 0.22715700 0.23802600
0.23529400 0.23166700 0.23074000 0.24182400
0.23921600 0.23550800 0.23430900 0.24559700
0.24313700 0.23932900 0.23786100 0.24935400
0.24705900 0.24312600 0.24140000 0.25309300
0.25098000 0.24690500 0.24494200 0.25681500
0.25490200 0.25066600 0.24849900 0.26052000
0.25882400 0.25443600 0.25207000 0.26421500
0.26274500 0.25821300 0.25565200 0.26790500
0.26666700 0.26199500 0.25924900 0.27160600
0.27058800 0.26578600 0.26286400 0.27533100
0.27451000 0.26959100 0.26650400 0.27908100
0.27843100 0.27340900 0.27018000 0.28285900
0.28235300 0.27725700 0.27389800 0.28666800
0.28627500 0.28114300 0.27766000 0.29051000
0.29019600 0.28506900 0.28145700 0.29440000
0.29411800 0.28902800 0.28528600 0.29834800
0.29803900 0.29299600 0.28915100 0.30235300
0.30196100 0.29697300 0.29306900 0.30642100
0.30588200 0.30097100 0.29704500 0.31055700
0.30980400 0.30500100 0.30107300 0.31475900
0.31372500 0.30906200 0.30514800 0.31902100
0.31764700 0.31313900 0.30927000 0.32334500
0.32156900 0.31723400 0.31342700 0.32772000
0.32549000 0.32133800 0.31761300 0.33210900
0.32941200 0.32545200 0.32182800 0.33650800
0.33333300 0.32957300 0.32606000 0.34091900
0.33725500 0.33370300 0.33027200 0.34534200
0.34117600 0.33783900 0.33446300 0.34977000
0.34509800 0.34196800 0.33862800 0.35420300
0.34902000 0.34608800 0.34276600 0.35864000
0.35294100 0.35019900 0.34687500 0.36306500
0.35686300 0.35430700 0.35096600 0.36748000
0.36078400 0.35840800 0.35504700 0.37188000
0.36470600 0.36251200 0.35910800 0.37626600
0.36862700 0.36661800 0.36316000 0.38064800
0.37254900 0.37070900 0.36720300 0.38503300
0.37647100 0.37479100 0.37123900 0.38941300
0.38039200 0.37887100 0.37528200 0.39378800
0.38431400 0.38294700 0.37935300 0.39813900
0.38823500 0.38702300 0.38345800 0.40245600
0.39215700 0.39111600 0.38759300 0.40673800
0.39607800 0.39523800 0.39174400 0.41100900
0.40000000 0.39938500 0.39589000 0.41527600
0.40392200 0.40354500 0.40002400 0.41953700
0.40784300 0.40768600 0.40414500 0.42379300
0.41176500 0.41180300 0.40827900 0.42804400
0.41568600 0.41590000 0.41242600 0.43229700
0.41960800 0.41999900 0.41658000 0.43654700
0.42352900 0.42411400 0.42073700 0.44078200
0.42745100 0.42823500 0.42489500 0.44500000
0.43137300 0.43236700 0.42905700 0.44922300
0.43529400 0.43651400 0.43322400 0.45345300
0.43921600 0.44067800 0.43738500 0.45769200
0.44313700 0.44486300 0.44154700 0.46193400
0.44705900 0.44905200 0.44572700 0.46617600
0.45098000 0.45323400 0.44992500 0.47042400
0.45490200 0.45742600 0.45412300 0.47467600
0.45882400 0.46164500 0.45831500 0.47893500
0.46274500 0.46588000 0.46250100 0.48320000
0.46666700 0.47011800 0.46669300 0.48747200
0.47058800 0.47436000 0.47088700 0.49175000
0.47451000 0.47860600 0.47507800 0.49601400
0.47843100 0.48285700 0.47926700 0.50025900
0.48235300 0.48711400 0.48345200 0.50448600
0.48627500 0.49137700 0.48763900 0.50869500
0.49019600 0.49564500 0.49180900 0.51288500
0.49411800 0.49991900 0.49595800 0.51705200
0.49803900 0.50420200 0.50008600 0.52119900
0.50196100 0.50847200 0.50419300 0.52533700
0.50588200 0.51272700 0.50828800 0.52946400
0.50980400 0.51696700 0.51236500 0.53358000
0.51372500 0.52119300 0.51641600 0.53767500
0.51764700 0.52540500 0.52044700 0.54174400
0.52156900 0.52960200 0.52446200 0.54578400
0.52549000 0.53378000 0.52847500 0.54979200
0.52941200 0.53794400 0.53248000 0.55377400
0.53333300 0.54209600 0.53647100 0.55772400
0.53725500 0.54625000 0.54044800 0.56164700
0.54117600 0.55038800 0.54440600 0.56554400
0.54509800 0.55450500 0.54834700 0.56941200
0.54902000 0.55861200 0.55227200 0.57326600
0.55294100 0.56271100 0.55617700 0.57710800
0.55686300 0.56681000 0.56005300 0.58093000
0.56078400 0.57091200 0.56390000 0.58473300
0.56470600 0.57500600 0.56773400 0.58852000
0.56862700 0.57906800 0.57157300 0.59229100
0.57254900 0.58310300 0.57541400 0.59604300
0.57647100 0.58713300 0.57925700 0.59978300
0.58039200 0.59117000 0.58310300 0.60351900
0.58431400 0.59520700 0.58695000 0.60724800
0.58823500 0.59924400 0.59079400 0.61096900
0.59215700 0.60327500 0.59463600 0.61467800
0.59607800 0.60728400 0.59847700 0.61837100
0.60000000 0.61126800 0.60230600 0.62204700
0.60392200 0.61523200 0.60611400 0.62572200
0.60784300 0.61917500 0.60989700 0.62940300
0.61176500 0.62308900 0.61365100 0.63309600
0.61568600 0.62697500 0.61736500 0.63680300
0.61960800 0.63083500 0.62105200 0.64051900
0.62352900 0.63466300 0.62472000 0.64423600
0.62745100 0.63845400 0.62838400 0.64795500
0.63137300 0.64222600 0.63205100 0.65167400
0.63529400 0.64599100 0.63572100 0.65538200
0.63921600 0.64976200 0.63939500 0.65907700
0.64313700 0.65355100 0.64307100 0.66275900
0.64705900 0.65736500 0.64674900 0.66642200
0.65098000 0.66120200 0.65041300 0.67005900
0.65490200 0.66506100 0.65405400 0.67367100
0.65882400 0.66893500 0.65767200 0.67726500
0.66274500 0.67278300 0.66126500 0.68084600
0.66666700 0.67659900 0.66482900 0.68441700
0.67058800 0.68038300 0.66837000 0.68799000
0.67451000 0.68413100 0.67189300 0.69156000
0.67843100 0.68784500 0.67541100 0.69512200
0.68235300 0.69153500 0.67893000 0.69867700
0.68627500 0.69521200 0.68245600 0.70222600
0.69019600 0.69888900 0.68598500 0.70577100
0.69411800 0.70257000 0.68951000 0.70932000
0.69803900 0.70626100 0.69302800 0.71286900
0.70196100 0.70995400 0.69653900 0.71640900
0.70588200 0.71364100 0.70004100 0.71994100
0.70980400 0.71732600 0.70354000 0.72346300
0.71372500 0.72101200 0.70703700 0.72697500
0.71764700 0.72470500 0.71052600 0.73047900
0.72156900 0.72841100 0.71400400 0.73398100
0.72549000 0.73212000 0.71746700 0.73748400
0.72941200 0.73582300 0.72091500 0.74099000
0.73333300 0.73952200 0.72435000 0.74449900
0.73725500 0.74320900 0.72777800 0.74801700
0.74117600 0.74688600 0.73121800 0.75154800
0.74509800 0.75055300 0.73467200 0.75509300
0.74902000 0.75422900 0.73814000 0.75864800
0.75294100 0.75791800 0.74162500 0.76220700
0.75686300 0.76162100 0.74513300 0.76576900
0.76078400 0.76533300 0.74865900 0.76933900
0.76470600 0.76905800 0.75219300 0.77291900
0.76862700 0.77279500 0.75573300 0.77650900
0.77254900 0.77653300 0.75927400 0.78010400
0.77647100 0.78027300 0.76282000 0.78369700
0.78039200 0.78401800 0.76638300 0.78728100
0.78431400 0.78777100 0.76997200 0.79085400
0.78823500 0.79154700 0.77358700 0.79440900
0.79215700 0.79535300 0.77722100 0.79795200
0.79607800 0.79919100 0.78085600 0.80149900
0.80000000 0.80304800 0.78449200 0.80505300
0.80392200 0.80689700 0.78812200 0.80860500
0.80784300 0.81073600 0.79174700 0.81215700
0.81176500 0.81456700 0.79538100 0.81570600
0.81568600 0.81839600 0.79903300 0.81924800
0.81960800 0.82224200 0.80269600 0.82278400
0.82352900 0.82610800 0.80636600 0.82631200
0.82745100 0.82998600 0.81004200 0.82983300
0.83137300 0.83387400 0.81371600 0.83334400
0.83529400 0.83777000 0.81738900 0.83684300
0.83921600 0.84167100 0.82105600 0.84033500
0.84313700 0.84556800 0.82473000 0.84381800
0.84705900 0.84946100 0.82841500 0.84728600
0.85098000 0.85336800 0.83210600 0.85074100
0.85490200 0.85729300 0.83579400 0.85418500
0.85882400 0.86122200 0.83947800 0.85761500
0.86274500 0.86513800 0.84315400 0.86103100
0.86666700 0.86904100 0.84682500 0.86443700
0.87058800 0.87293700 0.85049000 0.86783200
0.87451000 0.87682600 0.85414500 0.87121000
0.87843100 0.88071100 0.85779300 0.87456500
0.88235300 0.88459700 0.86143700 0.87789800
0.88627500 0.88849100 0.86506900 0.88121700
0.89019600 0.89238700 0.86868400 0.88452500
0.89411800 0.89626600 0.87228400 0.88781700
0.89803900 0.90013600 0.87587700 0.89108900
0.90196100 0.90400200 0.87946300 0.89433600
0.90588200 0.90787200 0.88303600 0.89756700
0.90980400 0.91174500 0.88659000 0.90078700
0.91372500 0.91560200 0.89012800 0.90399700
0.91764700 0.91944800 0.89366900 0.90719800
0.92156900 0.92330200 0.89720900 0.91039200
0.92549000 0.92715500 0.90073800 0.91358300
0.92941200 0.93099700 0.90426500 0.91677400
0.93333300 0.93484200 0.90779700 0.91996700
0.93725500 0.93868800 0.91133600 0.92316200
0.94117600 0.94253800 0.91488200 0.92636200
0.94509800 0.94638700 0.91843400 0.92956700
0.94902000 0.95023700 0.92199200 0.93277900
0.95294100 0.95408600 0.92555700 0.93599600
0.95686300 0.95793800 0.92913000 0.93922100
0.96078400 0.96178900 0.93270700 0.94245100
0.96470600 0.96564100 0.93628900 0.94568400
0.96862700 0.96949300 0.93987200 0.94891900
0.97254900 0.97334300 0.94345400 0.95215600
0.97647100 0.97719100 0.94703600 0.95539400
0.98039200 0.98103800 0.95061700 0.95863500
0.98431400 0.98488400 0.95419800 0.96187700
0.98823500 0.98872800 0.95777800 0.96512100
0.99215700 0.99257000 0.96135700 0.96836700
0.99607800 0.99641100 0.96493600 0.97161400
1.00000000 1.00000000 0.96851500 0.97486400
END_DATA
CAL    

DESCRIPTOR "Argyll Calibration options and model"
ORIGINATOR "Argyll dispcal"
CREATED "Wed May 01 13:21:17 201"

NUMBER_OF_FIELDS 3
BEGIN_DATA_FORMAT
R_P G_P B_P
END_DATA_FORMAT

NUMBER_OF_SETS 32
BEGIN_DATA
-0.00000857445 0.00049280800 0.00117813000
1.00000900000 0.99950700000 0.99882200000
1.74942000000 1.71022500000 1.87137500000
0.55515800000 0.52236700000 0.47574600000
0.03642970000 0.13305700000 0.12023200000
0.09541950000 0.06539330000 0.13004700000
0.10229200000 0.12492100000 0.09967430000
0.14495100000 0.09309520000 0.08151320000
0.08264610000 0.07643330000 0.07709930000
0.06007620000 0.05079670000 0.07075300000
0.04939110000 0.08057770000 0.06537640000
0.04373090000 0.06171910000 0.06099830000
0.05076410000 0.04800730000 0.05724130000
0.04717430000 0.05564750000 0.05395580000
0.03503600000 0.05160480000 0.05128640000
0.04784760000 0.05266980000 0.04829340000
0.03775590000 0.04715470000 0.04521300000
0.03995670000 0.04315200000 0.04231260000
0.03025540000 0.04259700000 0.03961500000
0.03268800000 0.03695150000 0.03787480000
0.02856460000 0.04099170000 0.03731730000
0.02826540000 0.03338750000 0.03650710000
0.02661250000 0.03289160000 0.03453750000
0.02480120000 0.03215780000 0.03166110000
0.02543790000 0.03088050000 0.02854350000
0.02462210000 0.03040440000 0.02673010000
0.02150820000 0.03016210000 0.02536800000
0.02042480000 0.02904900000 0.02467450000
0.02137370000 0.02831340000 0.02461620000
0.02003580000 0.02741780000 0.02451280000
0.01880660000 0.02791970000 0.02415760000
0.01743580000 0.02647360000 0.02170010000
END_DATA
