storage/U2719D #1 2019-05-01 13-11 D6500 2.2 F-S XYZLUT+MTX/U2719D #1 2019-05-01 13-11 D6500 2.2 F-S XYZLUT+MTX.ti3
CTI3   

DESCRIPTOR "Argyll Calibration Target chart information 3"
ORIGINATOR "Argyll dispread"
CREATED "Wed May 01 13:21:18 2019"
DEVICE_CLASS "DISPLAY"
SINGLE_DIM_STEPS "5"
COMP_GREY_STEPS "52"
MULTI_DIM_STEPS "5"
COLOR_REP "RGB_XYZ"
TARGET_INSTRUMENT "X-Rite i1 DisplayPro, ColorMunki Display"
DISPLAY_TYPE_REFRESH "NO"
DISPLAY_TYPE_BASE_ID "1"
INSTRUMENT_TYPE_SPECTRAL "NO"
LUMINANCE_XYZ_CDM2 "179.859961 189.290809 206.227650"
NORMALIZED_TO_Y_100 "YES"
VIDEO_LUT_CALIBRATION_POSSIBLE "YES"

BEGIN_ARGYLL_COLPROF_ARGS
-v -qh -aX -bn -C "No copyright. Created with DisplayCAL 3.8.0.0 and ArgyllCMS 2.1.0_mod" -M "DELL U2719D" -A "Dell, Inc."
END_ARGYLL_COLPROF_ARGS

OBSERVER "1931_2"
USE_BLACK_POINT_COMPENSATION "NO"
BLACK_POINT_CORRECTION "0.0"
HIRES_B2A "YES"
HIRES_B2A_SIZE "-1"
SMOOTH_B2A "YES"
PATCH_SEQUENCE "OPTIMIZE_DISPLAY_RESPONSE_DELAY"
3DLUT_HDR_MAXMLL_ALT_CLIP "1"
3DLUT_HDR_SAT "0.5"
3DLUT_HDR_PEAK_LUMINANCE "480.0"
3DLUT_HDR_MAXMLL "10000.0"
3DLUT_GAMUT_MAPPING_MODE "G"
3DLUT_HDR_MINMLL "0.0"
3DLUT_SOURCE_PROFILE "ref/Rec709.icm"
3DLUT_RENDERING_INTENT "aw"
3DLUT_HDR_DISPLAY "0"
3DLUT_FORMAT "cube"
3DLUT_HDR_AMBIENT_LUMINANCE "5.0"
3DLUT_APPLY_CAL "1"
3DLUT_SIZE "65"
3DLUT_GAMMA "-2.4"
3DLUT_INPUT_ENCODING "n"
3DLUT_OUTPUT_ENCODING "n"
3DLUT_INPUT_BITDEPTH "10"
3DLUT_TRC "bt1886"
3DLUT_OUTPUT_BITDEPTH "12"
3DLUT_DEGREE_OF_BLACK_OUTPUT_OFFSET "0.0"
3DLUT_HDR_HUE "0.5"
3DLUT_CONTENT_COLORSPACE_WHITE_X "0.3127"
3DLUT_CONTENT_COLORSPACE_WHITE_Y "0.329"
3DLUT_CONTENT_COLORSPACE_RED_X "0.68"
3DLUT_CONTENT_COLORSPACE_RED_Y "0.32"
3DLUT_CONTENT_COLORSPACE_GREEN_X "0.265"
3DLUT_CONTENT_COLORSPACE_GREEN_Y "0.69"
3DLUT_CONTENT_COLORSPACE_BLUE_X "0.15"
3DLUT_CONTENT_COLORSPACE_BLUE_Y "0.06"

NUMBER_OF_FIELDS 7
BEGIN_DATA_FORMAT
SAMPLE_ID RGB_R RGB_G RGB_B XYZ_X XYZ_Y XYZ_Z
END_DATA_FORMAT

NUMBER_OF_SETS 175
BEGIN_DATA
1 100.00000 100.00000 100.00000 95.017800 100.00000 108.94750
2 100.00000 100.00000 75.000000 86.539730 97.286170 62.164530
3 100.00000 100.00000 100.00000 95.018860 100.00040 108.94750
4 100.00000 100.00000 100.00000 95.019220 100.00060 108.94750
5 0.0000000 0.0000000 0.0000000 0.0971986 0.0985669 0.1752450
6 25.000000 0.0000000 0.0000000 1.8855460 1.0274340 0.1720610
7 50.000000 0.0000000 0.0000000 8.3985650 4.4089080 0.1595550
8 75.000000 0.0000000 0.0000000 20.953000 10.925040 0.1359970
9 100.00000 0.0000000 0.0000000 40.165080 20.911530 0.1192980
10 100.00000 0.0000000 25.000000 41.133450 21.221140 5.0748410
11 100.00000 25.000000 25.000000 42.790620 24.595150 5.3994040
12 100.00000 50.000000 25.000000 49.116570 37.085740 6.7902080
13 100.00000 75.000000 25.000000 60.338740 59.429170 9.1557940
14 0.0000000 0.0000000 25.000000 0.9055830 0.3458470 4.7077430
15 25.000000 0.0000000 25.000000 2.7452370 1.2962400 4.8320930
16 75.000000 0.0000000 100.00000 38.800640 16.297110 100.35620
17 100.00000 0.0000000 100.00000 58.201360 26.361700 100.99880
18 1.9608000 1.9608000 1.9608000 0.1051270 0.1068420 0.1843390
19 3.9216000 3.9216000 3.9216000 0.1541160 0.1563400 0.2416100
20 5.8824000 5.8824000 5.8824000 0.2488760 0.2625630 0.3545860
21 7.8431000 7.8431000 7.8431000 0.4211430 0.4476410 0.5513420
22 9.8039000 9.8039000 9.8039000 0.6374680 0.6703320 0.8357980
23 11.765000 11.765000 11.765000 0.9182620 0.9771140 1.1827440
24 13.726000 13.726000 13.726000 1.2734370 1.3563110 1.5876140
25 15.686000 15.686000 15.686000 1.6118420 1.7176390 1.9647740
26 17.647000 17.647000 17.647000 2.1395930 2.2487780 2.6122650
27 19.608000 19.608000 19.608000 2.6808370 2.8418200 3.1146300
28 21.569000 21.569000 21.569000 3.3137570 3.4919100 3.9292040
29 23.529000 23.529000 23.529000 3.9928410 4.2131750 4.6865420
30 27.451000 27.451000 27.451000 5.4863690 5.7689370 6.2068850
31 29.412000 29.412000 29.412000 6.3624590 6.6759790 7.2751370
32 31.373000 31.373000 31.373000 7.3246880 7.6798380 8.3266510
33 33.333000 33.333000 33.333000 8.3833970 8.7900580 9.6285740
34 35.294000 35.294000 35.294000 9.4584150 9.9244420 10.819590
35 37.255000 37.255000 37.255000 10.743150 11.357630 12.470140
36 39.216000 39.216000 39.216000 12.112810 12.704080 13.965440
37 41.176000 41.176000 41.176000 13.340300 14.033520 15.384390
38 43.137000 43.137000 43.137000 14.676000 15.406270 17.226570
39 45.098000 45.098000 45.098000 16.313920 17.153010 18.741350
40 47.059000 47.059000 47.059000 17.839360 18.804580 20.494950
41 49.020000 49.020000 49.020000 19.464050 20.459520 22.717980
42 50.980000 50.980000 50.980000 21.434730 22.569230 24.643580
43 52.941000 52.941000 52.941000 23.207250 24.461890 26.668670
44 54.902000 54.902000 54.902000 25.273590 26.636890 29.097350
45 56.863000 56.863000 56.863000 27.318700 28.811160 31.425910
46 58.824000 58.824000 58.824000 29.510700 31.126590 33.956260
47 60.784000 60.784000 60.784000 31.887320 33.663770 36.690020
48 62.745000 62.745000 62.745000 33.979370 35.732680 38.912660
49 64.706000 64.706000 64.706000 36.481650 38.410280 41.748100
50 66.667000 66.667000 66.667000 39.104050 41.210900 44.886310
51 68.627000 68.627000 68.627000 41.333590 43.606840 47.418280
52 70.588000 70.588000 70.588000 44.110660 46.526440 50.656510
53 72.549000 72.549000 72.549000 46.669960 49.036920 53.383550
54 76.471000 76.471000 76.471000 52.176390 54.857350 59.860860
55 78.431000 78.431000 78.431000 55.314750 58.242560 63.607690
56 80.392000 80.392000 80.392000 58.336610 61.301380 67.145310
57 82.353000 82.353000 82.353000 61.640750 64.840400 70.589940
58 84.314000 84.314000 84.314000 65.256520 68.605460 74.838700
59 86.275000 86.275000 86.275000 68.538380 72.047140 78.582950
60 88.235000 88.235000 88.235000 71.854310 75.745090 81.730450
61 90.196000 90.196000 90.196000 75.777110 79.787680 86.079920
62 92.157000 92.157000 92.157000 79.437250 83.514500 90.628240
63 94.118000 94.118000 94.118000 83.422970 87.819500 94.884090
64 96.078000 96.078000 96.078000 87.119890 91.502680 99.328960
65 98.039000 98.039000 98.039000 91.362330 96.133540 104.09190
66 25.000000 25.000000 0.0000000 3.6023090 4.3421400 0.5211440
67 50.000000 25.000000 0.0000000 10.289830 7.8129330 0.5072940
68 75.000000 25.000000 0.0000000 22.803960 14.322820 0.4853800
69 100.00000 25.000000 0.0000000 41.952950 24.245370 0.4676070
70 100.00000 50.000000 0.0000000 47.933660 36.377070 1.7639410
71 50.000000 50.000000 0.0000000 16.441930 20.034530 1.8058230
72 75.000000 50.000000 0.0000000 28.855380 26.454380 1.7797330
73 25.000000 50.000000 0.0000000 9.7842550 16.532700 1.8149770
74 25.000000 75.000000 0.0000000 20.918420 38.775090 4.1802200
75 50.000000 75.000000 0.0000000 27.692720 42.354990 4.1793570
76 75.000000 75.000000 0.0000000 40.220060 48.852810 4.1485860
77 100.00000 75.000000 0.0000000 59.133010 58.677790 4.1358900
78 25.000000 100.00000 0.0000000 38.660800 74.337370 8.0143450
79 50.000000 100.00000 0.0000000 45.354980 77.755960 7.9883770
80 75.000000 100.00000 0.0000000 57.979140 84.291530 7.9606880
81 100.00000 100.00000 0.0000000 76.700200 94.041080 7.9501180
82 100.00000 100.00000 25.000000 77.668060 94.468770 12.969780
83 50.000000 0.0000000 25.000000 9.2507580 4.6737820 4.8513400
84 50.000000 25.000000 50.000000 14.254720 9.1681200 22.489640
85 0.0000000 25.000000 0.0000000 1.7526330 3.3973570 0.5265620
86 0.0000000 25.000000 25.000000 2.6238990 3.7653070 5.0928030
87 25.490000 25.490000 25.490000 4.6985750 4.9200350 5.4344470
88 50.000000 25.000000 25.000000 11.187160 8.1977750 5.2858570
89 75.000000 25.000000 25.000000 23.744710 14.726850 5.2511900
90 0.0000000 50.000000 0.0000000 7.8860950 15.654970 1.8328480
91 0.0000000 50.000000 25.000000 8.8926260 16.299430 6.3657050
92 25.000000 50.000000 25.000000 10.815630 17.302150 6.5661950
93 50.000000 50.000000 25.000000 17.468830 20.702120 6.5738500
94 75.000000 50.000000 25.000000 29.944320 27.141300 6.6137050
95 0.0000000 75.000000 0.0000000 18.961530 37.776420 4.1856380
96 0.0000000 75.000000 25.000000 19.995610 38.461470 8.7603450
97 25.000000 75.000000 25.000000 21.990050 39.563130 8.8943860
98 50.000000 75.000000 25.000000 28.785220 43.081670 8.9417190
99 75.000000 75.000000 25.000000 41.258530 49.582850 9.0218170
100 0.0000000 100.00000 0.0000000 36.636350 73.279530 8.0161200
101 0.0000000 100.00000 25.000000 37.570830 73.762970 12.562050
102 25.000000 100.00000 25.000000 39.589540 74.803390 12.760340
103 50.000000 100.00000 25.000000 46.325810 78.138920 12.744020
104 75.000000 100.00000 25.000000 58.866820 84.699270 12.828400
105 0.0000000 0.0000000 50.000000 3.8864570 1.2563140 21.434260
106 25.000000 0.0000000 50.000000 5.7981710 2.2190960 22.111860
107 50.000000 0.0000000 50.000000 12.323960 5.6103510 22.123240
108 75.000000 0.0000000 50.000000 24.846730 12.099930 22.354800
109 100.00000 0.0000000 50.000000 44.276390 22.176570 22.895460
110 100.00000 0.0000000 75.000000 49.831550 23.864220 54.111750
111 100.00000 25.000000 75.000000 51.667560 27.404870 54.276650
112 75.000000 0.0000000 25.000000 21.711410 11.138280 4.9006460
113 75.000000 25.000000 50.000000 26.831160 15.672000 22.716010
114 100.00000 25.000000 50.000000 45.974900 25.617940 23.160530
115 25.000000 25.000000 50.000000 7.5709480 5.6978860 22.272720
116 25.000000 50.000000 50.000000 13.947260 18.341850 23.820280
117 75.000000 50.000000 50.000000 33.154720 28.262170 24.060360
118 100.00000 50.000000 50.000000 52.300910 38.168270 24.604090
119 100.00000 50.000000 75.000000 57.909260 39.979240 55.816760
120 25.000000 75.000000 50.000000 25.102610 40.599920 26.053390
121 50.000000 75.000000 50.000000 31.908650 44.157960 26.061870
122 75.000000 75.000000 50.000000 44.476040 50.701130 26.495410
123 100.00000 75.000000 50.000000 63.582380 60.565880 26.938150
124 100.00000 75.000000 75.000000 69.132740 62.419560 58.150910
125 25.000000 100.00000 50.000000 42.663430 75.777130 30.043470
126 50.000000 100.00000 50.000000 49.452120 79.130930 30.045340
127 75.000000 100.00000 50.000000 61.975020 85.711900 30.179330
128 100.00000 100.00000 50.000000 80.913420 95.461990 30.824740
129 25.000000 0.0000000 75.000000 11.306280 3.8939440 53.003170
130 50.000000 0.0000000 75.000000 17.867190 7.2902220 53.214240
131 75.000000 0.0000000 75.000000 30.445560 13.808940 53.544870
132 75.000000 25.000000 75.000000 32.400480 17.440480 53.809790
133 75.000000 50.000000 100.00000 47.230640 32.885710 101.91130
134 25.000000 25.000000 75.000000 13.109220 7.4286630 53.264170
135 25.000000 50.000000 100.00000 28.011710 22.903450 101.56360
136 0.0000000 25.000000 50.000000 5.6673810 4.7400760 21.987290
137 0.0000000 25.000000 75.000000 11.177450 6.4166190 52.883270
138 0.0000000 50.000000 75.000000 17.527130 19.099720 54.028960
139 25.000000 50.000000 75.000000 19.462950 20.045720 54.603660
140 50.000000 50.000000 75.000000 26.234640 23.607500 54.814150
141 75.000000 50.000000 75.000000 38.743680 30.068230 55.139700
142 74.510000 74.510000 74.510000 49.825400 52.383540 57.075880
143 0.0000000 75.000000 75.000000 28.735970 41.418810 56.556620
144 25.000000 75.000000 75.000000 30.743890 42.441620 56.931330
145 50.000000 75.000000 75.000000 37.555220 46.044690 57.243760
146 0.0000000 75.000000 50.000000 23.102640 39.550730 25.562140
147 0.0000000 100.00000 50.000000 40.572740 74.706050 29.353810
148 0.0000000 100.00000 75.000000 46.138350 76.515960 60.348430
149 25.000000 100.00000 75.000000 48.123090 77.317550 60.917510
150 50.000000 100.00000 75.000000 55.029870 80.958580 61.228220
151 75.000000 100.00000 75.000000 67.660090 87.476430 61.457820
152 75.000000 100.00000 100.00000 76.138080 90.190440 108.19740
153 25.000000 0.0000000 100.00000 19.813380 6.4186290 100.62140
154 50.000000 0.0000000 100.00000 26.336100 9.7988660 100.63320
155 0.0000000 0.0000000 75.000000 9.4853680 2.9528510 52.806870
156 0.0000000 0.0000000 100.00000 17.912040 5.4614740 100.04440
157 0.0000000 25.000000 100.00000 19.687310 9.0603610 100.31480
158 25.000000 25.000000 100.00000 21.643320 10.055170 100.79090
159 50.000000 25.000000 100.00000 28.362980 13.539240 100.90070
160 75.000000 25.000000 100.00000 40.875370 20.018710 101.03210
161 100.00000 25.000000 100.00000 60.009070 29.958850 101.07410
162 100.00000 50.000000 100.00000 66.359830 42.787940 102.02440
163 50.000000 25.000000 75.000000 19.906670 10.923000 53.861800
164 50.000000 50.000000 100.00000 34.795460 26.411060 102.15200
165 0.0000000 50.000000 50.000000 11.951000 17.313940 23.127580
166 0.0000000 50.000000 100.00000 26.152660 21.905000 101.66490
167 0.0000000 75.000000 100.00000 37.392480 44.387300 104.00440
168 25.000000 75.000000 100.00000 39.354360 45.351840 104.47930
169 50.000000 75.000000 100.00000 46.041100 48.747790 104.28500
170 75.000000 75.000000 100.00000 58.642730 55.248040 104.61550
171 100.00000 75.000000 100.00000 77.458580 65.097160 104.66440
172 0.0000000 100.00000 100.00000 54.517040 78.959280 107.28320
173 25.000000 100.00000 100.00000 56.564380 80.023420 107.75880
174 50.000000 100.00000 100.00000 63.496550 83.683060 107.96870
175 100.00000 100.00000 100.00000 95.021450 99.996730 108.94740
END_DATA
CAL    

DESCRIPTOR "Argyll Device Calibration State"
ORIGINATOR "Argyll dispread"
CREATED "Wed May 01 13:21:18 2019"
DEVICE_CLASS "DISPLAY"
COLOR_REP "RGB"

BEGIN_ARGYLL_DISPCAL_ARGS
-v2 -ql -t6500 -g2.2 -f1.0 -k0 -A4.0 -d1 -c1 -yn -P0.455185358986,0.582591493571,1.0 -Ibw
END_ARGYLL_DISPCAL_ARGS


NUMBER_OF_FIELDS 4
BEGIN_DATA_FORMAT
RGB_I RGB_R RGB_G RGB_B
END_DATA_FORMAT

NUMBER_OF_SETS 256
BEGIN_DATA
0.00000000 0.00000000 0.00000000 0.00000000
0.00392157 0.00543350 0.00515631 0.00500957
0.00784314 0.01068930 0.01019730 0.00996592
0.01176470 0.01577610 0.01512680 0.01486990
0.01568630 0.02070170 0.01994850 0.01972230
0.01960780 0.02547390 0.02466580 0.02452400
0.02352940 0.03009950 0.02928220 0.02927570
0.02745100 0.03458530 0.03380060 0.03397780
0.03137250 0.03893540 0.03821980 0.03861890
0.03529410 0.04314620 0.04252770 0.04317990
0.03921570 0.04721470 0.04672040 0.04764860
0.04313730 0.05114680 0.05079160 0.05200910
0.04705880 0.05496010 0.05474920 0.05625940
0.05098040 0.05867410 0.05861000 0.06041420
0.05490200 0.06230470 0.06238600 0.06448680
0.05882350 0.06586340 0.06608470 0.06848590
0.06274510 0.06935790 0.06970970 0.07241810
0.06666670 0.07279510 0.07327370 0.07629320
0.07058820 0.07618780 0.07679410 0.08011700
0.07450980 0.07954840 0.08028650 0.08389980
0.07843140 0.08288830 0.08376600 0.08765880
0.08235290 0.08622380 0.08724470 0.09140670
0.08627450 0.08956390 0.09073310 0.09516140
0.09019610 0.09291960 0.09424140 0.09893300
0.09411760 0.09629960 0.09777840 0.10273400
0.09803920 0.09970520 0.10135200 0.10656200
0.10196100 0.10314600 0.10496100 0.11041300
0.10588200 0.10661800 0.10859900 0.11427700
0.10980400 0.11011700 0.11226200 0.11814900
0.11372500 0.11364700 0.11594300 0.12202100
0.11764700 0.11720400 0.11963700 0.12589000
0.12156900 0.12078200 0.12334300 0.12975300
0.12549000 0.12437500 0.12705800 0.13360800
0.12941200 0.12798700 0.13077900 0.13745800
0.13333300 0.13161300 0.13450800 0.14130600
0.13725500 0.13525000 0.13824100 0.14515200
0.14117600 0.13889600 0.14198100 0.14899800
0.14509800 0.14255200 0.14572100 0.15284300
0.14902000 0.14622900 0.14946700 0.15669200
0.15294100 0.14992200 0.15321400 0.16054600
0.15686300 0.15363700 0.15696000 0.16440800
0.16078400 0.15737400 0.16070800 0.16827300
0.16470600 0.16112900 0.16446300 0.17213900
0.16862700 0.16491100 0.16821300 0.17600900
0.17254900 0.16872600 0.17196100 0.17988300
0.17647100 0.17256800 0.17571100 0.18374900
0.18039200 0.17643500 0.17945900 0.18761100
0.18431400 0.18033400 0.18319400 0.19147500
0.18823500 0.18426600 0.18691800 0.19534100
0.19215700 0.18821300 0.19063300 0.19921600
0.19607800 0.19217500 0.19434100 0.20309400
0.20000000 0.19615100 0.19804500 0.20697800
0.20392200 0.20013900 0.20173700 0.21086800
0.20784300 0.20413700 0.20541300 0.21476600
0.21176500 0.20812400 0.20906700 0.21867000
0.21568600 0.21209700 0.21271100 0.22257200
0.21960800 0.21604500 0.21634500 0.22646200
0.22352900 0.21998100 0.21996700 0.23034000
0.22745100 0.22390500 0.22356900 0.23419800
0.23137300 0.22780400 0.22715700 0.23802600
0.23529400 0.23166700 0.23074000 0.24182400
0.23921600 0.23550800 0.23430900 0.24559700
0.24313700 0.23932900 0.23786100 0.24935400
0.24705900 0.24312600 0.24140000 0.25309300
0.25098000 0.24690500 0.24494200 0.25681500
0.25490200 0.25066600 0.24849900 0.26052000
0.25882400 0.25443600 0.25207000 0.26421500
0.26274500 0.25821300 0.25565200 0.26790500
0.26666700 0.26199500 0.25924900 0.27160600
0.27058800 0.26578600 0.26286400 0.27533100
0.27451000 0.26959100 0.26650400 0.27908100
0.27843100 0.27340900 0.27018000 0.28285900
0.28235300 0.27725700 0.27389800 0.28666800
0.28627500 0.28114300 0.27766000 0.29051000
0.29019600 0.28506900 0.28145700 0.29440000
0.29411800 0.28902800 0.28528600 0.29834800
0.29803900 0.29299600 0.28915100 0.30235300
0.30196100 0.29697300 0.29306900 0.30642100
0.30588200 0.30097100 0.29704500 0.31055700
0.30980400 0.30500100 0.30107300 0.31475900
0.31372500 0.30906200 0.30514800 0.31902100
0.31764700 0.31313900 0.30927000 0.32334500
0.32156900 0.31723400 0.31342700 0.32772000
0.32549000 0.32133800 0.31761300 0.33210900
0.32941200 0.32545200 0.32182800 0.33650800
0.33333300 0.32957300 0.32606000 0.34091900
0.33725500 0.33370300 0.33027200 0.34534200
0.34117600 0.33783900 0.33446300 0.34977000
0.34509800 0.34196800 0.33862800 0.35420300
0.34902000 0.34608800 0.34276600 0.35864000
0.35294100 0.35019900 0.34687500 0.36306500
0.35686300 0.35430700 0.35096600 0.36748000
0.36078400 0.35840800 0.35504700 0.37188000
0.36470600 0.36251200 0.35910800 0.37626600
0.36862700 0.36661800 0.36316000 0.38064800
0.37254900 0.37070900 0.36720300 0.38503300
0.37647100 0.37479100 0.37123900 0.38941300
0.38039200 0.37887100 0.37528200 0.39378800
0.38431400 0.38294700 0.37935300 0.39813900
0.38823500 0.38702300 0.38345800 0.40245600
0.39215700 0.39111600 0.38759300 0.40673800
0.39607800 0.39523800 0.39174400 0.41100900
0.40000000 0.39938500 0.39589000 0.41527600
0.40392200 0.40354500 0.40002400 0.41953700
0.40784300 0.40768600 0.40414500 0.42379300
0.41176500 0.41180300 0.40827900 0.42804400
0.41568600 0.41590000 0.41242600 0.43229700
0.41960800 0.41999900 0.41658000 0.43654700
0.42352900 0.42411400 0.42073700 0.44078200
0.42745100 0.42823500 0.42489500 0.44500000
0.43137300 0.43236700 0.42905700 0.44922300
0.43529400 0.43651400 0.43322400 0.45345300
0.43921600 0.44067800 0.43738500 0.45769200
0.44313700 0.44486300 0.44154700 0.46193400
0.44705900 0.44905200 0.44572700 0.46617600
0.45098000 0.45323400 0.44992500 0.47042400
0.45490200 0.45742600 0.45412300 0.47467600
0.45882400 0.46164500 0.45831500 0.47893500
0.46274500 0.46588000 0.46250100 0.48320000
0.46666700 0.47011800 0.46669300 0.48747200
0.47058800 0.47436000 0.47088700 0.49175000
0.47451000 0.47860600 0.47507800 0.49601400
0.47843100 0.48285700 0.47926700 0.50025900
0.48235300 0.48711400 0.48345200 0.50448600
0.48627500 0.49137700 0.48763900 0.50869500
0.49019600 0.49564500 0.49180900 0.51288500
0.49411800 0.49991900 0.49595800 0.51705200
0.49803900 0.50420200 0.50008600 0.52119900
0.50196100 0.50847200 0.50419300 0.52533700
0.50588200 0.51272700 0.50828800 0.52946400
0.50980400 0.51696700 0.51236500 0.53358000
0.51372500 0.52119300 0.51641600 0.53767500
0.51764700 0.52540500 0.52044700 0.54174400
0.52156900 0.52960200 0.52446200 0.54578400
0.52549000 0.53378000 0.52847500 0.54979200
0.52941200 0.53794400 0.53248000 0.55377400
0.53333300 0.54209600 0.53647100 0.55772400
0.53725500 0.54625000 0.54044800 0.56164700
0.54117600 0.55038800 0.54440600 0.56554400
0.54509800 0.55450500 0.54834700 0.56941200
0.54902000 0.55861200 0.55227200 0.57326600
0.55294100 0.56271100 0.55617700 0.57710800
0.55686300 0.56681000 0.56005300 0.58093000
0.56078400 0.57091200 0.56390000 0.58473300
0.56470600 0.57500600 0.56773400 0.58852000
0.56862700 0.57906800 0.57157300 0.59229100
0.57254900 0.58310300 0.57541400 0.59604300
0.57647100 0.58713300 0.57925700 0.59978300
0.58039200 0.59117000 0.58310300 0.60351900
0.58431400 0.59520700 0.58695000 0.60724800
0.58823500 0.59924400 0.59079400 0.61096900
0.59215700 0.60327500 0.59463600 0.61467800
0.59607800 0.60728400 0.59847700 0.61837100
0.60000000 0.61126800 0.60230600 0.62204700
0.60392200 0.61523200 0.60611400 0.62572200
0.60784300 0.61917500 0.60989700 0.62940300
0.61176500 0.62308900 0.61365100 0.63309600
0.61568600 0.62697500 0.61736500 0.63680300
0.61960800 0.63083500 0.62105200 0.64051900
0.62352900 0.63466300 0.62472000 0.64423600
0.62745100 0.63845400 0.62838400 0.64795500
0.63137300 0.64222600 0.63205100 0.65167400
0.63529400 0.64599100 0.63572100 0.65538200
0.63921600 0.64976200 0.63939500 0.65907700
0.64313700 0.65355100 0.64307100 0.66275900
0.64705900 0.65736500 0.64674900 0.66642200
0.65098000 0.66120200 0.65041300 0.67005900
0.65490200 0.66506100 0.65405400 0.67367100
0.65882400 0.66893500 0.65767200 0.67726500
0.66274500 0.67278300 0.66126500 0.68084600
0.66666700 0.67659900 0.66482900 0.68441700
0.67058800 0.68038300 0.66837000 0.68799000
0.67451000 0.68413100 0.67189300 0.69156000
0.67843100 0.68784500 0.67541100 0.69512200
0.68235300 0.69153500 0.67893000 0.69867700
0.68627500 0.69521200 0.68245600 0.70222600
0.69019600 0.69888900 0.68598500 0.70577100
0.69411800 0.70257000 0.68951000 0.70932000
0.69803900 0.70626100 0.69302800 0.71286900
0.70196100 0.70995400 0.69653900 0.71640900
0.70588200 0.71364100 0.70004100 0.71994100
0.70980400 0.71732600 0.70354000 0.72346300
0.71372500 0.72101200 0.70703700 0.72697500
0.71764700 0.72470500 0.71052600 0.73047900
0.72156900 0.72841100 0.71400400 0.73398100
0.72549000 0.73212000 0.71746700 0.73748400
0.72941200 0.73582300 0.72091500 0.74099000
0.73333300 0.73952200 0.72435000 0.74449900
0.73725500 0.74320900 0.72777800 0.74801700
0.74117600 0.74688600 0.73121800 0.75154800
0.74509800 0.75055300 0.73467200 0.75509300
0.74902000 0.75422900 0.73814000 0.75864800
0.75294100 0.75791800 0.74162500 0.76220700
0.75686300 0.76162100 0.74513300 0.76576900
0.76078400 0.76533300 0.74865900 0.76933900
0.76470600 0.76905800 0.75219300 0.77291900
0.76862700 0.77279500 0.75573300 0.77650900
0.77254900 0.77653300 0.75927400 0.78010400
0.77647100 0.78027300 0.76282000 0.78369700
0.78039200 0.78401800 0.76638300 0.78728100
0.78431400 0.78777100 0.76997200 0.79085400
0.78823500 0.79154700 0.77358700 0.79440900
0.79215700 0.79535300 0.77722100 0.79795200
0.79607800 0.79919100 0.78085600 0.80149900
0.80000000 0.80304800 0.78449200 0.80505300
0.80392200 0.80689700 0.78812200 0.80860500
0.80784300 0.81073600 0.79174700 0.81215700
0.81176500 0.81456700 0.79538100 0.81570600
0.81568600 0.81839600 0.79903300 0.81924800
0.81960800 0.82224200 0.80269600 0.82278400
0.82352900 0.82610800 0.80636600 0.82631200
0.82745100 0.82998600 0.81004200 0.82983300
0.83137300 0.83387400 0.81371600 0.83334400
0.83529400 0.83777000 0.81738900 0.83684300
0.83921600 0.84167100 0.82105600 0.84033500
0.84313700 0.84556800 0.82473000 0.84381800
0.84705900 0.84946100 0.82841500 0.84728600
0.85098000 0.85336800 0.83210600 0.85074100
0.85490200 0.85729300 0.83579400 0.85418500
0.85882400 0.86122200 0.83947800 0.85761500
0.86274500 0.86513800 0.84315400 0.86103100
0.86666700 0.86904100 0.84682500 0.86443700
0.87058800 0.87293700 0.85049000 0.86783200
0.87451000 0.87682600 0.85414500 0.87121000
0.87843100 0.88071100 0.85779300 0.87456500
0.88235300 0.88459700 0.86143700 0.87789800
0.88627500 0.88849100 0.86506900 0.88121700
0.89019600 0.89238700 0.86868400 0.88452500
0.89411800 0.89626600 0.87228400 0.88781700
0.89803900 0.90013600 0.87587700 0.89108900
0.90196100 0.90400200 0.87946300 0.89433600
0.90588200 0.90787200 0.88303600 0.89756700
0.90980400 0.91174500 0.88659000 0.90078700
0.91372500 0.91560200 0.89012800 0.90399700
0.91764700 0.91944800 0.89366900 0.90719800
0.92156900 0.92330200 0.89720900 0.91039200
0.92549000 0.92715500 0.90073800 0.91358300
0.92941200 0.93099700 0.90426500 0.91677400
0.93333300 0.93484200 0.90779700 0.91996700
0.93725500 0.93868800 0.91133600 0.92316200
0.94117600 0.94253800 0.91488200 0.92636200
