storage/U2719D #1 2019-05-01 13-52 D6500 2.2 F-S XYZLUT+MTX/U2719D #1 2019-05-01 13-52 D6500 2.2 F-S XYZLUT+MTX.bpc.ti3
CTI3   

DESCRIPTOR "Argyll Calibration Target chart information 3"
ORIGINATOR "Argyll dispread"
CREATED "Wed May 01 14:00:09 2019"
DEVICE_CLASS "DISPLAY"
SINGLE_DIM_STEPS "5"
COMP_GREY_STEPS "52"
MULTI_DIM_STEPS "5"
COLOR_REP "RGB_XYZ"
TARGET_INSTRUMENT "X-Rite i1 DisplayPro, ColorMunki Display"
DISPLAY_TYPE_REFRESH "NO"
DISPLAY_TYPE_BASE_ID "1"
INSTRUMENT_TYPE_SPECTRAL "NO"
LUMINANCE_XYZ_CDM2 "192.624194 203.306941 219.841480"
NORMALIZED_TO_Y_100 "YES"
VIDEO_LUT_CALIBRATION_POSSIBLE "YES"

BEGIN_ARGYLL_COLPROF_ARGS
-v -qh -aX -bn -C "No copyright. Created with DisplayCAL 3.8.0.0 and ArgyllCMS 2.1.0_mod" -M "DELL U2719D" -A "Dell, Inc."
END_ARGYLL_COLPROF_ARGS

OBSERVER "1931_2"
USE_BLACK_POINT_COMPENSATION "NO"
BLACK_POINT_CORRECTION "0.0"
HIRES_B2A "YES"
HIRES_B2A_SIZE "-1"
SMOOTH_B2A "YES"
PATCH_SEQUENCE "OPTIMIZE_DISPLAY_RESPONSE_DELAY"
3DLUT_HDR_MAXMLL_ALT_CLIP "1"
3DLUT_HDR_SAT "0.5"
3DLUT_HDR_PEAK_LUMINANCE "480.0"
3DLUT_HDR_MAXMLL "10000.0"
3DLUT_GAMUT_MAPPING_MODE "G"
3DLUT_HDR_MINMLL "0.0"
3DLUT_SOURCE_PROFILE "ref/Rec709.icm"
3DLUT_RENDERING_INTENT "aw"
3DLUT_HDR_DISPLAY "0"
3DLUT_FORMAT "cube"
3DLUT_HDR_AMBIENT_LUMINANCE "5.0"
3DLUT_APPLY_CAL "1"
3DLUT_SIZE "65"
3DLUT_GAMMA "-2.4"
3DLUT_INPUT_ENCODING "n"
3DLUT_OUTPUT_ENCODING "n"
3DLUT_INPUT_BITDEPTH "10"
3DLUT_TRC "bt1886"
3DLUT_OUTPUT_BITDEPTH "12"
3DLUT_DEGREE_OF_BLACK_OUTPUT_OFFSET "0.0"
3DLUT_HDR_HUE "0.5"
3DLUT_CONTENT_COLORSPACE_WHITE_X "0.3127"
3DLUT_CONTENT_COLORSPACE_WHITE_Y "0.329"
3DLUT_CONTENT_COLORSPACE_RED_X "0.68"
3DLUT_CONTENT_COLORSPACE_RED_Y "0.32"
3DLUT_CONTENT_COLORSPACE_GREEN_X "0.265"
3DLUT_CONTENT_COLORSPACE_GREEN_Y "0.69"
3DLUT_CONTENT_COLORSPACE_BLUE_X "0.15"
3DLUT_CONTENT_COLORSPACE_BLUE_Y "0.06"

NUMBER_OF_FIELDS 7
BEGIN_DATA_FORMAT
SAMPLE_ID RGB_R RGB_G RGB_B XYZ_X XYZ_Y XYZ_Z
END_DATA_FORMAT

NUMBER_OF_SETS 175
BEGIN_DATA
1 100.00000 100.00000 100.00000 94.745510 100.00000 108.13280
2 100.00000 100.00000 75.000000 86.345290 97.331600 61.399310
3 100.00000 100.00000 100.00000 94.790100 100.01760 108.13200
4 100.00000 100.00000 100.00000 94.745510 100.00000 108.13280
5 0.0000000 0.0000000 0.0000000 0.0940416 0.0992571 0.1073294
6 25.000000 0.0000000 0.0000000 1.8414797 1.0037893 0.1714516
7 50.000000 0.0000000 0.0000000 8.4459221 4.4327657 0.1617047
8 75.000000 0.0000000 0.0000000 20.825114 10.861496 0.1400884
9 100.00000 0.0000000 0.0000000 40.071331 20.866624 0.1247434
10 100.00000 0.0000000 25.000000 40.958751 21.145444 4.9311009
11 100.00000 25.000000 25.000000 42.721399 24.644753 5.3469575
12 100.00000 50.000000 25.000000 48.958603 37.018931 6.6499393
13 100.00000 75.000000 25.000000 60.236787 59.406807 9.1268859
14 0.0000000 0.0000000 25.000000 0.8721886 0.3365204 4.4327426
15 25.000000 0.0000000 25.000000 2.6505957 1.2537853 4.6600684
16 75.000000 0.0000000 100.00000 38.539376 16.169955 100.05075
17 100.00000 0.0000000 100.00000 58.196442 26.357303 100.53303
18 1.9608000 1.9608000 1.9608000 0.1019455 0.1073905 0.1173781
19 3.9216000 3.9216000 3.9216000 0.1613836 0.1697745 0.1980264
20 5.8824000 5.8824000 5.8824000 0.2511451 0.2608174 0.3144685
21 7.8431000 7.8431000 7.8431000 0.4415815 0.4586324 0.5500745
22 9.8039000 9.8039000 9.8039000 0.6373003 0.6650634 0.7757434
23 11.765000 11.765000 11.765000 0.9415220 0.9871273 1.1188450
24 13.726000 13.726000 13.726000 1.3007388 1.3678512 1.5167824
25 15.686000 15.686000 15.686000 1.6387049 1.7278892 1.8920042
26 17.647000 17.647000 17.647000 2.1576673 2.2598381 2.5507530
27 19.608000 19.608000 19.608000 2.7098283 2.8460450 3.1649698
28 21.569000 21.569000 21.569000 3.3262855 3.4977729 3.8591140
29 23.529000 23.529000 23.529000 3.9234557 4.1707598 4.5664193
30 27.451000 27.451000 27.451000 5.4127677 5.7136825 6.1889507
31 29.412000 29.412000 29.412000 6.2647095 6.6157813 7.1358949
32 31.373000 31.373000 31.373000 7.1804424 7.6019662 8.1800529
33 33.333000 33.333000 33.333000 8.2275323 8.6559870 9.4912509
34 35.294000 35.294000 35.294000 9.2439090 9.7621378 10.675716
35 37.255000 37.255000 37.255000 10.614695 11.128966 12.277936
36 39.216000 39.216000 39.216000 11.899985 12.571515 13.652165
37 41.176000 41.176000 41.176000 13.229594 13.920905 15.271355
38 43.137000 43.137000 43.137000 14.546734 15.306765 16.749215
39 45.098000 45.098000 45.098000 16.224884 17.105954 18.687734
40 47.059000 47.059000 47.059000 17.723514 18.698514 20.400634
41 49.020000 49.020000 49.020000 19.664003 20.760084 22.662494
42 50.980000 50.980000 50.980000 21.377793 22.539614 24.640273
43 52.941000 52.941000 52.941000 23.136983 24.452253 26.715063
44 54.902000 54.902000 54.902000 25.251542 26.657673 28.788783
45 56.863000 56.863000 56.863000 27.328732 28.850612 31.238522
46 58.824000 58.824000 58.824000 29.373721 31.047292 33.877032
47 60.784000 60.784000 60.784000 31.556421 33.439522 35.861291
48 62.745000 62.745000 62.745000 33.737321 35.652021 38.589861
49 64.706000 64.706000 64.706000 36.257620 38.350911 41.512251
50 66.667000 66.667000 66.667000 38.604490 40.612320 44.049630
51 68.627000 68.627000 68.627000 41.232239 43.525050 47.538950
52 70.588000 70.588000 70.588000 43.590259 45.934439 49.799689
53 72.549000 72.549000 72.549000 46.483409 48.989289 53.191739
54 76.471000 76.471000 76.471000 51.996298 54.836238 59.600078
55 78.431000 78.431000 78.431000 54.950807 57.830587 62.894247
56 80.392000 80.392000 80.392000 58.187656 61.298177 66.665027
57 82.353000 82.353000 82.353000 61.008496 64.214176 69.491646
58 84.314000 84.314000 84.314000 64.518755 67.944516 73.638176
59 86.275000 86.275000 86.275000 68.165715 71.806235 77.972575
60 88.235000 88.235000 88.235000 71.654654 75.304794 81.830254
61 90.196000 90.196000 90.196000 75.024623 79.118664 86.171774
62 92.157000 92.157000 92.157000 79.066383 83.274493 90.691543
63 94.118000 94.118000 94.118000 82.417282 86.794062 94.366702
64 96.078000 96.078000 96.078000 86.644171 91.267412 98.891662
65 98.039000 98.039000 98.039000 90.876941 95.898221 103.79720
66 25.000000 25.000000 0.0000000 3.6406663 4.4409027 0.5348777
67 50.000000 25.000000 0.0000000 10.354839 7.9168271 0.5216741
68 75.000000 25.000000 0.0000000 22.609550 14.285625 0.4992629
69 100.00000 25.000000 0.0000000 41.977379 24.353103 0.4867852
70 100.00000 50.000000 0.0000000 47.785683 36.284411 1.7725074
71 50.000000 50.000000 0.0000000 16.436802 20.000464 1.8106886
72 75.000000 50.000000 0.0000000 28.714753 26.351473 1.7834700
73 25.000000 50.000000 0.0000000 9.6667011 16.455815 1.8163942
74 25.000000 75.000000 0.0000000 20.844307 38.751131 4.1963453
75 50.000000 75.000000 0.0000000 27.693917 42.388850 4.1930500
76 75.000000 75.000000 0.0000000 40.106018 48.792759 4.1674056
77 100.00000 75.000000 0.0000000 58.978187 58.618987 4.1548482
78 25.000000 100.00000 0.0000000 38.566173 74.328114 8.0434540
79 50.000000 100.00000 0.0000000 45.440223 77.793584 8.0161748
80 75.000000 100.00000 0.0000000 57.824842 84.217713 7.9919435
81 100.00000 100.00000 0.0000000 76.562711 93.991611 7.9820482
82 100.00000 100.00000 25.000000 77.587471 94.484141 12.867170
83 50.000000 0.0000000 25.000000 9.2540558 4.6834557 4.7484144
84 50.000000 25.000000 50.000000 14.284151 9.2733379 22.338857
85 0.0000000 25.000000 0.0000000 1.7939013 3.4800929 0.5381162
86 0.0000000 25.000000 25.000000 2.6441796 3.8549388 4.9414707
87 25.490000 25.490000 25.490000 4.6572036 4.9791266 5.2682446
88 50.000000 25.000000 25.000000 11.249859 8.3100490 5.1404169
89 75.000000 25.000000 25.000000 23.552990 14.695725 5.1345929
90 0.0000000 50.000000 0.0000000 7.8813482 15.602755 1.8328943
91 0.0000000 50.000000 25.000000 8.8184837 16.186685 6.2665943
92 25.000000 50.000000 25.000000 10.670150 17.117384 6.4052991
93 50.000000 50.000000 25.000000 17.517882 20.718374 6.4794280
94 75.000000 50.000000 25.000000 29.807733 27.070553 6.5178496
95 0.0000000 75.000000 0.0000000 19.002247 37.788201 4.2007264
96 0.0000000 75.000000 25.000000 20.010487 38.522281 8.6419337
97 25.000000 75.000000 25.000000 21.940627 39.508701 8.8584417
98 50.000000 75.000000 25.000000 28.692448 42.959010 8.8096193
99 75.000000 75.000000 25.000000 40.989558 49.406369 8.8493516
100 0.0000000 100.00000 0.0000000 36.612903 73.296525 8.0408500
101 0.0000000 100.00000 25.000000 37.510613 73.805585 12.453821
102 25.000000 100.00000 25.000000 39.391663 74.564234 12.591891
103 50.000000 100.00000 25.000000 46.370433 78.275984 12.700761
104 75.000000 100.00000 25.000000 58.736672 84.721163 12.728761
105 0.0000000 0.0000000 50.000000 3.8722920 1.2492483 21.348214
106 25.000000 0.0000000 50.000000 5.7063731 2.1851521 21.799647
107 50.000000 0.0000000 50.000000 12.347147 5.6251495 22.084247
108 75.000000 0.0000000 50.000000 24.663175 12.020015 22.197332
109 100.00000 0.0000000 50.000000 44.111251 22.107104 22.682113
110 100.00000 0.0000000 75.000000 49.741871 23.843973 53.612511
111 100.00000 25.000000 75.000000 51.343219 27.335333 53.870039
112 75.000000 0.0000000 25.000000 21.563714 11.072976 4.8042614
113 75.000000 25.000000 50.000000 26.677851 15.675495 22.539918
114 100.00000 25.000000 50.000000 45.992809 25.724563 23.121341
115 25.000000 25.000000 50.000000 7.5730374 5.8026715 22.237987
116 25.000000 50.000000 50.000000 13.782212 18.208924 23.504626
117 75.000000 50.000000 50.000000 32.978154 28.163933 23.898901
118 100.00000 50.000000 50.000000 52.124403 38.085081 24.481168
119 100.00000 50.000000 75.000000 57.580763 39.894521 54.757242
120 25.000000 75.000000 50.000000 25.052347 40.619860 26.083347
121 50.000000 75.000000 50.000000 31.839178 44.086930 25.988486
122 75.000000 75.000000 50.000000 44.333398 50.683119 26.290605
123 100.00000 75.000000 50.000000 63.462267 60.566447 26.872014
124 100.00000 75.000000 75.000000 68.707387 62.193707 57.239246
125 25.000000 100.00000 50.000000 42.420603 75.520774 29.746982
126 50.000000 100.00000 50.000000 49.480873 79.250374 30.027642
127 75.000000 100.00000 50.000000 61.885272 85.695593 30.233491
128 100.00000 100.00000 50.000000 80.727151 95.472571 30.726410
129 25.000000 0.0000000 75.000000 11.158683 3.8417718 52.430031
130 50.000000 0.0000000 75.000000 17.716599 7.2462932 52.339377
131 75.000000 0.0000000 75.000000 30.244525 13.727055 53.010515
132 75.000000 25.000000 75.000000 32.164371 17.426744 52.890068
133 75.000000 50.000000 100.00000 46.962395 32.676192 101.04892
134 25.000000 25.000000 75.000000 13.021663 7.4721962 52.772726
135 25.000000 50.000000 100.00000 27.963835 22.843903 101.67913
136 0.0000000 25.000000 50.000000 5.6672022 4.8168486 21.785537
137 0.0000000 25.000000 75.000000 11.069293 6.4605854 52.045551
138 0.0000000 50.000000 75.000000 17.335383 18.989374 53.407286
139 25.000000 50.000000 75.000000 19.345134 19.998994 54.127725
140 50.000000 50.000000 75.000000 26.058474 23.505043 53.942332
141 75.000000 50.000000 75.000000 38.500904 29.987792 54.236597
142 74.510000 74.510000 74.510000 49.209598 51.797028 56.156548
143 0.0000000 75.000000 75.000000 28.564988 41.433630 55.699912
144 25.000000 75.000000 75.000000 30.502488 42.330510 56.325881
145 50.000000 75.000000 75.000000 37.387028 45.953579 56.702580
146 0.0000000 75.000000 50.000000 23.064077 39.607621 25.441137
147 0.0000000 100.00000 50.000000 40.531473 74.753794 29.204842
148 0.0000000 100.00000 75.000000 45.904813 76.302804 59.645453
149 25.000000 100.00000 75.000000 47.962443 77.383754 60.086553
150 50.000000 100.00000 75.000000 54.853713 80.871093 60.270843
151 75.000000 100.00000 75.000000 67.431092 87.523732 60.666392
152 75.000000 100.00000 100.00000 75.702132 89.914462 107.54150
153 25.000000 0.0000000 100.00000 19.657694 6.3693724 100.03419
154 50.000000 0.0000000 100.00000 26.224610 9.7662118 100.13187
155 0.0000000 0.0000000 75.000000 9.2828445 2.8926020 51.687840
156 0.0000000 0.0000000 100.00000 17.810396 5.4288085 99.497612
157 0.0000000 25.000000 100.00000 19.618426 9.1045799 99.755783
158 25.000000 25.000000 100.00000 21.563706 10.103216 100.29137
159 50.000000 25.000000 100.00000 28.256924 13.601785 100.10735
160 75.000000 25.000000 100.00000 40.786382 20.068344 100.68544
161 100.00000 25.000000 100.00000 59.718009 29.893212 100.61513
162 100.00000 50.000000 100.00000 66.197183 42.721310 102.07512
163 50.000000 25.000000 75.000000 19.782233 10.983646 52.761992
164 50.000000 50.000000 100.00000 34.574995 26.256413 101.00403
165 0.0000000 50.000000 50.000000 11.838871 17.218824 22.861176
166 0.0000000 50.000000 100.00000 26.024165 21.819724 101.12044
167 0.0000000 75.000000 100.00000 37.160479 44.192520 103.14012
168 25.000000 75.000000 100.00000 39.111529 45.200820 103.58202
169 50.000000 75.000000 100.00000 46.041478 48.842299 103.95791
170 75.000000 75.000000 100.00000 58.398498 55.230028 103.88261
171 100.00000 75.000000 100.00000 77.246907 65.062856 104.09641
172 0.0000000 100.00000 100.00000 54.526473 78.996944 107.36360
173 25.000000 100.00000 100.00000 56.466143 80.074143 107.24590
174 50.000000 100.00000 100.00000 63.293942 83.544073 107.33780
175 100.00000 100.00000 100.00000 94.743130 99.994840 108.13280
END_DATA
CAL    

DESCRIPTOR "Argyll Device Calibration State"
ORIGINATOR "Argyll dispread"
CREATED "Wed May 01 14:00:09 2019"
DEVICE_CLASS "DISPLAY"
COLOR_REP "RGB"

BEGIN_ARGYLL_DISPCAL_ARGS
-v2 -ql -t6500 -g2.2 -f1.0 -k0 -A4.0 -d1 -c1 -yn -P0.455185358986,0.582591493571,1.0 -Ibw
END_ARGYLL_DISPCAL_ARGS


NUMBER_OF_FIELDS 4
BEGIN_DATA_FORMAT
RGB_I RGB_R RGB_G RGB_B
END_DATA_FORMAT

NUMBER_OF_SETS 256
BEGIN_DATA
0.00000000 0.00000000 0.00000000 0.00000000
0.00392157 0.00556072 0.00516756 0.00488896
0.00784314 0.01095390 0.01022860 0.00974410
0.01176470 0.01618690 0.01518640 0.01456580
0.01568630 0.02126680 0.02004410 0.01935430
0.01960780 0.02620020 0.02480470 0.02411000
0.02352940 0.03099340 0.02947100 0.02883330
0.02745100 0.03565150 0.03404570 0.03352430
0.03137250 0.04017120 0.03852600 0.03817320
0.03529410 0.04455390 0.04290290 0.04275900
0.03921570 0.04880940 0.04716890 0.04727190
0.04313730 0.05294760 0.05132330 0.05170480
0.04705880 0.05697890 0.05537110 0.05604930
0.05098040 0.06091450 0.05931900 0.06029760
0.05490200 0.06476570 0.06317360 0.06444370
0.05882350 0.06854480 0.06694050 0.06848740
0.06274510 0.07226540 0.07062760 0.07243640
0.06666670 0.07594190 0.07424350 0.07630290
0.07058820 0.07958390 0.07780020 0.08009990
0.07450980 0.08319900 0.08130980 0.08383800
0.07843140 0.08679630 0.08478820 0.08753140
0.08235290 0.09037950 0.08824400 0.09118980
0.08627450 0.09395560 0.09169460 0.09482950
0.09019610 0.09752800 0.09514690 0.09845560
0.09411760 0.10109900 0.09860780 0.10207900
0.09803920 0.10467400 0.10208500 0.10570000
0.10196100 0.10825000 0.10557700 0.10932200
0.10588200 0.11182600 0.10908700 0.11295300
0.10980400 0.11540700 0.11262100 0.11659300
0.11372500 0.11899200 0.11617500 0.12024300
0.11764700 0.12257800 0.11974600 0.12390500
0.12156900 0.12617000 0.12333900 0.12757900
0.12549000 0.12977200 0.12695300 0.13126600
0.12941200 0.13338400 0.13058500 0.13497200
0.13333300 0.13700400 0.13423400 0.13870000
0.13725500 0.14063100 0.13790100 0.14246100
0.14117600 0.14427300 0.14159100 0.14625700
0.14509800 0.14792800 0.14530400 0.15008900
0.14902000 0.15159600 0.14904100 0.15395500
0.15294100 0.15527800 0.15279900 0.15785300
0.15686300 0.15896900 0.15657400 0.16178300
0.16078400 0.16266700 0.16036800 0.16573800
0.16470600 0.16637500 0.16418400 0.16970600
0.16862700 0.17009500 0.16800800 0.17368400
0.17254900 0.17381800 0.17184200 0.17766300
0.17647100 0.17754200 0.17568700 0.18162700
0.18039200 0.18126800 0.17953800 0.18556400
0.18431400 0.18499200 0.18337700 0.18947100
0.18823500 0.18870400 0.18720200 0.19334600
0.19215700 0.19240800 0.19101400 0.19719500
0.19607800 0.19610600 0.19481400 0.20102100
0.20000000 0.19979700 0.19860600 0.20482200
0.20392200 0.20349700 0.20238200 0.20860200
0.20784300 0.20720000 0.20614200 0.21236800
0.21176500 0.21090900 0.20988400 0.21612000
0.21568600 0.21462100 0.21361200 0.21986100
0.21960800 0.21834600 0.21732500 0.22358400
0.22352900 0.22208900 0.22101400 0.22729100
0.22745100 0.22584500 0.22467400 0.23098700
0.23137300 0.22960200 0.22831600 0.23467500
0.23529400 0.23336300 0.23193900 0.23835300
0.23921600 0.23713600 0.23554400 0.24202100
0.24313700 0.24091400 0.23912900 0.24569300
0.24705900 0.24469600 0.24270000 0.24937900
0.25098000 0.24848200 0.24627600 0.25307900
0.25490200 0.25228500 0.24985900 0.25679000
0.25882400 0.25609900 0.25344700 0.26051000
0.26274500 0.25992000 0.25703900 0.26424200
0.26666700 0.26374600 0.26063900 0.26799400
0.27058800 0.26757800 0.26424400 0.27178200
0.27451000 0.27141400 0.26787100 0.27560200
0.27843100 0.27525600 0.27152800 0.27945300
0.28235300 0.27911300 0.27521600 0.28333200
0.28627500 0.28299100 0.27893100 0.28723700
0.29019600 0.28689300 0.28266800 0.29116500
0.29411800 0.29080600 0.28642300 0.29512800
0.29803900 0.29472300 0.29020000 0.29912900
0.30196100 0.29865000 0.29401400 0.30316800
0.30588200 0.30259300 0.29786700 0.30723900
0.30980400 0.30656000 0.30175200 0.31134000
0.31372500 0.31054900 0.30566200 0.31547500
0.31764700 0.31455200 0.30959600 0.31963900
0.32156900 0.31857300 0.31355400 0.32383100
0.32549000 0.32261000 0.31753700 0.32805300
0.32941200 0.32666200 0.32154100 0.33229400
0.33333300 0.33072600 0.32557000 0.33655700
0.33725500 0.33480200 0.32961500 0.34084100
0.34117600 0.33889000 0.33367500 0.34514500
0.34509800 0.34298700 0.33775200 0.34947600
0.34902000 0.34709200 0.34184600 0.35384100
0.35294100 0.35120700 0.34595800 0.35822400
0.35686300 0.35533100 0.35008800 0.36260600
0.36078400 0.35946200 0.35423600 0.36698800
0.36470600 0.36361400 0.35838000 0.37137300
0.36862700 0.36778000 0.36251700 0.37576300
0.37254900 0.37194800 0.36665500 0.38016800
0.37647100 0.37612400 0.37079600 0.38458300
0.38039200 0.38031600 0.37494400 0.38900100
0.38431400 0.38452200 0.37911400 0.39341400
0.38823500 0.38874800 0.38330500 0.39780500
0.39215700 0.39300600 0.38751400 0.40216600
0.39607800 0.39729700 0.39172500 0.40649200
0.40000000 0.40161900 0.39591700 0.41080200
0.40392200 0.40593400 0.40008700 0.41510400
0.40784300 0.41022900 0.40423700 0.41939900
0.41176500 0.41450700 0.40839100 0.42369700
0.41568600 0.41878100 0.41255000 0.42799700
0.41960800 0.42306400 0.41671600 0.43229100
0.42352900 0.42735500 0.42089100 0.43657500
0.42745100 0.43165500 0.42507700 0.44084200
0.43137300 0.43596400 0.42927700 0.44509800
0.43529400 0.44027900 0.43348200 0.44935900
0.43921600 0.44460900 0.43768000 0.45362200
0.44313700 0.44894200 0.44187300 0.45788000
0.44705900 0.45326400 0.44608700 0.46213700
0.45098000 0.45758000 0.45031500 0.46639200
0.45490200 0.46190300 0.45454800 0.47064600
0.45882400 0.46622400 0.45878800 0.47490000
0.46274500 0.47054200 0.46303500 0.47915300
0.46666700 0.47486000 0.46729000 0.48340700
0.47058800 0.47917700 0.47155200 0.48766300
0.47451000 0.48349500 0.47582200 0.49191800
0.47843100 0.48781400 0.48010000 0.49615300
0.48235300 0.49213500 0.48438700 0.50036900
0.48627500 0.49645900 0.48867700 0.50456400
0.49019600 0.50078600 0.49294300 0.50873900
0.49411800 0.50511300 0.49718100 0.51289200
0.49803900 0.50941400 0.50139300 0.51702500
0.50196100 0.51368800 0.50557800 0.52113700
0.50588200 0.51793500 0.50973700 0.52523100
0.50980400 0.52215400 0.51386800 0.52931500
0.51372500 0.52634400 0.51797300 0.53338300
0.51764700 0.53050500 0.52205100 0.53741800
0.52156900 0.53464000 0.52611300 0.54142200
0.52549000 0.53874500 0.53015900 0.54540900
0.52941200 0.54282600 0.53416900 0.54938100
0.53333300 0.54688800 0.53814100 0.55333300
0.53725500 0.55091900 0.54208500 0.55726100
0.54117600 0.55491700 0.54600800 0.56116200
0.54509800 0.55889300 0.54991000 0.56503200
0.54902000 0.56285000 0.55379000 0.56886900
0.55294100 0.56679600 0.55764100 0.57268500
0.55686300 0.57073300 0.56145900 0.57648200
0.56078400 0.57465300 0.56524400 0.58026600
0.56470600 0.57854400 0.56901400 0.58403700
0.56862700 0.58240700 0.57277000 0.58780000
0.57254900 0.58624800 0.57651100 0.59155400
0.57647100 0.59007600 0.58023900 0.59529700
0.58039200 0.59388500 0.58395400 0.59902500
0.58431400 0.59767700 0.58765400 0.60273500
0.58823500 0.60145300 0.59133900 0.60642700
0.59215700 0.60522400 0.59501200 0.61010300
0.59607800 0.60898900 0.59866900 0.61376400
0.60000000 0.61274500 0.60230400 0.61741100
0.60392200 0.61649400 0.60591900 0.62104900
0.60784300 0.62022900 0.60951700 0.62469400
0.61176500 0.62395000 0.61309900 0.62835000
0.61568600 0.62766400 0.61666100 0.63201800
0.61960800 0.63137500 0.62022200 0.63569200
0.62352900 0.63508000 0.62378800 0.63936400
0.62745100 0.63877900 0.62736600 0.64303100
0.63137300 0.64247900 0.63095800 0.64669200
0.63529400 0.64618600 0.63456200 0.65034600
0.63921600 0.64990900 0.63817600 0.65399000
0.64313700 0.65365500 0.64179600 0.65762200
0.64705900 0.65742600 0.64542400 0.66124300
0.65098000 0.66121800 0.64904400 0.66484700
0.65490200 0.66503400 0.65264400 0.66842700
0.65882400 0.66886200 0.65622500 0.67197900
0.66274500 0.67266600 0.65978600 0.67550800
0.66666700 0.67644300 0.66332300 0.67901900
0.67058800 0.68019300 0.66683600 0.68252000
0.67451000 0.68391600 0.67032800 0.68601600
0.67843100 0.68761300 0.67380800 0.68951000
0.68235300 0.69129400 0.67728300 0.69300200
0.68627500 0.69496700 0.68076300 0.69649300
0.69019600 0.69864100 0.68425100 0.69999100
0.69411800 0.70231700 0.68774400 0.70349900
0.69803900 0.70600000 0.69123800 0.70701200
0.70196100 0.70968700 0.69473600 0.71051900
0.70588200 0.71337700 0.69824000 0.71401100
0.70980400 0.71707000 0.70175300 0.71748600
0.71372500 0.72076900 0.70527300 0.72094700
0.71764700 0.72447200 0.70878600 0.72439800
0.72156900 0.72818200 0.71228700 0.72783900
0.72549000 0.73188600 0.71577700 0.73128300
0.72941200 0.73558300 0.71925700 0.73473700
0.73333300 0.73928100 0.72272500 0.73820200
0.73725500 0.74297900 0.72618600 0.74168000
0.74117600 0.74667900 0.72965600 0.74517200
0.74509800 0.75038100 0.73313800 0.74867100
0.74902000 0.75409300 0.73663200 0.75217500
0.75294100 0.75780800 0.74013800 0.75568300
0.75686300 0.76152900 0.74365700 0.75919900
0.76078400 0.76525800 0.74718700 0.76273100
0.76470600 0.76899600 0.75072100 0.76628200
0.76862700 0.77273800 0.75425800 0.76985400
0.77254900 0.77647800 0.75780500 0.77344100
0.77647100 0.78022200 0.76136700 0.77704000
0.78039200 0.78397500 0.76494800 0.78064100
0.78431400 0.78773800 0.76854900 0.78423800
0.78823500 0.79152200 0.77216800 0.78782800
0.79215700 0.79533300 0.77580100 0.79140700
0.79607800 0.79916800 0.77942800 0.79497200
0.80000000 0.80301400 0.78304600 0.79853500
0.80392200 0.80684500 0.78665000 0.80210400
0.80784300 0.81065900 0.79024200 0.80568100
0.81176500 0.81445800 0.79383000 0.80927000
0.81568600 0.81825100 0.79743000 0.81286300
0.81960800 0.82204700 0.80104100 0.81645200
0.82352900 0.82584600 0.80466200 0.82003500
0.82745100 0.82964500 0.80829200 0.82361600
0.83137300 0.83344600 0.81192300 0.82720300
0.83529400 0.83724700 0.81555200 0.83079300
0.83921600 0.84104500 0.81917500 0.83438200
0.84313700 0.84484100 0.82280000 0.83797000
0.84705900 0.84863500 0.82643300 0.84155300
0.85098000 0.85243800 0.83007200 0.84512900
0.85490200 0.85625000 0.83370900 0.84869800
0.85882400 0.86006600 0.83734200 0.85226200
0.86274500 0.86387200 0.84096800 0.85582300
0.86666700 0.86766700 0.84459100 0.85938200
0.87058800 0.87146200 0.84821400 0.86293300
0.87451000 0.87525800 0.85184200 0.86647200
0.87843100 0.87905900 0.85547700 0.86999700
0.88235300 0.88287000 0.85912300 0.87350000
0.88627500 0.88669400 0.86277400 0.87698500
0.89019600 0.89053000 0.86642100 0.88046200
0.89411800 0.89436300 0.87006500 0.88392700
0.89803900 0.89818800 0.87371300 0.88737200
0.90196100 0.90201200 0.87737400 0.89078800
0.90588200 0.90584100 0.88104600 0.89418400
0.90980400 0.90968000 0.88471300 0.89756500
0.91372500 0.91351600 0.88837000 0.90092800
0.91764700 0.91734600 0.89203200 0.90427300
0.92156900 0.92118300 0.89569700 0.90760000
0.92549000 0.92502900 0.89935700 0.91091300
0.92941200 0.92887400 0.90301200 0.91421300
0.93333300 0.93272800 0.90666100 0.91749900
0.93725500 0.93659100 0.91030400 0.92077300
0.94117600 0.94046200 0.91394100 0.92403700
