storage/madVR 2019-05-01 18-15 0.3127x 0.329y S XYZLUT+MTX/madVR 2019-05-01 18-15 0.3127x 0.329y S XYZLUT+MTX.ti1
CTI1   

DESCRIPTOR "Argyll Calibration Target chart information 1"
ORIGINATOR "Argyll targen"
CREATED "Wed May 01 18:18:09 2019"
APPROX_WHITE_POINT "93.771362 100.000000 111.970520"
COLOR_REP "RGB"
ACCURATE_EXPECTED_VALUES "true"
DARK_REGION_EMPHASIS "1.6"
WHITE_COLOR_PATCHES "4"
BLACK_COLOR_PATCHES "4"
SINGLE_DIM_STEPS "17"
COMP_GREY_STEPS "49"
OFPS_PATCHES "288"

NUMBER_OF_FIELDS 7
BEGIN_DATA_FORMAT
SAMPLE_ID RGB_R RGB_G RGB_B XYZ_X XYZ_Y XYZ_Z
END_DATA_FORMAT

NUMBER_OF_SETS 417
BEGIN_DATA
1 100.00000 100.00000 100.00000 93.771360 100.00000 111.97050
2 1.9608000 1.9608000 1.9608000 1.1428000 1.1502000 1.1637000
3 3.9216000 3.9216000 3.9216000 1.2856000 1.3005000 1.3273000
4 5.8824000 5.8824000 5.8824000 1.4495000 1.4729000 1.5152000
5 9.8039000 9.8039000 9.8039000 1.9148000 1.9624000 2.0484000
6 13.726000 13.726000 13.726000 2.5817000 2.6639000 2.8126000
7 17.647000 17.647000 17.647000 3.4695000 3.5979000 3.8300000
8 21.569000 21.569000 21.569000 4.5953000 4.7822000 5.1201000
9 25.490000 25.490000 25.490000 5.9745000 6.2332000 6.7007000
10 29.412000 29.412000 29.412000 7.6213000 7.9656000 8.5879000
11 33.333000 33.333000 33.333000 9.5488000 9.9933000 10.797000
12 37.255000 37.255000 37.255000 11.769000 12.329000 13.341000
13 41.176000 41.176000 41.176000 14.294000 14.985000 16.234000
14 45.098000 45.098000 45.098000 17.134000 17.973000 19.489000
15 49.020000 49.020000 49.020000 20.299000 21.303000 23.117000
16 52.941000 52.941000 52.941000 23.800000 24.986000 27.129000
17 56.863000 56.863000 56.863000 27.646000 29.032000 31.536000
18 60.784000 60.784000 60.784000 31.846000 33.450000 36.349000
19 64.706000 64.706000 64.706000 36.409000 38.250000 41.578000
20 68.627000 68.627000 68.627000 41.343000 43.440000 47.232000
21 72.549000 72.549000 72.549000 46.656000 49.030000 53.321000
22 76.471000 76.471000 76.471000 52.356000 55.027000 59.853000
23 80.392000 80.392000 80.392000 58.452000 61.439000 66.838000
24 84.314000 84.314000 84.314000 64.949000 68.275000 74.285000
25 88.235000 88.235000 88.235000 71.857000 75.541000 82.200000
26 92.157000 92.157000 92.157000 79.181000 83.246000 90.594000
27 96.078000 96.078000 96.078000 86.929000 91.397000 99.472000
28 56.696100 0.0000000 27.242200 11.476730 5.7769470 5.7741680
29 63.695200 0.0000000 42.728500 16.142150 7.8735210 14.056320
30 78.933000 54.081500 44.568900 34.074650 30.364000 17.283850
31 84.551900 68.738800 57.615700 46.717980 46.347060 30.745110
32 87.581500 75.226100 75.194700 56.684130 55.901060 55.310780
33 33.512500 37.395800 27.689600 8.6107880 10.311270 6.8653200
34 43.103500 43.103500 43.103500 13.757270 14.663300 15.497650
35 47.021900 68.348700 45.817000 25.181010 35.298490 19.647290
36 61.905800 86.143700 47.790400 42.323840 60.641600 23.673140
37 100.00000 100.00000 62.781000 81.183080 96.233130 41.440770
38 0.0000000 100.00000 0.0000000 37.200140 74.706030 8.2738260
39 0.0000000 100.00000 31.582500 38.566350 75.114850 15.928440
40 0.0000000 100.00000 100.00000 55.714530 80.246200 112.00640
41 51.621800 100.00000 100.00000 64.172170 84.636230 111.99840
42 0.0000000 23.081100 79.739000 12.046490 6.1696410 59.306790
43 12.891000 35.976000 80.665000 15.007480 11.041050 61.454200
44 77.291000 0.0000000 61.363400 27.038890 12.841890 31.576660
45 76.717000 0.0000000 80.886300 31.926090 14.223770 61.012180
46 78.323400 91.879100 88.337800 66.599010 77.627880 83.359430
47 0.0000000 100.00000 53.920300 41.388830 75.959430 31.742250
48 40.314100 100.00000 54.367800 46.486430 78.587930 32.182780
49 51.403200 100.00000 73.031800 54.084720 81.600540 55.917920
50 0.0000000 0.0000000 100.00000 18.596830 5.6234280 103.89310
51 0.0000000 28.754300 100.00000 20.968630 10.391780 104.41160
52 0.0000000 48.007300 100.00000 25.389950 19.280560 105.37800
53 51.994100 70.919100 100.00000 43.843310 43.566540 107.52550
54 2.9412000 0.0000000 0.0000000 0.0949384 0.0897426 0.1605450
55 0.0000000 13.157900 0.0000000 0.4625960 0.8475280 0.2436510
56 0.0000000 17.123300 0.0000000 0.8105750 1.5471160 0.3197130
57 0.0000000 21.428600 0.0000000 1.3188380 2.5689470 0.4308110
58 0.0000000 26.119400 0.0000000 2.0112850 3.9610680 0.5821670
59 0.0000000 31.250000 0.0000000 2.9042520 5.7563210 0.7773540
60 0.0000000 36.885200 0.0000000 4.0166680 7.9927640 1.0205080
61 0.0000000 50.000000 0.0000000 7.5178880 15.031740 1.7858130
62 0.0000000 57.692300 0.0000000 10.348440 20.722380 2.4045210
63 0.0000000 66.326500 0.0000000 14.328290 28.723630 3.2744460
64 0.0000000 76.087000 0.0000000 19.664530 39.451790 4.4408530
65 0.0000000 87.209300 0.0000000 27.257270 54.716520 6.1004920
66 25.932500 90.091500 12.510800 31.657920 60.312720 7.4652230
67 40.978800 100.00000 24.938900 43.216180 77.646880 12.903440
68 35.867700 82.999600 0.0000000 28.075650 50.459530 5.4105790
69 58.874600 100.00000 0.0000000 48.513390 80.578290 8.2631580
70 68.460100 100.00000 43.535700 55.852420 83.820240 22.721740
71 0.0000000 29.368300 50.738200 6.2039490 6.1591610 21.104190
72 42.186100 36.527900 57.720100 14.326010 12.159120 28.329040
73 46.255000 50.178000 67.531500 21.352530 20.740490 41.567220
74 100.00000 100.00000 100.00000 93.771360 100.00000 111.97050
75 0.0000000 0.0000000 36.885200 1.9324700 0.6368520 10.525890
76 0.0000000 0.0000000 43.103500 2.6105480 0.8397570 14.325040
77 0.0000000 0.0000000 50.000000 3.6023800 1.1365490 19.882080
78 0.0000000 0.0000000 57.692300 4.9551340 1.5413420 27.461310
79 0.0000000 0.0000000 66.326500 6.8763240 2.1162310 38.225370
80 0.0000000 0.0000000 76.087000 9.4485720 2.8859400 52.637190
81 25.561100 7.5144000 81.089200 13.037770 4.5359310 61.414230
82 44.178600 0.0000000 82.664800 17.595810 6.6560950 64.324080
83 47.450700 15.986200 94.229900 23.837680 9.7965430 90.429880
84 1.9380000 1.9380000 1.9380000 0.0991464 0.1014920 0.1730190
85 2.9412000 2.9412000 2.9412000 0.1085360 0.1107870 0.1833210
86 3.9683000 3.9683000 3.9683000 0.1266770 0.1297690 0.2067710
87 5.0201000 5.0201000 5.0201000 0.1604250 0.1653340 0.2447630
88 6.0976000 6.0976000 6.0976000 0.2115090 0.2196980 0.3025060
89 7.2016000 7.2016000 7.2016000 0.2836370 0.2960150 0.3824720
90 8.3333000 8.3333000 8.3333000 0.3795170 0.3984600 0.4885500
91 9.4937000 9.4937000 9.4937000 0.5008810 0.5276930 0.6245850
92 10.683800 10.683800 10.683800 0.6508540 0.6878800 0.7920450
93 11.904800 11.904800 11.904800 0.8324520 0.8819560 0.9961250
94 13.157900 13.157900 13.157900 1.0481860 1.1123930 1.2396090
95 14.444400 14.444400 14.444400 1.3000600 1.3815860 1.5254810
96 15.765800 15.765800 15.765800 1.5924020 1.6941420 1.8585500
97 17.123300 17.123300 17.123300 1.9260810 2.0507820 2.2394810
98 18.518500 18.518500 18.518500 2.3053870 2.4559900 2.6734720
99 19.953100 19.953100 19.953100 2.7319490 2.9118920 3.1630690
100 21.428600 21.428600 21.428600 3.2087680 3.4212180 3.7102740
101 22.946900 22.946900 22.946900 3.7372320 3.9852610 4.3174080
102 24.509800 24.509800 24.509800 4.3204020 4.6078910 4.9844570
103 26.119400 26.119400 26.119400 4.9597480 5.2901070 5.7132600
104 27.777800 27.777800 27.777800 5.6557840 6.0325500 6.5042430
105 29.487200 29.487200 29.487200 6.4105220 6.8374070 7.3555390
106 31.250000 31.250000 31.250000 7.2242450 7.7046940 8.2670080
107 33.068800 33.068800 33.068800 8.0970730 8.6343320 9.2365410
108 34.946200 34.946200 34.946200 9.0360150 9.6344270 10.265580
109 36.885200 36.885200 36.885200 10.055620 10.720670 11.381900
110 38.888900 38.888900 38.888900 11.170020 11.907150 12.608160
111 40.960500 40.960500 40.960500 12.397200 13.214550 13.970680
112 55.779100 42.709700 48.356400 18.648980 16.891150 19.556980
113 71.281500 62.248400 72.420400 38.313380 36.346520 49.568930
114 86.383700 64.909800 79.950800 51.750580 44.755040 62.295250
115 0.0000000 0.0000000 0.0000000 0.0824453 0.0832579 0.1605570
116 11.268000 14.277300 21.096000 1.3898750 1.3333800 3.4253010
117 11.751000 23.846800 35.591000 3.6926270 3.9291760 10.177310
118 11.842400 40.307000 46.803200 8.1169070 10.596490 18.122560
119 0.0000000 40.540300 39.958200 7.0018800 10.288590 13.333030
120 0.0000000 59.092400 50.081200 14.461000 22.944460 22.326900
121 24.954500 69.484500 68.403000 25.136100 35.183450 44.651540
122 69.444400 69.444400 69.444400 40.152290 42.887900 46.123590
123 72.695000 72.695000 72.695000 44.599270 47.620060 51.148150
124 76.087000 76.087000 76.087000 49.608990 52.935880 56.898080
125 79.629600 79.629600 79.629600 55.194810 58.885280 63.532860
126 83.333300 83.333300 83.333300 61.438400 65.566770 70.915840
127 87.209300 87.209300 87.209300 68.622820 73.285340 80.049270
128 29.829000 74.685300 17.523900 21.902600 39.296310 6.2892070
129 52.667100 87.410900 22.889900 36.929250 59.816490 9.9462580
130 78.162200 100.00000 23.385800 59.822530 86.291010 12.265080
131 100.00000 34.416400 0.0000000 41.567270 26.728810 0.8739680
132 100.00000 56.759900 0.0000000 48.034140 39.730040 2.2875110
133 100.00000 77.536500 0.0000000 58.610130 60.992410 4.5992360
134 100.00000 83.974800 29.947300 64.116130 69.964150 12.403140
135 82.541300 60.765700 35.582100 38.201740 36.740050 12.333110
136 100.00000 60.938800 82.609600 61.216870 46.666860 66.733380
137 27.568900 0.0000000 45.117100 5.1543560 2.1033820 15.769700
138 41.867900 13.191800 55.539400 10.364990 5.0067370 25.328670
139 62.761900 14.693000 83.709500 25.519610 11.435140 66.487360
140 84.373300 24.329800 85.263400 40.301170 20.686300 70.118540
141 85.368700 65.154000 91.704600 55.599730 45.958250 87.237150
142 47.934400 16.624400 40.568000 10.198240 5.8543350 12.810900
143 67.643900 24.688500 48.291300 20.664390 12.593390 18.711330
144 0.0000000 0.0000000 13.157900 0.2602740 0.1364710 1.1569000
145 15.956900 0.0000000 14.748800 0.9724450 0.4930940 1.4885550
146 27.383900 0.0000000 15.883200 2.6200480 1.3377580 1.7557240
147 45.686700 0.0000000 43.427000 9.1539310 4.2274040 14.542300
148 100.00000 0.0000000 100.00000 56.653670 25.377230 103.85730
149 100.00000 36.740900 100.00000 60.557400 33.225450 104.71050
150 0.0000000 0.0000000 31.250000 1.4197150 0.4834170 7.6530240
151 0.0000000 19.178500 45.813300 3.9183940 2.8640190 16.514770
152 0.0000000 39.978100 74.970600 13.743820 12.079670 51.819050
153 0.0000000 21.153200 62.113500 7.0573840 4.2235840 32.779580
154 31.421600 25.356200 84.999900 17.225370 8.9686920 69.573020
155 60.461600 34.814400 86.872600 28.683470 17.286280 74.148740
156 55.104200 0.0000000 63.451700 15.920960 6.9671990 34.233630
157 65.304300 20.573500 69.144100 23.113160 12.064400 42.473890
158 81.804000 30.865300 74.356200 36.013380 20.887100 50.413490
159 59.862000 15.810000 14.998300 12.680420 7.4628700 1.6660930
160 64.523000 55.550300 15.399900 23.767020 26.375720 3.6868550
161 74.542500 67.486100 45.467600 37.374980 40.963030 19.265460
162 85.722200 82.906600 48.495300 54.434470 63.322120 23.745630
163 100.00000 83.846800 59.225300 67.962770 70.951420 34.470470
164 100.00000 86.140400 78.114900 74.494080 75.837910 61.838450
165 31.250000 0.0000000 0.0000000 3.0651690 1.6314720 0.1577440
166 36.885200 0.0000000 0.0000000 4.2713770 2.2575670 0.1566070
167 43.103500 0.0000000 0.0000000 5.8397030 3.0716230 0.1551280
168 54.099500 0.0000000 0.0000000 9.4523740 4.9468180 0.1517220
169 57.692300 0.0000000 0.0000000 10.887000 5.6914730 0.1503690
170 83.743300 17.100400 33.133500 28.001480 15.327060 8.7145330
171 100.00000 29.788400 35.123400 42.377010 25.477080 10.111690
172 19.149100 78.958000 44.552400 25.163190 44.366170 20.022060
173 16.071000 84.804500 70.831400 34.055760 53.815480 50.165500
174 60.512200 84.320100 100.00000 55.654220 62.159280 109.34870
175 50.000000 0.0000000 0.0000000 7.9725540 4.1787020 0.1531170
176 62.845000 12.375300 23.232600 14.269870 7.7781000 4.1717990
177 71.446100 21.416900 37.102000 20.931500 12.335430 10.898260
178 80.358000 26.266700 100.00000 43.888990 21.663780 104.29800
179 20.600500 0.0000000 26.756500 2.2396870 0.9907420 5.5693060
180 27.851500 17.634900 43.671700 5.7988500 3.6447660 14.888490
181 26.433900 37.575600 41.041000 8.5357870 10.056220 13.855250
182 34.004000 46.000800 56.152300 14.407750 15.736910 27.219110
183 41.600600 56.426100 83.146400 26.817160 25.967430 67.391630
184 17.453100 38.052300 95.853600 21.842440 13.935020 95.008520
185 39.300200 42.992200 100.00000 28.722460 18.874260 105.06040
186 79.120700 50.337600 100.00000 48.671920 32.491260 105.52180
187 100.00000 63.545700 100.00000 69.509360 51.222770 106.66730
188 18.820700 36.358100 14.181200 5.0866170 8.3354140 2.1994510
189 34.150800 60.659700 15.900100 15.469260 25.187270 4.2766540
190 47.362500 61.328400 29.690100 20.126660 27.847700 9.4838150
191 60.173300 82.789900 76.930500 45.481200 57.157260 59.272460
192 81.983100 88.596800 78.389600 62.833200 72.558240 62.744570
193 50.670300 87.526800 56.830200 40.333310 60.829610 32.547440
194 76.731700 90.723200 69.237300 58.534430 73.402560 48.896560
195 32.069700 17.231400 0.0000000 3.9689290 3.2028060 0.3191360
196 43.053800 17.918500 12.675300 6.7999770 4.7458930 1.2386140
197 52.680800 24.822400 25.920400 11.548860 8.4084790 5.5768420
198 0.0000000 100.00000 71.613900 45.334690 77.140180 53.850130
199 0.0000000 100.00000 85.918000 49.892200 78.503950 79.385030
200 78.188800 100.00000 86.281500 71.960970 89.927040 80.178350
201 100.00000 100.00000 85.940200 87.957920 98.260410 79.398900
202 63.260100 34.620700 44.346000 19.596360 14.794990 15.948000
203 65.207600 38.466200 65.357100 25.254380 18.088330 37.777660
204 83.122800 45.027800 69.341300 38.793850 27.326670 43.790560
205 45.252600 0.0000000 15.407100 6.7201260 3.4705080 1.6355860
206 53.963100 62.173300 15.067400 21.855310 29.531010 4.2208140
207 60.540800 76.925100 16.261800 32.536710 46.828400 6.2332360
208 60.288600 85.208600 67.014500 44.670040 59.987540 44.801070
209 61.668000 96.199000 83.137700 58.530130 78.939310 72.718550
210 77.116100 100.00000 100.00000 76.948350 91.267840 111.98640
211 100.00000 0.0000000 0.0000000 38.139280 19.837060 0.1246710
212 100.00000 0.0000000 16.927600 38.472600 19.936800 1.9921650
213 100.00000 0.0000000 43.898200 40.766450 20.623200 14.844190
214 100.00000 0.0000000 61.471200 43.773250 21.522950 31.690740
215 0.0000000 58.232400 28.787500 11.697790 21.503450 8.7775810
216 0.0000000 62.376800 70.124100 20.139180 27.130990 46.314060
217 0.0000000 78.167500 75.927400 30.265470 44.818000 56.932480
218 0.0000000 84.754100 100.00000 43.933350 56.560890 109.43120
219 13.274000 26.604900 58.840900 7.5995530 5.8602030 29.131260
220 26.198900 35.030600 59.261200 10.854450 9.8323960 29.931500
221 41.220200 38.326700 82.625200 21.019960 14.769380 65.177320
222 57.456800 52.915300 83.219500 30.879880 26.105950 67.243700
223 60.418400 56.622700 100.00000 40.440870 31.638270 106.03290
224 83.240000 88.360500 100.00000 71.981530 75.178440 110.00230
225 40.618000 73.619500 34.466300 24.940540 39.682980 13.210430
226 76.448100 87.618500 41.061400 50.665580 66.830410 18.966410
227 43.631800 65.060000 0.0000000 19.590850 30.497400 3.1284970
228 64.771600 71.147000 35.121700 32.663790 41.645850 13.242030
229 19.005400 16.758700 69.092600 9.2598360 4.2298570 42.318200
230 48.452400 35.495700 69.033900 18.583340 13.477770 42.874010
231 12.169200 19.214800 12.749500 1.5405550 2.2334400 1.2891620
232 28.790400 23.901700 13.840400 4.3780770 4.6321200 1.6368300
233 53.228400 28.297500 16.566800 11.734240 9.4805580 2.4240940
234 65.698100 39.999900 38.362100 21.305550 17.560320 12.349760
235 76.087000 0.0000000 0.0000000 20.660780 10.764660 0.1411520
236 84.498700 17.533600 21.825100 27.697720 15.432560 3.7281220
237 85.050400 46.217700 28.592500 34.072050 26.802410 7.7360640
238 100.00000 52.368000 46.012100 49.299380 37.294960 18.229570
239 87.209300 0.0000000 0.0000000 28.244730 14.701190 0.1340010
240 100.00000 0.0000000 29.758100 39.349180 20.199110 6.9035090
241 54.948100 21.885800 0.0000000 11.074700 7.7242000 0.4350610
242 54.927300 33.845800 8.2528000 13.137350 11.793050 1.1711520
243 66.326500 66.326500 66.326500 36.050160 38.505130 41.325180
244 66.451000 75.350000 81.888300 45.409700 49.699260 67.031970
245 66.505100 87.751200 94.036100 58.700670 68.137030 95.858290
246 0.0000000 0.0000000 87.209300 13.285700 4.0341470 74.135890
247 10.160800 15.263400 88.219300 14.447570 5.3697320 76.493230
248 25.103000 21.501700 100.00000 21.704950 9.0951620 104.16380
249 56.526400 30.765800 100.00000 31.650570 16.474340 104.48070
250 0.0000000 2.9412000 0.0000000 0.0923653 0.1032010 0.1627250
251 23.691800 11.893700 12.509600 2.1700360 1.5710690 1.0992480
252 31.962000 12.896000 32.641800 5.0284550 2.8687070 8.4116570
253 45.321600 45.321600 45.321600 15.281950 16.289730 17.230910
254 47.619100 47.619100 47.619100 17.002620 18.125640 19.227090
255 50.000000 50.000000 50.000000 18.927930 20.180480 21.499900
256 72.088900 49.540800 60.868400 30.991210 25.780220 32.580680
257 0.0000000 0.0000000 0.0000000 0.0824453 0.0832579 0.1605570
258 0.9579000 0.9579000 0.9579000 0.0907560 0.0923327 0.1667400
259 85.212000 53.996200 11.326600 35.786830 31.775640 2.7459030
260 100.00000 67.581100 44.841200 55.788010 50.613510 18.787120
261 100.00000 69.826600 64.778800 60.619460 54.070430 39.528730
262 100.00000 100.00000 100.00000 93.771360 100.00000 111.97050
263 38.507900 0.0000000 100.00000 23.168140 7.9962150 103.88880
264 70.139700 0.0000000 100.00000 35.594100 14.446040 103.87710
265 29.922100 56.315800 63.871200 18.709890 22.890280 36.927870
266 49.510100 66.486700 66.979100 29.093570 34.981230 42.274640
267 79.045300 73.600300 100.00000 59.203990 53.738260 107.83460
268 19.611800 22.780100 29.546200 3.7593170 3.8498460 7.1489210
269 30.894300 24.193500 36.947500 6.4790530 5.4237990 10.913290
270 44.067500 24.459900 52.187900 11.665810 7.7298570 22.293650
271 53.508600 32.208400 49.445600 15.661190 11.891260 20.025860
272 69.908000 55.450200 55.139200 30.742850 29.029130 26.882930
273 86.185500 60.833600 65.764000 45.762700 39.626720 39.937190
274 43.299100 31.335000 29.980800 9.9603420 9.1722200 7.6594670
275 44.777600 49.633200 33.228800 15.141410 18.476200 10.220420
276 58.714000 58.644100 47.367100 25.088980 28.274450 19.881410
277 64.501700 69.185900 86.462000 42.714270 42.846560 75.912500
278 14.034800 55.290200 89.801500 24.113610 23.338140 81.911470
279 27.967800 57.185600 100.00000 31.017430 27.078390 106.09050
280 0.0000000 66.865900 100.00000 33.121570 34.824490 107.06800
281 27.854900 75.575000 100.00000 40.209440 45.589030 108.10430
282 38.878600 88.910000 100.00000 51.742990 65.309680 110.11500
283 41.166400 30.563400 0.0000000 8.0153720 8.2207960 0.7447870
284 68.881800 45.659800 0.0000000 22.470610 20.783650 1.4759270
285 68.341700 46.901800 19.736300 23.025330 21.510520 4.2596860
286 100.00000 51.223700 20.771300 46.533320 35.781140 4.8907250
287 0.0000000 0.0000000 0.0000000 0.0824453 0.0832579 0.1605570
288 6.0976000 0.0000000 0.0000000 0.1381010 0.1121460 0.1605050
289 66.326500 0.0000000 0.0000000 15.010430 7.8317880 0.1464810
290 82.373000 23.436300 12.266900 26.456050 16.001520 1.3014800
291 100.00000 33.180000 21.437200 41.911670 26.418280 4.1048870
292 100.00000 68.884400 25.994400 54.627520 51.434260 8.6099680
293 14.875100 74.985700 83.448000 31.287400 41.931300 69.997700
294 17.348100 76.965600 94.746500 37.303010 45.821650 95.915070
295 23.024600 89.920100 94.076900 46.922700 64.542910 96.338530
296 0.0000000 25.933500 20.059600 2.4827090 4.0506210 3.3855510
297 17.486400 30.736100 28.100000 4.6947170 6.3086060 6.7659590
298 56.769200 47.130700 40.000900 19.195710 19.254810 13.735500
299 57.186200 47.877500 61.639800 23.097830 20.853470 33.397430
300 9.4937000 0.0000000 0.0000000 0.2607720 0.1758200 0.1603890
301 13.157900 0.0000000 0.0000000 0.4902060 0.2949100 0.1601730
302 0.0000000 0.0000000 0.0000000 0.0824453 0.0832579 0.1605570
303 37.332100 0.0000000 27.177000 5.3733950 2.6100860 5.7509340
304 48.495600 14.152000 29.515800 9.1153790 5.1908880 6.9175750
305 22.362600 27.242900 0.0000000 3.6331980 5.0783350 0.6211750
306 35.052500 34.277300 12.402600 7.4127010 8.9258260 1.7571900
307 34.258000 45.064800 15.715600 9.8833790 13.936780 3.0069090
308 100.00000 0.0000000 79.860700 48.677390 22.990440 59.167700
309 100.00000 33.302500 82.080000 52.604200 29.658170 63.886300
310 0.0000000 43.103500 0.0000000 5.4719110 10.918440 1.3385990
311 27.413000 47.810600 0.0000000 9.0716690 14.788460 1.6298220
312 58.493100 70.840500 61.897200 33.569680 40.982250 35.868530
313 74.807300 72.702000 62.798700 43.412110 47.556050 37.220380
314 100.00000 79.387100 85.039700 72.109380 67.024120 73.964390
315 0.0000000 0.0000000 2.9412000 0.0861234 0.0843585 0.1811650
316 0.0000000 0.0000000 6.0976000 0.1058390 0.0902581 0.2916260
317 0.0000000 0.0000000 9.4937000 0.1589120 0.1061390 0.5889840
318 0.0000000 0.0000000 26.119400 0.9985940 0.3574030 5.2935660
319 14.115800 12.512200 26.960200 1.8831850 1.3015650 5.7321290
320 17.235500 12.594800 52.469200 5.1421970 2.3524050 22.279000
321 16.667600 39.831000 58.526500 10.426110 11.187610 29.353830
322 16.823700 59.985200 74.119200 20.848500 25.668860 51.917340
323 40.862100 72.865900 82.880200 34.484370 41.827310 68.613050
324 0.0000000 42.766600 56.950100 10.119580 12.160860 27.845280
325 0.0000000 58.262300 79.718500 21.074130 24.330300 61.244980
326 62.502900 14.473500 53.861700 17.732310 9.0453820 23.664200
327 83.826700 21.774200 62.883900 33.065920 17.808630 33.753410
328 100.00000 31.395100 66.046300 47.710890 27.575900 38.414580
329 87.460300 40.044300 58.191800 38.028490 25.603160 28.978990
330 91.269800 91.269800 91.269800 76.437270 81.747050 89.860940
331 95.528500 95.528500 95.528500 84.914880 90.770140 100.68380
332 100.00000 100.00000 100.00000 93.771360 100.00000 111.97050
333 73.291900 0.0000000 20.143200 19.428410 10.013640 2.9807840
334 78.542800 0.0000000 38.392100 24.235380 12.180320 11.348460
335 84.764200 15.069900 50.827400 30.694680 15.964420 20.736650
336 100.00000 30.498900 50.930900 44.496210 26.331550 21.291940
337 17.123300 0.0000000 0.0000000 0.8551780 0.4843530 0.1598280
338 21.428600 0.0000000 0.0000000 1.3868310 0.7603130 0.1593270
339 26.119400 0.0000000 0.0000000 2.1147590 1.1381520 0.1586410
340 28.627700 0.0000000 0.0000000 2.5607710 1.3696590 0.1582200
341 29.738900 24.468000 62.741700 10.357040 6.6059790 33.674780
342 30.590100 43.713900 78.449400 18.576130 15.741570 57.910730
343 20.486200 51.743300 74.827200 18.287760 19.530460 52.333790
344 41.451700 62.691200 79.313400 28.206290 30.966250 60.946040
345 16.530300 53.481400 53.829400 13.617750 19.095350 25.429600
346 55.031400 55.031400 55.031400 23.424830 24.998220 26.746980
347 57.692300 57.692300 57.692300 26.025680 27.788680 29.695080
348 15.094700 32.349400 21.048400 4.2426830 6.6347470 3.9683170
349 44.537100 33.558300 21.668800 10.106570 10.015690 4.2341980
350 62.712600 42.282800 29.403300 19.533790 17.645540 7.8915970
351 0.0000000 6.0976000 0.0000000 0.1324600 0.1838090 0.1714890
352 0.0000000 9.4937000 0.0000000 0.2460870 0.4122490 0.1963260
353 18.161100 13.120700 7.6731000 1.3918960 1.3163480 0.4852820
354 23.521800 12.756200 21.652800 2.6447350 1.8058160 3.5970550
355 22.574500 49.317400 27.575300 9.7925230 15.651890 7.5079860
356 84.874400 69.274300 27.586400 43.399960 45.882240 9.3634180
357 71.037800 82.505200 0.0000000 41.278230 56.794330 5.3218610
358 87.125600 87.520300 16.019700 55.888440 69.868150 7.7568930
359 68.148300 92.016300 4.3458000 46.961300 70.597260 6.9677020
360 100.00000 100.00000 0.0000000 75.256980 94.459830 8.2379400
361 100.00000 100.00000 38.765100 77.295970 95.069970 19.662010
362 13.729700 10.919800 37.237300 2.6553170 1.3562530 10.770550
363 17.815900 22.318500 42.903100 4.7923430 4.0011920 14.483980
364 25.394900 33.056300 45.355900 7.9741270 8.2763950 16.642810
365 27.865400 61.886600 52.300800 18.398800 26.735690 24.679790
366 66.522200 74.261500 51.859400 37.450920 46.238570 25.650890
367 47.442200 47.625200 0.0000000 13.804010 17.159300 1.6127700
368 73.181400 63.900100 0.0000000 31.882740 36.018920 2.9905060
