storage/madVR 2019-05-01 18-15 0.3127x 0.329y S XYZLUT+MTX/madVR 2019-05-01 18-15 0.3127x 0.329y S XYZLUT+MTX.ti3
CTI3   

DESCRIPTOR "Argyll Calibration Target chart information 3"
ORIGINATOR "Argyll dispread"
CREATED "Wed May 01 18:18:16 2019"
DEVICE_CLASS "DISPLAY"
SINGLE_DIM_STEPS "17"
COMP_GREY_STEPS "49"
DARK_REGION_EMPHASIS "1.6"
COLOR_REP "RGB_XYZ"
TARGET_INSTRUMENT "X-Rite i1 DisplayPro, ColorMunki Display"
DISPLAY_TYPE_REFRESH "NO"
DISPLAY_TYPE_BASE_ID "1"
INSTRUMENT_TYPE_SPECTRAL "NO"
LUMINANCE_XYZ_CDM2 "202.696655 216.198054 243.410876"
NORMALIZED_TO_Y_100 "YES"
VIDEO_LUT_CALIBRATION_POSSIBLE "YES"

BEGIN_ARGYLL_COLPROF_ARGS
-v -qh -aX -bn -C "No copyright. Created with DisplayCAL 3.8.0.0 and ArgyllCMS 2.1.0_mod" -M "madVR"
END_ARGYLL_COLPROF_ARGS

OBSERVER "1931_2"
USE_BLACK_POINT_COMPENSATION "NO"
BLACK_POINT_CORRECTION "0.0"
HIRES_B2A "YES"
HIRES_B2A_SIZE "-1"
SMOOTH_B2A "YES"
PATCH_SEQUENCE "OPTIMIZE_DISPLAY_RESPONSE_DELAY"
3DLUT_HDR_MAXMLL_ALT_CLIP "1"
3DLUT_HDR_SAT "0.5"
3DLUT_HDR_PEAK_LUMINANCE "480.0"
3DLUT_HDR_MAXMLL "10000.0"
3DLUT_GAMUT_MAPPING_MODE "G"
3DLUT_HDR_MINMLL "0.0"
3DLUT_SOURCE_PROFILE "ref/Rec2020.icm"
3DLUT_RENDERING_INTENT "aw"
3DLUT_HDR_DISPLAY "0"
SIMULATION_PROFILE "Rec2020.0.0,2084@480ssh0.5Gawt65.icm"
3DLUT_FORMAT "madVR"
3DLUT_HDR_AMBIENT_LUMINANCE "5.0"
3DLUT_APPLY_CAL "1"
3DLUT_SIZE "65"
3DLUT_GAMMA "-2.4"
3DLUT_INPUT_ENCODING "t"
3DLUT_OUTPUT_ENCODING "t"
3DLUT_INPUT_BITDEPTH "10"
3DLUT_TRC "smpte2084.rolloffclip"
3DLUT_OUTPUT_BITDEPTH "12"
3DLUT_DEGREE_OF_BLACK_OUTPUT_OFFSET "0.0"
3DLUT_HDR_HUE "0.5"
3DLUT_CONTENT_COLORSPACE_WHITE_X "0.3127"
3DLUT_CONTENT_COLORSPACE_WHITE_Y "0.329"
3DLUT_CONTENT_COLORSPACE_RED_X "0.68"
3DLUT_CONTENT_COLORSPACE_RED_Y "0.32"
3DLUT_CONTENT_COLORSPACE_GREEN_X "0.265"
3DLUT_CONTENT_COLORSPACE_GREEN_Y "0.69"
3DLUT_CONTENT_COLORSPACE_BLUE_X "0.15"
3DLUT_CONTENT_COLORSPACE_BLUE_Y "0.06"

NUMBER_OF_FIELDS 7
BEGIN_DATA_FORMAT
SAMPLE_ID RGB_R RGB_G RGB_B XYZ_X XYZ_Y XYZ_Z
END_DATA_FORMAT

NUMBER_OF_SETS 417
BEGIN_DATA
1 100.00000 100.00000 100.00000 93.755080 100.00000 112.58700
2 1.9608000 1.9608000 1.9608000 0.0974124 0.0989738 0.1734250
3 3.9216000 3.9216000 3.9216000 0.1172680 0.1201610 0.1967540
4 5.8824000 5.8824000 5.8824000 0.1908650 0.1982840 0.2798580
5 9.8039000 9.8039000 9.8039000 0.5365010 0.5661130 0.6698690
6 13.726000 13.726000 13.726000 1.2027420 1.2764420 1.4182230
7 17.647000 17.647000 17.647000 2.0841120 2.2170800 2.4085510
8 21.569000 21.569000 21.569000 3.2079340 3.4144950 3.6684430
9 25.490000 25.490000 25.490000 4.5788200 4.8777300 5.2078870
10 29.412000 29.412000 29.412000 6.1676660 6.5774870 7.0062340
11 33.333000 33.333000 33.333000 8.0718710 8.6058010 9.1520060
12 37.255000 37.255000 37.255000 10.211440 10.880060 11.543810
13 41.176000 41.176000 41.176000 12.548040 13.384490 14.203330
14 45.098000 45.098000 45.098000 15.079860 16.119020 17.122090
15 49.020000 49.020000 49.020000 17.976260 19.169420 20.425720
16 52.941000 52.941000 52.941000 21.267540 22.660550 24.146980
17 56.863000 56.863000 56.863000 24.891820 26.594850 28.314080
18 60.784000 60.784000 60.784000 29.053980 31.039650 33.099230
19 64.706000 64.706000 64.706000 33.805630 36.066150 38.591490
20 68.627000 68.627000 68.627000 38.761600 41.412140 44.352960
21 72.549000 72.549000 72.549000 44.110270 47.109670 50.555180
22 76.471000 76.471000 76.471000 49.835850 53.232200 57.289400
23 80.392000 80.392000 80.392000 56.083470 59.938680 64.732930
24 84.314000 84.314000 84.314000 62.740270 67.031960 72.617920
25 88.235000 88.235000 88.235000 69.740890 74.479640 81.033490
26 92.157000 92.157000 92.157000 77.130010 82.372340 90.157770
27 96.078000 96.078000 96.078000 85.365680 91.118200 100.78420
28 56.696100 0.0000000 27.242200 10.924080 5.5131950 5.5182210
29 63.695200 0.0000000 42.728500 15.553180 7.5891910 14.119590
30 78.933000 54.081500 44.568900 33.581440 29.931680 17.445960
31 84.551900 68.738800 57.615700 46.089110 45.860420 30.414180
32 87.581500 75.226100 75.194700 56.245870 55.654690 55.025720
33 33.512500 37.395800 27.689600 8.4718470 10.202470 6.5221350
34 43.103500 43.103500 43.103500 13.713150 14.635270 15.519870
35 47.021900 68.348700 45.817000 25.028750 34.955390 19.595320
36 61.905800 86.143700 47.790400 42.002610 59.993630 23.454930
37 100.00000 100.00000 62.781000 80.886140 96.084260 41.725530
38 0.0000000 100.00000 0.0000000 37.031040 74.433520 8.2519620
39 0.0000000 100.00000 31.582500 38.289000 74.885310 15.268170
40 0.0000000 100.00000 100.00000 55.520460 80.207060 111.08160
41 51.621800 100.00000 100.00000 64.118580 84.710120 111.40680
42 0.0000000 23.081100 79.739000 11.793710 6.1445360 57.795470
43 12.891000 35.976000 80.665000 14.833640 11.111170 60.163810
44 77.291000 0.0000000 61.363400 26.295330 12.507230 31.378720
45 76.717000 0.0000000 80.886300 31.018980 13.839290 60.363240
46 78.323400 91.879100 88.337800 65.560590 76.517000 81.547550
47 0.0000000 100.00000 53.920300 41.048240 75.830540 30.382660
48 40.314100 100.00000 54.367800 46.521980 78.713570 31.719970
49 51.403200 100.00000 73.031800 54.118730 81.861140 55.388010
50 0.0000000 0.0000000 100.00000 18.527860 5.6029240 103.57500
51 0.0000000 28.754300 100.00000 20.951730 10.487030 103.84450
52 0.0000000 48.007300 100.00000 25.511970 19.683570 104.72530
53 51.994100 70.919100 100.00000 43.854900 43.777590 107.18650
54 2.9412000 0.0000000 0.0000000 0.0961024 0.0957840 0.1675940
55 0.0000000 13.157900 0.0000000 0.4741410 0.8567570 0.2500210
56 0.0000000 17.123300 0.0000000 0.7902920 1.4883110 0.3170190
57 0.0000000 21.428600 0.0000000 1.2660140 2.4389840 0.4199290
58 0.0000000 26.119400 0.0000000 1.9087180 3.7223020 0.5576880
59 0.0000000 31.250000 0.0000000 2.7543230 5.4121320 0.7389770
60 0.0000000 36.885200 0.0000000 3.9055560 7.6763600 0.9835240
61 0.0000000 50.000000 0.0000000 7.2713050 14.453360 1.7104970
62 0.0000000 57.692300 0.0000000 10.053770 20.029830 2.3125400
63 0.0000000 66.326500 0.0000000 14.019560 27.899040 3.1563550
64 0.0000000 76.087000 0.0000000 19.351640 38.646940 4.3106950
65 0.0000000 87.209300 0.0000000 26.733440 53.542260 5.8991940
66 25.932500 90.091500 12.510800 31.168920 59.217940 7.2734850
67 40.978800 100.00000 24.938900 43.320860 77.771170 12.700760
68 35.867700 82.999600 0.0000000 27.713550 49.559710 5.2608880
69 58.874600 100.00000 0.0000000 48.639230 80.684250 8.2665240
70 68.460100 100.00000 43.535700 55.826040 83.752290 22.874340
71 0.0000000 29.368300 50.738200 5.9587510 6.0105370 19.897130
72 42.186100 36.527900 57.720100 14.124060 12.141140 27.696760
73 46.255000 50.178000 67.531500 21.125800 20.709570 40.730490
74 100.00000 100.00000 100.00000 93.717810 99.980730 112.58750
75 0.0000000 0.0000000 36.885200 1.8256770 0.6208790 9.8877490
76 0.0000000 0.0000000 43.103500 2.5108110 0.8293170 13.728790
77 0.0000000 0.0000000 50.000000 3.4225540 1.1040550 18.837070
78 0.0000000 0.0000000 57.692300 4.7038540 1.4961050 26.038000
79 0.0000000 0.0000000 66.326500 6.5824570 2.0639480 36.575620
80 0.0000000 0.0000000 76.087000 9.2299550 2.8593810 51.415890
81 25.561100 7.5144000 81.089200 12.779240 4.4976710 60.527530
82 44.178600 0.0000000 82.664800 17.113360 6.4839350 63.456300
83 47.450700 15.986200 94.229900 23.239640 9.6188170 88.316300
84 1.9380000 1.9380000 1.9380000 0.0972223 0.0988002 0.1732560
85 2.9412000 2.9412000 2.9412000 0.1026850 0.1051420 0.1794770
86 3.9683000 3.9683000 3.9683000 0.1182320 0.1215720 0.1972100
87 5.0201000 5.0201000 5.0201000 0.1651030 0.1722520 0.2493450
88 6.0976000 6.0976000 6.0976000 0.1973060 0.2090330 0.2833060
89 7.2016000 7.2016000 7.2016000 0.2765550 0.2956990 0.3704340
90 8.3333000 8.3333000 8.3333000 0.4049000 0.4308460 0.5164420
91 9.4937000 9.4937000 9.4937000 0.4864760 0.5179590 0.6085700
92 10.683800 10.683800 10.683800 0.6943110 0.7345250 0.8476100
93 11.904800 11.904800 11.904800 0.8658750 0.9173230 1.0402480
94 13.157900 13.157900 13.157900 1.0602380 1.1416730 1.2396190
95 14.444400 14.444400 14.444400 1.2913530 1.3711050 1.5187230
96 15.765800 15.765800 15.765800 1.5333380 1.6373940 1.7797080
97 17.123300 17.123300 17.123300 1.8789320 2.0164650 2.1567070
98 18.518500 18.518500 18.518500 2.3081130 2.4657050 2.6456630
99 19.953100 19.953100 19.953100 2.6934180 2.8721840 3.0807270
100 21.428600 21.428600 21.428600 3.1473650 3.3700790 3.5720910
101 22.946900 22.946900 22.946900 3.6326680 3.8964830 4.1075350
102 24.509800 24.509800 24.509800 4.1767140 4.4801420 4.7174870
103 26.119400 26.119400 26.119400 4.8102330 5.1484660 5.4308620
104 27.777800 27.777800 27.777800 5.4921090 5.8637760 6.2128930
105 29.487200 29.487200 29.487200 6.2191810 6.6313890 7.0105150
106 31.250000 31.250000 31.250000 7.0224770 7.5160080 7.9289090
107 33.068800 33.068800 33.068800 7.9107420 8.4426450 8.9064460
108 34.946200 34.946200 34.946200 8.9153920 9.5000790 10.050000
109 36.885200 36.885200 36.885200 10.014210 10.699570 11.329070
110 38.888900 38.888900 38.888900 11.196980 11.932080 12.606950
111 40.960500 40.960500 40.960500 12.356330 13.237760 13.940060
112 55.779100 42.709700 48.356400 18.357810 16.803810 19.263030
113 71.281500 62.248400 72.420400 37.885510 36.096810 48.844450
114 86.383700 64.909800 79.950800 51.128970 44.437700 61.760700
115 0.0000000 0.0000000 0.0000000 0.0919407 0.0933368 0.1668880
116 11.268000 14.277300 21.096000 1.3749960 1.3640720 3.2467250
117 11.751000 23.846800 35.591000 3.6176790 3.8728850 9.7949810
118 11.842400 40.307000 46.803200 8.1210480 10.655250 17.717160
119 0.0000000 40.540300 39.958200 6.9430750 10.337460 12.770460
120 0.0000000 59.092400 50.081200 14.252310 22.749760 21.186640
121 24.954500 69.484500 68.403000 24.911150 34.961710 43.486490
122 69.444400 69.444400 69.444400 39.862290 42.572930 45.569660
123 72.695000 72.695000 72.695000 44.243410 47.370180 50.622110
124 76.087000 76.087000 76.087000 49.268610 52.642020 56.552130
125 79.629600 79.629600 79.629600 54.804760 58.586230 63.106380
126 83.333300 83.333300 83.333300 60.900690 65.199900 70.195070
127 87.209300 87.209300 87.209300 67.753440 72.485190 78.429050
128 29.829000 74.685300 17.523900 21.789540 38.903650 6.1623750
129 52.667100 87.410900 22.889900 36.545760 58.967430 9.6423210
130 78.162200 100.00000 23.385800 59.617790 86.173650 12.168550
131 100.00000 34.416400 0.0000000 41.096850 26.228650 0.8283920
132 100.00000 56.759900 0.0000000 47.372030 38.771090 2.1765030
133 100.00000 77.536500 0.0000000 57.957990 60.029590 4.4638580
134 100.00000 83.974800 29.947300 63.691790 69.387060 12.296410
135 82.541300 60.765700 35.582100 37.564740 36.210820 12.209210
136 100.00000 60.938800 82.609600 60.888970 46.577800 66.550220
137 27.568900 0.0000000 45.117100 4.9564930 2.0264220 15.614550
138 41.867900 13.191800 55.539400 10.099930 4.9658690 24.665580
139 62.761900 14.693000 83.709500 24.944700 11.226010 65.664850
140 84.373300 24.329800 85.263400 39.559840 20.389340 69.134790
141 85.368700 65.154000 91.704600 54.749790 45.715720 84.960580
142 47.934400 16.624400 40.568000 9.9210860 5.7081680 12.766740
143 67.643900 24.688500 48.291300 20.258110 12.378510 18.608020
144 0.0000000 0.0000000 13.157900 0.2633420 0.1458640 1.1259900
145 15.956900 0.0000000 14.748800 0.8999390 0.4659300 1.3992000
146 27.383900 0.0000000 15.883200 2.4109800 1.2411200 1.6586270
147 45.686700 0.0000000 43.427000 8.7896960 4.0602100 14.497450
148 100.00000 0.0000000 100.00000 56.220250 25.179290 103.59080
149 100.00000 36.740900 100.00000 60.411020 33.450300 104.45120
150 0.0000000 0.0000000 31.250000 1.3063660 0.4628010 6.9761540
151 0.0000000 19.178500 45.813300 3.8242130 2.8773950 15.846060
152 0.0000000 39.978100 74.970600 13.600970 12.226420 50.457500
153 0.0000000 21.153200 62.113500 6.8327620 4.1861490 31.440930
154 31.421600 25.356200 84.999900 16.855870 8.8972640 68.219950
155 60.461600 34.814400 86.872600 28.186510 17.196540 72.557150
156 55.104200 0.0000000 63.451700 15.308070 6.7080230 33.640130
157 65.304300 20.573500 69.144100 22.603980 11.894300 41.698840
158 81.804000 30.865300 74.356200 35.372740 20.597010 50.059170
159 59.862000 15.810000 14.998300 12.354770 7.2759210 1.6016380
160 64.523000 55.550300 15.399900 23.295170 25.815630 3.5695460
161 74.542500 67.486100 45.467600 36.878720 40.485650 19.236300
162 85.722200 82.906600 48.495300 53.923080 62.814280 23.704630
163 100.00000 83.846800 59.225300 67.714120 70.555430 34.819720
164 100.00000 86.140400 78.114900 73.991230 75.222810 61.667420
165 31.250000 0.0000000 0.0000000 2.8453790 1.5238750 0.1636010
166 36.885200 0.0000000 0.0000000 3.9993610 2.1231440 0.1619650
167 43.103500 0.0000000 0.0000000 5.5245050 2.9154240 0.1585800
168 54.099500 0.0000000 0.0000000 8.9243010 4.6811990 0.1525150
169 57.692300 0.0000000 0.0000000 10.399240 5.4463900 0.1506100
170 83.743300 17.100400 33.133500 27.321850 14.999310 8.5627320
171 100.00000 29.788400 35.123400 42.098590 25.271590 10.277190
172 19.149100 78.958000 44.552400 25.057940 44.088210 19.736210
173 16.071000 84.804500 70.831400 33.753640 53.418310 48.961380
174 60.512200 84.320100 100.00000 55.465940 62.052600 108.68870
175 50.000000 0.0000000 0.0000000 7.5342020 3.9593570 0.1555740
176 62.845000 12.375300 23.232600 13.836230 7.5816710 4.0461350
177 71.446100 21.416900 37.102000 20.515380 12.125280 10.894210
178 80.358000 26.266700 100.00000 43.231980 21.426450 104.13610
179 20.600500 0.0000000 26.756500 2.0947350 0.9402890 5.2050570
180 27.851500 17.634900 43.671700 5.7079530 3.6407650 14.813310
181 26.433900 37.575600 41.041000 8.4700380 10.030350 13.686330
182 34.004000 46.000800 56.152300 14.290780 15.784970 26.496090
183 41.600600 56.426100 83.146400 26.660790 25.985300 66.300620
184 17.453100 38.052300 95.853600 21.592560 14.173740 92.757740
185 39.300200 42.992200 100.00000 28.912080 19.351080 104.95820
186 79.120700 50.337600 100.00000 48.277670 32.585460 104.80540
187 100.00000 63.545700 100.00000 69.340420 51.409270 106.29200
188 18.820700 36.358100 14.181200 5.0165030 8.1911900 2.1923930
189 34.150800 60.659700 15.900100 15.241810 24.747590 4.1363990
190 47.362500 61.328400 29.690100 19.918410 27.529130 9.1504570
191 60.173300 82.789900 76.930500 45.232870 56.917280 58.415410
192 81.983100 88.596800 78.389600 62.149610 71.755690 62.098170
193 50.670300 87.526800 56.830200 39.915570 60.101440 31.898810
194 76.731700 90.723200 69.237300 57.703840 72.293720 47.978340
195 32.069700 17.231400 0.0000000 3.8083170 3.0911950 0.3175840
196 43.053800 17.918500 12.675300 6.6429510 4.6725980 1.2224480
197 52.680800 24.822400 25.920400 11.203410 8.1977780 5.3147940
198 0.0000000 100.00000 71.613900 45.067340 77.230800 52.164400
199 0.0000000 100.00000 85.918000 49.393190 78.406220 76.924970
200 78.188800 100.00000 86.281500 71.518860 89.840280 78.649520
201 100.00000 100.00000 85.940200 87.510770 98.158560 78.697000
202 63.260100 34.620700 44.346000 19.251530 14.577800 15.962930
203 65.207600 38.466200 65.357100 24.913940 18.075800 37.169210
204 83.122800 45.027800 69.341300 38.250570 27.210360 43.146730
205 45.252600 0.0000000 15.407100 6.3846000 3.3081330 1.5593300
206 53.963100 62.173300 15.067400 21.530970 29.035670 4.0982480
207 60.540800 76.925100 16.261800 32.243420 46.329830 6.0672320
208 60.288600 85.208600 67.014500 44.373500 59.520980 43.989450
209 61.668000 96.199000 83.137700 57.979940 78.174730 71.532540
210 77.116100 100.00000 100.00000 76.809340 91.373270 111.67750
211 100.00000 0.0000000 0.0000000 37.808480 19.691080 0.1258470
212 100.00000 0.0000000 16.927600 38.263870 19.853030 2.0121510
213 100.00000 0.0000000 43.898200 40.556730 20.527800 15.369500
214 100.00000 0.0000000 61.471200 43.542150 21.452140 31.937020
215 0.0000000 58.232400 28.787500 11.506060 21.223220 8.0942520
216 0.0000000 62.376800 70.124100 19.821260 26.944750 44.514440
217 0.0000000 78.167500 75.927400 30.021590 44.668050 55.297490
218 0.0000000 84.754100 100.00000 43.880480 56.534470 108.59880
219 13.274000 26.604900 58.840900 7.4546500 5.8064250 28.304330
220 26.198900 35.030600 59.261200 10.692930 9.8041280 29.310520
221 41.220200 38.326700 82.625200 20.865340 14.924040 64.247890
222 57.456800 52.915300 83.219500 30.587970 26.056590 66.266680
223 60.418400 56.622700 100.00000 40.321600 31.841330 105.38380
224 83.240000 88.360500 100.00000 71.356530 74.584580 109.32650
225 40.618000 73.619500 34.466300 24.858160 39.367380 12.896160
226 76.448100 87.618500 41.061400 50.137130 65.928020 18.997090
227 43.631800 65.060000 0.0000000 19.182960 29.583210 2.9991410
228 64.771600 71.147000 35.121700 32.311600 41.182800 13.052930
229 19.005400 16.758700 69.092600 9.0405280 4.1752480 41.242620
230 48.452400 35.495700 69.033900 18.310470 13.440400 42.064880
231 12.169200 19.214800 12.749500 1.5178620 2.2091980 1.2335550
232 28.790400 23.901700 13.840400 4.2522690 4.5007690 1.6634820
233 53.228400 28.297500 16.566800 11.395350 9.1837260 2.3271070
234 65.698100 39.999900 38.362100 20.982290 17.407260 12.325300
235 76.087000 0.0000000 0.0000000 20.007660 10.436120 0.1361780
236 84.498700 17.533600 21.825100 27.089390 15.144710 3.6656570
237 85.050400 46.217700 28.592500 33.499240 26.488510 7.5333120
238 100.00000 52.368000 46.012100 49.014930 37.004750 18.730980
239 87.209300 0.0000000 0.0000000 27.529900 14.346190 0.1252200
240 100.00000 0.0000000 29.758100 39.085020 20.093020 6.8886240
241 54.948100 21.885800 0.0000000 10.753680 7.4544140 0.4169250
242 54.927300 33.845800 8.2528000 12.781690 11.431180 1.1595470
243 66.326500 66.326500 66.326500 35.690520 38.132480 40.699290
244 66.451000 75.350000 81.888300 45.121630 49.570390 66.096080
245 66.505100 87.751200 94.036100 57.936550 67.456970 93.196780
246 0.0000000 0.0000000 87.209300 12.846400 3.9444710 71.700000
247 10.160800 15.263400 88.219300 14.053740 5.3065610 74.177210
248 25.103000 21.501700 100.00000 21.632200 9.1690890 103.77620
249 56.526400 30.765800 100.00000 31.447720 16.502930 104.24950
250 0.0000000 2.9412000 0.0000000 0.0968594 0.1025780 0.1684690
251 23.691800 11.893700 12.509600 2.1026940 1.5677630 1.0680380
252 31.962000 12.896000 32.641800 4.7961250 2.7825990 8.0192060
253 45.321600 45.321600 45.321600 15.213130 16.305610 17.174500
254 47.619100 47.619100 47.619100 16.928590 18.102680 19.089080
255 50.000000 50.000000 50.000000 18.693660 20.025210 21.127420
256 72.088900 49.540800 60.868400 30.674210 25.642690 32.226000
257 0.0000000 0.0000000 0.0000000 0.0920479 0.0933797 0.1670430
258 0.9579000 0.9579000 0.9579000 0.0941581 0.0956705 0.1694820
259 85.212000 53.996200 11.326600 35.108510 31.094110 2.6783220
260 100.00000 67.581100 44.841200 55.514770 50.211450 19.337450
261 100.00000 69.826600 64.778800 60.354660 53.776950 39.581390
262 100.00000 100.00000 100.00000 93.796990 100.01650 112.58620
263 38.507900 0.0000000 100.00000 22.894380 7.8399320 103.86620
264 70.139700 0.0000000 100.00000 34.986630 14.126760 104.05470
265 29.922100 56.315800 63.871200 18.527660 22.803880 36.125720
266 49.510100 66.486700 66.979100 28.773930 34.714870 41.240070
267 79.045300 73.600300 100.00000 58.915020 53.851710 107.23600
268 19.611800 22.780100 29.546200 3.6683710 3.7944710 6.7638310
269 30.894300 24.193500 36.947500 6.3064260 5.3177570 10.689240
270 44.067500 24.459900 52.187900 11.439560 7.6223780 21.806840
271 53.508600 32.208400 49.445600 15.315040 11.681790 19.709960
272 69.908000 55.450200 55.139200 30.300770 28.740200 26.351840
273 86.185500 60.833600 65.764000 45.100960 39.269700 39.383110
274 43.299100 31.335000 29.980800 9.7082740 8.9492900 7.3000810
275 44.777600 49.633200 33.228800 14.962200 18.287190 9.9075380
276 58.714000 58.644100 47.367100 24.829480 28.020550 19.712960
277 64.501700 69.185900 86.462000 42.228420 42.632480 74.143620
278 14.034800 55.290200 89.801500 23.787440 23.349430 79.345060
279 27.967800 57.185600 100.00000 31.142120 27.402890 105.78460
280 0.0000000 66.865900 100.00000 33.245940 35.131730 106.42780
281 27.854900 75.575000 100.00000 40.306430 45.871730 107.45950
282 38.878600 88.910000 100.00000 51.540130 64.882840 109.26390
283 41.166400 30.563400 0.0000000 7.7276450 7.8166450 0.7046920
284 68.881800 45.659800 0.0000000 21.986130 20.244000 1.4178990
285 68.341700 46.901800 19.736300 22.690730 21.262610 4.1843490
286 100.00000 51.223700 20.771300 46.159920 35.377220 4.8984710
287 0.0000000 0.0000000 0.0000000 0.0920219 0.0934126 0.1669240
288 6.0976000 0.0000000 0.0000000 0.1338780 0.1139930 0.1677480
289 66.326500 0.0000000 0.0000000 14.444210 7.5485230 0.1436740
290 82.373000 23.436300 12.266900 25.835910 15.621070 1.2987070
291 100.00000 33.180000 21.437200 41.585850 26.169590 4.1401100
292 100.00000 68.884400 25.994400 54.282470 50.951460 8.5427470
293 14.875100 74.985700 83.448000 31.068460 41.914520 68.478400
294 17.348100 76.965600 94.746500 36.986360 45.867800 93.373430
295 23.024600 89.920100 94.076900 46.190350 63.809860 93.442070
296 0.0000000 25.933500 20.059600 2.4172800 3.9441340 3.1984140
297 17.486400 30.736100 28.100000 4.5753830 6.1558360 6.3770440
298 56.769200 47.130700 40.000900 18.944310 19.102260 13.673230
299 57.186200 47.877500 61.639800 22.802280 20.785020 32.746910
300 9.4937000 0.0000000 0.0000000 0.2435060 0.1721540 0.1672620
301 13.157900 0.0000000 0.0000000 0.4752850 0.2926720 0.1670220
302 0.0000000 0.0000000 0.0000000 0.0920352 0.0934027 0.1669940
303 37.332100 0.0000000 27.177000 5.0686510 2.4765860 5.4253800
304 48.495600 14.152000 29.515800 8.8483160 5.1205140 6.6227480
305 22.362600 27.242900 0.0000000 3.4731620 4.7932150 0.5936720
306 35.052500 34.277300 12.402600 7.2126710 8.6847080 1.7212270
307 34.258000 45.064800 15.715600 9.7696400 13.809380 2.9068380
308 100.00000 0.0000000 79.860700 48.511810 22.978870 59.245440
309 100.00000 33.302500 82.080000 52.248720 29.560840 63.675290
310 0.0000000 43.103500 0.0000000 5.3553060 10.584220 1.2960370
311 27.413000 47.810600 0.0000000 8.7759340 14.270860 1.5694150
312 58.493100 70.840500 61.897200 33.295910 40.723300 35.224090
313 74.807300 72.702000 62.798700 42.945080 47.228380 36.643330
314 100.00000 79.387100 85.039700 71.778060 66.921050 73.348020
315 0.0000000 0.0000000 2.9412000 0.0940410 0.0942783 0.1770860
316 0.0000000 0.0000000 6.0976000 0.1099310 0.0992136 0.2645860
317 0.0000000 0.0000000 9.4937000 0.1594370 0.1142800 0.5449410
318 0.0000000 0.0000000 26.119400 0.9161060 0.3441420 4.7882350
319 14.115800 12.512200 26.960200 1.8332700 1.3104810 5.3575900
320 17.235500 12.594800 52.469200 5.0112460 2.3497520 21.562520
321 16.667600 39.831000 58.526500 10.305120 11.271860 28.492550
322 16.823700 59.985200 74.119200 20.696660 25.657910 50.788460
323 40.862100 72.865900 82.880200 34.259020 41.789860 67.227160
324 0.0000000 42.766600 56.950100 9.9512510 12.219780 26.333150
325 0.0000000 58.262300 79.718500 20.853280 24.362550 59.552850
326 62.502900 14.473500 53.861700 17.227030 8.8428310 23.076320
327 83.826700 21.774200 62.883900 32.438480 17.523670 33.562110
328 100.00000 31.395100 66.046300 47.385390 27.430230 38.457720
329 87.460300 40.044300 58.191800 37.517600 25.471170 28.829950
330 91.269800 91.269800 91.269800 75.457810 80.702900 87.902520
331 95.528500 95.528500 95.528500 83.957060 89.830710 98.616520
332 100.00000 100.00000 100.00000 93.755690 100.00020 112.58700
333 73.291900 0.0000000 20.143200 18.740410 9.6766680 2.9166830
334 78.542800 0.0000000 38.392100 23.464280 11.799260 11.375890
335 84.764200 15.069900 50.827400 30.082810 15.687490 20.615570
336 100.00000 30.498900 50.930900 44.122880 26.080070 21.502180
337 17.123300 0.0000000 0.0000000 0.8088580 0.4659950 0.1670300
338 21.428600 0.0000000 0.0000000 1.2963870 0.7190860 0.1665000
339 26.119400 0.0000000 0.0000000 1.9559810 1.0616910 0.1650560
340 28.627700 0.0000000 0.0000000 2.3867770 1.2854890 0.1643930
341 29.738900 24.468000 62.741700 10.095710 6.5098300 32.916900
342 30.590100 43.713900 78.449400 18.475000 15.953600 56.955520
343 20.486200 51.743300 74.827200 18.112740 19.501850 51.272990
344 41.451700 62.691200 79.313400 28.041070 30.934590 59.906490
345 16.530300 53.481400 53.829400 13.424230 18.883530 24.515930
346 55.031400 55.031400 55.031400 23.101820 24.746780 26.176370
