storage/madVR 2019-05-01 18-15 0.3127x 0.329y S XYZLUT+MTX/madVR 2019-05-01 18-15 0.3127x 0.329y S XYZLUT+MTX.bpc.ti3
CTI3   

DESCRIPTOR "Argyll Calibration Target chart information 3"
ORIGINATOR "Argyll dispread"
CREATED "Wed May 01 18:18:16 2019"
DEVICE_CLASS "DISPLAY"
SINGLE_DIM_STEPS "17"
COMP_GREY_STEPS "49"
DARK_REGION_EMPHASIS "1.6"
COLOR_REP "RGB_XYZ"
TARGET_INSTRUMENT "X-Rite i1 DisplayPro, ColorMunki Display"
DISPLAY_TYPE_REFRESH "NO"
DISPLAY_TYPE_BASE_ID "1"
INSTRUMENT_TYPE_SPECTRAL "NO"
LUMINANCE_XYZ_CDM2 "202.696655 216.198054 243.410876"
NORMALIZED_TO_Y_100 "YES"
VIDEO_LUT_CALIBRATION_POSSIBLE "YES"

BEGIN_ARGYLL_COLPROF_ARGS
-v -qh -aX -bn -C "No copyright. Created with DisplayCAL 3.8.0.0 and ArgyllCMS 2.1.0_mod" -M "madVR"
END_ARGYLL_COLPROF_ARGS

OBSERVER "1931_2"
USE_BLACK_POINT_COMPENSATION "NO"
BLACK_POINT_CORRECTION "0.0"
HIRES_B2A "YES"
HIRES_B2A_SIZE "-1"
SMOOTH_B2A "YES"
PATCH_SEQUENCE "OPTIMIZE_DISPLAY_RESPONSE_DELAY"
3DLUT_HDR_MAXMLL_ALT_CLIP "1"
3DLUT_HDR_SAT "0.5"
3DLUT_HDR_PEAK_LUMINANCE "480.0"
3DLUT_HDR_MAXMLL "10000.0"
3DLUT_GAMUT_MAPPING_MODE "G"
3DLUT_HDR_MINMLL "0.0"
3DLUT_SOURCE_PROFILE "ref/Rec2020.icm"
3DLUT_RENDERING_INTENT "aw"
3DLUT_HDR_DISPLAY "0"
SIMULATION_PROFILE "Rec2020.0.0,2084@480ssh0.5Gawt65.icm"
3DLUT_FORMAT "madVR"
3DLUT_HDR_AMBIENT_LUMINANCE "5.0"
3DLUT_APPLY_CAL "1"
3DLUT_SIZE "65"
3DLUT_GAMMA "-2.4"
3DLUT_INPUT_ENCODING "t"
3DLUT_OUTPUT_ENCODING "t"
3DLUT_INPUT_BITDEPTH "10"
3DLUT_TRC "smpte2084.rolloffclip"
3DLUT_OUTPUT_BITDEPTH "12"
3DLUT_DEGREE_OF_BLACK_OUTPUT_OFFSET "0.0"
3DLUT_HDR_HUE "0.5"
3DLUT_CONTENT_COLORSPACE_WHITE_X "0.3127"
3DLUT_CONTENT_COLORSPACE_WHITE_Y "0.329"
3DLUT_CONTENT_COLORSPACE_RED_X "0.68"
3DLUT_CONTENT_COLORSPACE_RED_Y "0.32"
3DLUT_CONTENT_COLORSPACE_GREEN_X "0.265"
3DLUT_CONTENT_COLORSPACE_GREEN_Y "0.69"
3DLUT_CONTENT_COLORSPACE_BLUE_X "0.15"
3DLUT_CONTENT_COLORSPACE_BLUE_Y "0.06"

NUMBER_OF_FIELDS 7
BEGIN_DATA_FORMAT
SAMPLE_ID RGB_R RGB_G RGB_B XYZ_X XYZ_Y XYZ_Z
END_DATA_FORMAT

NUMBER_OF_SETS 417
BEGIN_DATA
1 100.00000 100.00000 100.00000 93.755080 100.000000 112.58700
2 1.9608000 1.9608000 1.9608000 0.0930450 0.0989596 0.1128986
3 3.9216000 3.9216000 3.9216000 0.1132231 0.1201468 0.1407443
4 5.8824000 5.8824000 5.8824000 0.1878202 0.1982698 0.2378331
5 9.8039000 9.8039000 9.8039000 0.5357175 0.5660988 0.6593020
6 13.726000 13.726000 13.726000 1.2026596 1.2764279 1.4169739
7 17.647000 17.647000 17.647000 2.0840913 2.2170661 2.4083943
8 21.569000 21.569000 21.569000 3.2079201 3.4144812 3.6684136
9 25.490000 25.490000 25.490000 4.5788071 4.8777164 5.2078721
10 29.412000 29.412000 29.412000 6.1676534 6.5774737 7.0062208
11 33.333000 33.333000 33.333000 8.0718587 8.6057880 9.1519933
12 37.255000 37.255000 37.255000 10.211428 10.880047 11.543798
13 41.176000 41.176000 41.176000 12.548028 13.384478 14.203318
14 45.098000 45.098000 45.098000 15.079849 16.119008 17.122078
15 49.020000 49.020000 49.020000 17.976249 19.169408 20.425709
16 52.941000 52.941000 52.941000 21.267530 22.660539 24.146969
17 56.863000 56.863000 56.863000 24.891810 26.594840 28.314070
18 60.784000 60.784000 60.784000 29.053971 31.039640 33.099220
19 64.706000 64.706000 64.706000 33.805621 36.066141 38.591481
20 68.627000 68.627000 68.627000 38.761592 41.412132 44.352952
21 72.549000 72.549000 72.549000 44.110263 47.109662 50.555173
22 76.471000 76.471000 76.471000 49.835844 53.232193 57.289393
23 80.392000 80.392000 80.392000 56.083465 59.938674 64.732924
24 84.314000 84.314000 84.314000 62.740266 67.031955 72.617915
25 88.235000 88.235000 88.235000 69.740887 74.479636 81.033486
26 92.157000 92.157000 92.157000 77.130008 82.372337 90.157767
27 96.078000 96.078000 96.078000 85.365679 91.118199 100.78420
28 56.696100 0.0000000 27.242200 10.924059 5.5131815 5.5182077
29 63.695200 0.0000000 42.728500 15.553159 7.5891778 14.119571
30 78.933000 54.081500 44.568900 33.581429 29.931670 17.445953
31 84.551900 68.738800 57.615700 46.089102 45.860412 30.414174
32 87.581500 75.226100 75.194700 56.245864 55.654684 55.025714
33 33.512500 37.395800 27.689600 8.4718358 10.202457 6.5221261
34 43.103500 43.103500 43.103500 13.713138 14.635258 15.519858
35 47.021900 68.348700 45.817000 25.028743 34.955381 19.595314
36 61.905800 86.143700 47.790400 42.002606 59.993624 23.454927
37 100.00000 100.00000 62.781000 80.886140 96.084259 41.725530
38 0.0000000 100.00000 0.0000000 37.031038 74.433516 8.2519612
39 0.0000000 100.00000 31.582500 38.288998 74.885306 15.268169
40 0.0000000 100.00000 100.00000 55.520458 80.207057 111.08160
41 51.621800 100.00000 100.00000 64.118578 84.710118 111.40680
42 0.0000000 23.081100 79.739000 11.793690 6.1445226 57.795413
43 12.891000 35.976000 80.665000 14.833625 11.111157 60.163773
44 77.291000 0.0000000 61.363400 26.295310 12.507218 31.378698
45 76.717000 0.0000000 80.886300 31.018959 13.839278 60.363209
46 78.323400 91.879100 88.337800 65.560587 76.516997 81.547547
47 0.0000000 100.00000 53.920300 41.048238 75.830537 30.382658
48 40.314100 100.00000 54.367800 46.521978 78.713567 31.719968
49 51.403200 100.00000 73.031800 54.118728 81.861137 55.388008
50 0.0000000 0.0000000 100.00000 18.527830 5.6029105 103.57491
51 0.0000000 28.754300 100.00000 20.951710 10.487017 103.84444
52 0.0000000 48.007300 100.00000 25.511957 19.683559 104.72527
53 51.994100 70.919100 100.00000 43.854892 43.777582 107.18649
54 2.9412000 0.0000000 0.0000000 0.0916843 0.0957698 0.1063576
55 0.0000000 13.157900 0.0000000 0.4738755 0.8567429 0.2465870
56 0.0000000 17.123300 0.0000000 0.7902540 1.4882970 0.3165900
57 0.0000000 21.428600 0.0000000 1.2660019 2.4389701 0.4198842
58 0.0000000 26.119400 0.0000000 1.9087090 3.7222883 0.5576806
59 0.0000000 31.250000 0.0000000 2.7543145 5.4121185 0.7389734
60 0.0000000 36.885200 0.0000000 3.9055477 7.6763468 0.9835209
61 0.0000000 50.000000 0.0000000 7.2712974 14.453348 1.7104942
62 0.0000000 57.692300 0.0000000 10.053763 20.029819 2.3125375
63 0.0000000 66.326500 0.0000000 14.019554 27.899030 3.1563527
64 0.0000000 76.087000 0.0000000 19.351635 38.646931 4.3106931
65 0.0000000 87.209300 0.0000000 26.733436 53.542253 5.8991926
66 25.932500 90.091500 12.510800 31.168916 59.217934 7.2734837
67 40.978800 100.00000 24.938900 43.320858 77.771167 12.700759
68 35.867700 82.999600 0.0000000 27.713545 49.559703 5.2608865
69 58.874600 100.00000 0.0000000 48.639228 80.684247 8.2665234
70 68.460100 100.00000 43.535700 55.826038 83.752288 22.874339
71 0.0000000 29.368300 50.738200 5.9587378 6.0105236 19.897101
72 42.186100 36.527900 57.720100 14.124046 12.141127 27.696740
73 46.255000 50.178000 67.531500 21.125789 20.709559 40.730473
74 100.00000 100.00000 100.00000 93.717810 99.980730 112.58750
75 0.0000000 0.0000000 36.885200 1.8246171 0.6208648 9.8391672
76 0.0000000 0.0000000 43.103500 2.5102078 0.8293029 13.701788
77 0.0000000 0.0000000 50.000000 3.4222750 1.1040409 18.824860
78 0.0000000 0.0000000 57.692300 4.7037377 1.4960910 26.033456
79 0.0000000 0.0000000 66.326500 6.5824038 2.0639340 36.574271
80 0.0000000 0.0000000 76.087000 9.2299203 2.8593672 51.415529
81 25.561100 7.5144000 81.089200 12.779213 4.4976574 60.527442
82 44.178600 0.0000000 82.664800 17.113335 6.4839217 63.456242
83 47.450700 15.986200 94.229900 23.239617 9.6188041 88.316247
84 1.9380000 1.9380000 1.9380000 0.0928521 0.0987860 0.1126912
85 2.9412000 2.9412000 2.9412000 0.0984140 0.1051278 0.1203010
86 3.9683000 3.9683000 3.9683000 0.1142078 0.1215578 0.1414892
87 5.0201000 5.0201000 5.0201000 0.1617553 0.1722378 0.2030881
88 6.0976000 6.0976000 6.0976000 0.1943783 0.2090188 0.2429162
89 7.2016000 7.2016000 7.2016000 0.2744232 0.2956848 0.3411461
90 8.3333000 8.3333000 8.3333000 0.4036050 0.4308318 0.4987900
91 9.4937000 9.4937000 9.4937000 0.4855387 0.5179448 0.5958759
92 10.683800 10.683800 10.683800 0.6938928 0.7345108 0.8415207
93 11.904800 11.904800 11.904800 0.8656608 0.9173089 1.0368190
94 13.157900 13.157900 13.157900 1.0601248 1.1416589 1.2378634
95 14.444400 14.444400 14.444400 1.2912862 1.3710909 1.5177417
96 15.765800 15.765800 15.765800 1.5332975 1.6373800 1.7791926
97 17.123300 17.123300 17.123300 1.8789074 2.0164510 2.1564791
98 18.518500 18.518500 18.518500 2.3080953 2.4656911 2.6455627
99 19.953100 19.953100 19.953100 2.6934028 2.8721702 3.0806728
100 21.428600 21.428600 21.428600 3.1473511 3.3700652 3.5720606
101 22.946900 22.946900 22.946900 3.6326547 3.8964693 4.1075145
102 24.509800 24.509800 24.509800 4.1767010 4.4801284 4.7174708
103 26.119400 26.119400 26.119400 4.8102202 5.1484525 5.4308477
104 27.777800 27.777800 27.777800 5.4920963 5.8637626 6.2128795
105 29.487200 29.487200 29.487200 6.2191684 6.6313757 7.0105019
106 31.250000 31.250000 31.250000 7.0224645 7.5159948 7.9288961
107 33.068800 33.068800 33.068800 7.9107297 8.4426319 8.9064333
108 34.946200 34.946200 34.946200 8.9153798 9.5000661 10.049987
109 36.885200 36.885200 36.885200 10.014198 10.699557 11.329058
110 38.888900 38.888900 38.888900 11.196968 11.932067 12.606938
111 40.960500 40.960500 40.960500 12.356318 13.237748 13.940048
112 55.779100 42.709700 48.356400 18.357798 16.803798 19.263018
113 71.281500 62.248400 72.420400 37.885501 36.096801 48.844440
114 86.383700 64.909800 79.950800 51.128961 44.437692 61.760691
115 0.0000000 0.0000000 0.0000000 0.0874845 0.0933226 0.1051184
116 11.268000 14.277300 21.096000 1.3749250 1.3640579 3.2450621
117 11.751000 23.846800 35.591000 3.6176657 3.8728713 9.7949438
118 11.842400 40.307000 46.803200 8.1210375 10.655237 17.717143
119 0.0000000 40.540300 39.958200 6.9430653 10.337447 12.770446
120 0.0000000 59.092400 50.081200 14.252302 22.749749 21.186630
121 24.954500 69.484500 68.403000 24.911143 34.961701 43.486480
122 69.444400 69.444400 69.444400 39.862282 42.572922 45.569652
123 72.695000 72.695000 72.695000 44.243403 47.370172 50.622103
124 76.087000 76.087000 76.087000 49.268604 52.642013 56.552123
125 79.629600 79.629600 79.629600 54.804754 58.586224 63.106374
126 83.333300 83.333300 83.333300 60.900685 65.199895 70.195065
127 87.209300 87.209300 87.209300 67.753436 72.485186 78.429046
128 29.829000 74.685300 17.523900 21.789534 38.903641 6.1623726
129 52.667100 87.410900 22.889900 36.545756 58.967424 9.6423194
130 78.162200 100.00000 23.385800 59.617788 86.173648 12.168549
131 100.00000 34.416400 0.0000000 41.096836 26.228639 0.8283910
132 100.00000 56.759900 0.0000000 47.372020 38.771081 2.1765018
133 100.00000 77.536500 0.0000000 57.957984 60.029584 4.4638571
134 100.00000 83.974800 29.947300 63.691786 69.387056 12.296409
135 82.541300 60.765700 35.582100 37.564731 36.210811 12.209206
136 100.00000 60.938800 82.609600 60.888961 46.577792 66.550211
137 27.568900 0.0000000 45.117100 4.9564467 2.0264080 15.613717
138 41.867900 13.191800 55.539400 10.099908 4.9658555 24.665539
139 62.761900 14.693000 83.709500 24.944679 11.225997 65.664811
140 84.373300 24.329800 85.263400 39.559823 20.389329 69.134766
141 85.368700 65.154000 91.704600 54.749781 45.715712 84.960569
142 47.934400 16.624400 40.568000 9.9210668 5.7081546 12.766718
143 67.643900 24.688500 48.291300 20.258093 12.378498 18.608005
144 0.0000000 0.0000000 13.157900 0.2596573 0.1458498 1.0593485
145 15.956900 0.0000000 14.748800 0.8987621 0.4659158 1.3754922
146 27.383900 0.0000000 15.883200 2.4108351 1.2411059 1.6570790
147 45.686700 0.0000000 43.427000 8.7896729 4.0601963 14.497408
148 100.00000 0.0000000 100.00000 56.220232 25.179279 103.59077
149 100.00000 36.740900 100.00000 60.411006 33.450291 104.45118
150 0.0000000 0.0000000 31.250000 1.3048394 0.4627868 6.9059770
151 0.0000000 19.178500 45.813300 3.8241939 2.8773812 15.845900
152 0.0000000 39.978100 74.970600 13.600957 12.226407 50.457470
153 0.0000000 21.153200 62.113500 6.8327430 4.1861353 31.440864
154 31.421600 25.356200 84.999900 16.855850 8.8972510 68.219903
155 60.461600 34.814400 86.872600 28.186494 17.196528 72.557121
156 55.104200 0.0000000 63.451700 15.308047 6.7080097 33.640093
157 65.304300 20.573500 69.144100 22.603961 11.894287 41.698813
158 81.804000 30.865300 74.356200 35.372724 20.596999 50.059151
159 59.862000 15.810000 14.998300 12.354751 7.2759078 1.6016335
160 64.523000 55.550300 15.399900 23.295160 25.815619 3.5695433
161 74.542500 67.486100 45.467600 36.878712 40.485642 19.236295
162 85.722200 82.906600 48.495300 53.923075 62.814275 23.704627
163 100.00000 83.846800 59.225300 67.714116 70.555426 34.819718
164 100.00000 86.140400 78.114900 73.991227 75.222806 61.667417
165 31.250000 0.0000000 0.0000000 2.8453010 1.5238610 0.1632128
166 36.885200 0.0000000 0.0000000 3.9993255 2.1231300 0.1618781
167 43.103500 0.0000000 0.0000000 5.5244810 2.9154102 0.1585606
168 54.099500 0.0000000 0.0000000 8.9242802 4.6811854 0.1525107
169 57.692300 0.0000000 0.0000000 10.399219 5.4463765 0.1506065
170 83.743300 17.100400 33.133500 27.321832 14.999298 8.5627242
171 100.00000 29.788400 35.123400 42.098575 25.271579 10.277185
172 19.149100 78.958000 44.552400 25.057935 44.088202 19.736206
173 16.071000 84.804500 70.831400 33.753635 53.418303 48.961374
174 60.512200 84.320100 100.00000 55.465935 62.052595 108.68869
175 50.000000 0.0000000 0.0000000 7.5341807 3.9593433 0.1555678
176 62.845000 12.375300 23.232600 13.836211 7.5816578 4.0461268
177 71.446100 21.416900 37.102000 20.515362 12.125267 10.894199
178 80.358000 26.266700 100.00000 43.231962 21.426439 104.13607
179 20.600500 0.0000000 26.756500 2.0943802 0.9402749 5.1958518
180 27.851500 17.634900 43.671700 5.7079339 3.6407513 14.813251
181 26.433900 37.575600 41.041000 8.4700267 10.030337 13.686315
182 34.004000 46.000800 56.152300 14.290769 15.784958 26.496074
183 41.600600 56.426100 83.146400 26.660779 25.985289 66.300602
184 17.453100 38.052300 95.853600 21.592544 14.173728 92.757700
185 39.300200 42.992200 100.00000 28.912065 19.351069 104.95817
186 79.120700 50.337600 100.00000 48.277658 32.585450 104.80538
187 100.00000 63.545700 100.00000 69.340412 51.409263 106.29199
188 18.820700 36.358100 14.181200 5.0164937 8.1911769 2.1923879
189 34.150800 60.659700 15.900100 15.241802 24.747579 4.1363959
190 47.362500 61.328400 29.690100 19.918402 27.529120 9.1504524
191 60.173300 82.789900 76.930500 45.232865 56.917274 58.415404
192 81.983100 88.596800 78.389600 62.149606 71.755686 62.098167
193 50.670300 87.526800 56.830200 39.915566 60.101434 31.898807
194 76.731700 90.723200 69.237300 57.703837 72.293716 47.978337
195 32.069700 17.231400 0.0000000 3.8082996 3.0911812 0.3175690
196 43.053800 17.918500 12.675300 6.6429339 4.6725844 1.2224419
197 52.680800 24.822400 25.920400 11.203394 8.1977649 5.3147848
198 0.0000000 100.00000 71.613900 45.067338 77.230797 52.164398
199 0.0000000 100.00000 85.918000 49.393188 78.406217 76.924967
200 78.188800 100.00000 86.281500 71.518859 89.840279 78.649519
201 100.00000 100.00000 85.940200 87.510770 98.158560 78.697000
202 63.260100 34.620700 44.346000 19.251516 14.577788 15.962918
203 65.207600 38.466200 65.357100 24.913926 18.075788 37.169192
204 83.122800 45.027800 69.341300 38.250557 27.210350 43.146717
205 45.252600 0.0000000 15.407100 6.3845773 3.3081192 1.5593112
206 53.963100 62.173300 15.067400 21.530962 29.035660 4.0982454
207 60.540800 76.925100 16.261800 32.243414 46.329822 6.0672301
208 60.288600 85.208600 67.014500 44.373495 59.520974 43.989446
209 61.668000 96.199000 83.137700 57.979937 78.174727 71.532537
210 77.116100 100.00000 100.00000 76.809339 91.373269 111.67750
211 100.00000 0.0000000 0.0000000 37.808463 19.691069 0.1258458
212 100.00000 0.0000000 16.927600 38.263853 19.853019 2.0121487
213 100.00000 0.0000000 43.898200 40.556712 20.527789 15.369491
214 100.00000 0.0000000 61.471200 43.542132 21.452129 31.937006
215 0.0000000 58.232400 28.787500 11.506053 21.223209 8.0942465
216 0.0000000 62.376800 70.124100 19.821252 26.944740 44.514426
217 0.0000000 78.167500 75.927400 30.021584 44.668042 55.297481
218 0.0000000 84.754100 100.00000 43.880475 56.534464 108.59879
219 13.274000 26.604900 58.840900 7.4546343 5.8064116 28.304293
220 26.198900 35.030600 59.261200 10.692917 9.8041151 29.310495
221 41.220200 38.326700 82.625200 20.865325 14.924028 64.247860
222 57.456800 52.915300 83.219500 30.587958 26.056579 66.266662
223 60.418400 56.622700 100.00000 40.321589 31.841320 105.38378
224 83.240000 88.360500 100.00000 71.356527 74.584576 109.32650
225 40.618000 73.619500 34.466300 24.858154 39.367371 12.896156
226 76.448100 87.618500 41.061400 50.137126 65.928015 18.997088
227 43.631800 65.060000 0.0000000 19.182953 29.583200 2.9991390
228 64.771600 71.147000 35.121700 32.311593 41.182792 13.052926
229 19.005400 16.758700 69.092600 9.0405050 4.1752343 41.242540
230 48.452400 35.495700 69.033900 18.310455 13.440388 42.064855
231 12.169200 19.214800 12.749500 1.5178451 2.2091841 1.2334530
232 28.790400 23.901700 13.840400 4.2522559 4.5007554 1.6634740
233 53.228400 28.297500 16.566800 11.395335 9.1837131 2.3271021
234 65.698100 39.999900 38.362100 20.982277 17.407248 12.325291
235 76.087000 0.0000000 0.0000000 20.007641 10.436107 0.1361760
236 84.498700 17.533600 21.825100 27.089372 15.144698 3.6656526
237 85.050400 46.217700 28.592500 33.499228 26.488500 7.5333077
238 100.00000 52.368000 46.012100 49.014919 37.004741 18.730975
239 87.209300 0.0000000 0.0000000 27.529881 14.346178 0.1252184
240 100.00000 0.0000000 29.758100 39.085002 20.093009 6.8886188
241 54.948100 21.885800 0.0000000 10.753663 7.4544008 0.4169224
242 54.927300 33.845800 8.2528000 12.781677 11.431167 1.1595444
243 66.326500 66.326500 66.326500 35.690512 38.132471 40.699281
244 66.451000 75.350000 81.888300 45.121623 49.570383 66.096072
245 66.505100 87.751200 94.036100 57.936546 67.456965 93.196775
246 0.0000000 0.0000000 87.209300 12.846370 3.9444573 71.699867
247 10.160800 15.263400 88.219300 14.053714 5.3065475 74.177131
248 25.103000 21.501700 100.00000 21.632177 9.1690761 103.77614
249 56.526400 30.765800 100.00000 31.447702 16.502918 104.24946
250 0.0000000 2.9412000 0.0000000 0.0925486 0.1025638 0.1087353
251 23.691800 11.893700 12.509600 2.1026361 1.5677490 1.0675953
252 31.962000 12.896000 32.641800 4.7961016 2.7825851 8.0190874
253 45.321600 45.321600 45.321600 15.213119 16.305598 17.174488
254 47.619100 47.619100 47.619100 16.928579 18.102668 19.089069
255 50.000000 50.000000 50.000000 18.693649 20.025199 21.127409
256 72.088900 49.540800 60.868400 30.674198 25.642679 32.225988
257 0.0000000 0.0000000 0.0000000 0.0875917 0.0933655 0.1052734
258 0.9579000 0.9579000 0.9579000 0.0897382 0.0956563 0.1082201
259 85.212000 53.996200 11.326600 35.108499 31.094100 2.6783202
260 100.00000 67.581100 44.841200 55.514763 50.211443 19.337446
261 100.00000 69.826600 64.778800 60.354653 53.776943 39.581385
262 100.00000 100.00000 100.00000 93.796990 100.01650 112.58620
263 38.507900 0.0000000 100.00000 22.894353 7.8399189 103.86613
264 70.139700 0.0000000 100.00000 34.986608 14.126748 104.05466
265 29.922100 56.315800 63.871200 18.527651 22.803869 36.125706
266 49.510100 66.486700 66.979100 28.773922 34.714861 41.240060
267 79.045300 73.600300 100.00000 58.915013 53.851703 107.23599
268 19.611800 22.780100 29.546200 3.6683573 3.7944573 6.7638001
269 30.894300 24.193500 36.947500 6.3064110 5.3177435 10.689218
270 44.067500 24.459900 52.187900 11.439543 7.6223648 21.806815
271 53.508600 32.208400 49.445600 15.315025 11.681777 19.709943
272 69.908000 55.450200 55.139200 30.300760 28.740190 26.351831
273 86.185500 60.833600 65.764000 45.100951 39.269691 39.383102
274 43.299100 31.335000 29.980800 9.7082605 8.9492770 7.3000704
275 44.777600 49.633200 33.228800 14.962190 18.287178 9.9075307
276 58.714000 58.644100 47.367100 24.829471 28.020540 19.712952
277 64.501700 69.185900 86.462000 42.228412 42.632472 74.143609
278 14.034800 55.290200 89.801500 23.787429 23.349419 79.345037
279 27.967800 57.185600 100.00000 31.142109 27.402880 105.78458
280 0.0000000 66.865900 100.00000 33.245931 35.131721 106.42778
281 27.854900 75.575000 100.00000 40.306423 45.871722 107.45949
282 38.878600 88.910000 100.00000 51.540126 64.882835 109.26389
283 41.166400 30.563400 0.0000000 7.7276321 7.8166319 0.7046895
284 68.881800 45.659800 0.0000000 21.986118 20.243989 1.4178972
285 68.341700 46.901800 19.736300 22.690718 21.262599 4.1843454
286 100.00000 51.223700 20.771300 46.159909 35.377211 4.8984687
287 0.0000000 0.0000000 0.0000000 0.0875657 0.0933984 0.1051544
288 6.0976000 0.0000000 0.0000000 0.1297417 0.1139788 0.1104585
289 66.326500 0.0000000 0.0000000 14.444190 7.5485098 0.1436714
290 82.373000 23.436300 12.266900 25.835893 15.621058 1.2987049
291 100.00000 33.180000 21.437200 41.585836 26.169579 4.1401071
292 100.00000 68.884400 25.994400 54.282463 50.951453 8.5427450
293 14.875100 74.985700 83.448000 31.068453 41.914512 68.478389
294 17.348100 76.965600 94.746500 36.986353 45.867792 93.373418
295 23.024600 89.920100 94.076900 46.190346 63.809855 93.442064
296 0.0000000 25.933500 20.059600 2.4172700 3.9441203 3.1983972
297 17.486400 30.736100 28.100000 4.5753721 6.1558226 6.3770309
298 56.769200 47.130700 40.000900 18.944299 19.102248 13.673221
299 57.186200 47.877500 61.639800 22.802268 20.785009 32.746896
300 9.4937000 0.0000000 0.0000000 0.2401572 0.1721398 0.1209884
301 13.157900 0.0000000 0.0000000 0.4731294 0.2926578 0.1374022
302 0.0000000 0.0000000 0.0000000 0.0875790 0.0933885 0.1052244
303 37.332100 0.0000000 27.177000 5.0686214 2.4765721 5.4252215
304 48.495600 14.152000 29.515800 8.8482967 5.1205005 6.6227316
305 22.362600 27.242900 0.0000000 3.4731511 4.7932014 0.5936679
306 35.052500 34.277300 12.402600 7.2126596 8.6846950 1.7212228
307 34.258000 45.064800 15.715600 9.7696304 13.809368 2.9068339
308 100.00000 0.0000000 79.860700 48.511792 22.978859 59.245421
309 100.00000 33.302500 82.080000 52.248705 29.560830 63.675274
310 0.0000000 43.103500 0.0000000 5.3552980 10.584207 1.2960341
311 27.413000 47.810600 0.0000000 8.7759253 14.270848 1.5694124
312 58.493100 70.840500 61.897200 33.295903 40.723292 35.224083
313 74.807300 72.702000 62.798700 42.945073 47.228372 36.643324
314 100.00000 79.387100 85.039700 71.778055 66.921045 73.348015
315 0.0000000 0.0000000 2.9412000 0.0895987 0.0942641 0.1155116
316 0.0000000 0.0000000 6.0976000 0.1055673 0.0991994 0.2041127
317 0.0000000 0.0000000 9.4937000 0.1553050 0.1142658 0.4877117
318 0.0000000 0.0000000 26.119400 0.9142381 0.3441278 4.7031434
319 14.115800 12.512200 26.960200 1.8331707 1.3104669 5.3548608
320 17.235500 12.594800 52.469200 5.0112134 2.3497381 21.562008
321 16.667600 39.831000 58.526500 10.305108 11.271847 28.492528
322 16.823700 59.985200 74.119200 20.696651 25.657899 50.788444
323 40.862100 72.865900 82.880200 34.259013 41.789852 67.227149
324 0.0000000 42.766600 56.950100 9.9512402 12.219767 26.333130
325 0.0000000 58.262300 79.718500 20.853270 24.362539 59.552832
326 62.502900 14.473500 53.861700 17.227010 8.8428180 23.076297
327 83.826700 21.774200 62.883900 32.438462 17.523658 33.562093
328 100.00000 31.395100 66.046300 47.385375 27.430220 38.457708
329 87.460300 40.044300 58.191800 37.517586 25.471159 28.829939
330 91.269800 91.269800 91.269800 75.457807 80.702897 87.902517
331 95.528500 95.528500 95.528500 83.957059 89.830709 98.616519
332 100.00000 100.00000 100.00000 93.755690 100.00020 112.58700
333 73.291900 0.0000000 20.143200 18.740390 9.6766551 2.9166776
334 78.542800 0.0000000 38.392100 23.464260 11.799247 11.375878
335 84.764200 15.069900 50.827400 30.082792 15.687478 20.615556
336 100.00000 30.498900 50.930900 44.122865 26.080059 21.502171
337 17.123300 0.0000000 0.0000000 0.8077212 0.4659808 0.1515719
338 21.428600 0.0000000 0.0000000 1.2958021 0.7190718 0.1606305
339 26.119400 0.0000000 0.0000000 1.9557600 1.0616769 0.1634401
340 28.627700 0.0000000 0.0000000 2.3866501 1.2854749 0.1636122
341 29.738900 24.468000 62.741700 10.095692 6.5098167 32.916863
342 30.590100 43.713900 78.449400 18.474987 15.953588 56.955494
343 20.486200 51.743300 74.827200 18.112729 19.501839 51.272969
344 41.451700 62.691200 79.313400 28.041061 30.934580 59.906476
345 16.530300 53.481400 53.829400 13.424221 18.883518 24.515917
346 55.031400 55.031400 55.031400 23.101810 24.746769 26.176360
