storage/U2719D #1 2019-05-01 13-38 D6500 2.2 F-S XYZLUT+MTX/U2719D #1 2019-05-01 13-38 D6500 2.2 F-S XYZLUT+MTX.cal
CAL    

DESCRIPTOR "Argyll Device Calibration Curves"
ORIGINATOR "Argyll dispcal"
CREATED "Wed May 01 13:47:02 2019"
DEVICE_CLASS "DISPLAY"
COLOR_REP "RGB"
VIDEO_LUT_CALIBRATION_POSSIBLE "YES"
TV_OUTPUT_ENCODING "NO"
DEVICE_TYPE "n"
TARGET_WHITE_XYZ "187.712337 197.556221 214.847643"
TARGET_GAMMA "2.2"
DEGREE_OF_BLACK_OUTPUT_OFFSET "1.0"
BLACK_POINT_CORRECTION "0.0"
BLACK_NEUTRAL_BLEND_RATE "4.0"
BLACK_POINT_HACK "YES"
QUALITY "low"

BEGIN_ARGYLL_DISPCAL_ARGS
-v2 -d1 -c1 -yn -P0.455185358986,0.582591493571,1.0 -Ibw -ql -t6500 -g2.2 -f1.0 -k0 -A4.0 -b
END_ARGYLL_DISPCAL_ARGS


NUMBER_OF_FIELDS 4
BEGIN_DATA_FORMAT
RGB_I RGB_R RGB_G RGB_B
END_DATA_FORMAT

NUMBER_OF_SETS 256
BEGIN_DATA
0.00000000 0.00000000 0.00000000 0.00000000
0.00392157 0.00176263 0.00174749 0.00157191
0.00784314 0.00358454 0.00355563 0.00320212
0.01176470 0.00546877 0.00542763 0.00489391
0.01568630 0.00741856 0.00736693 0.00665085
0.01960780 0.00943741 0.00937724 0.00847678
0.02352940 0.01152900 0.01146250 0.01037580
0.02745100 0.01369750 0.01362700 0.01235250
0.03137250 0.01594700 0.01587540 0.01441170
0.03529410 0.01828230 0.01821260 0.01655850
0.03921570 0.02070830 0.02064400 0.01879890
0.04313730 0.02323050 0.02317540 0.02113900
0.04705880 0.02585460 0.02581310 0.02358560
0.05098040 0.02858700 0.02856400 0.02614610
0.05490200 0.03143450 0.03143540 0.02882880
0.05882350 0.03440430 0.03443520 0.03164250
0.06274510 0.03750110 0.03756730 0.03459550
0.06666670 0.04072820 0.04082960 0.03768970
0.07058820 0.04409390 0.04421670 0.04092220
0.07450980 0.04760890 0.04772310 0.04428990
0.07843140 0.05128040 0.05134300 0.04778930
0.08235290 0.05510750 0.05506980 0.05141500
0.08627450 0.05908160 0.05889600 0.05515700
0.09019610 0.06318960 0.06281240 0.05900230
0.09411760 0.06741790 0.06680920 0.06293670
0.09803920 0.07175830 0.07088020 0.06694930
0.10196100 0.07620680 0.07502410 0.07103610
0.10588200 0.08075460 0.07924190 0.07519920
0.10980400 0.08538410 0.08353110 0.07943740
0.11372500 0.09007040 0.08789340 0.08375000
0.11764700 0.09479620 0.09232810 0.08812830
0.12156900 0.09953170 0.09682420 0.09256670
0.12549000 0.10427300 0.10138000 0.09705100
0.12941200 0.10899100 0.10598000 0.10157700
0.13333300 0.11368700 0.11060900 0.10612300
0.13725500 0.11835900 0.11526500 0.11069100
0.14117600 0.12300100 0.11991800 0.11525300
0.14509800 0.12762600 0.12456200 0.11980200
0.14902000 0.13224200 0.12919400 0.12434000
0.15294100 0.13683000 0.13378100 0.12883700
0.15686300 0.14140700 0.13832200 0.13328700
0.16078400 0.14598500 0.14282000 0.13769600
0.16470600 0.15056900 0.14728900 0.14207600
0.16862700 0.15513100 0.15171400 0.14641500
0.17254900 0.15968500 0.15609900 0.15071100
0.17647100 0.16422100 0.16046300 0.15498200
0.18039200 0.16874100 0.16480600 0.15922500
0.18431400 0.17324500 0.16914600 0.16345800
0.18823500 0.17770600 0.17347800 0.16767600
0.19215700 0.18209900 0.17778500 0.17185500
0.19607800 0.18644800 0.18206100 0.17598700
0.20000000 0.19075800 0.18633800 0.18010200
0.20392200 0.19501600 0.19060700 0.18419200
0.20784300 0.19922600 0.19486300 0.18825000
0.21176500 0.20341800 0.19910800 0.19228000
0.21568600 0.20759900 0.20336500 0.19630800
0.21960800 0.21175500 0.20762100 0.20032300
0.22352900 0.21589900 0.21186600 0.20431400
0.22745100 0.22002500 0.21610500 0.20829100
0.23137300 0.22415400 0.22032900 0.21224900
0.23529400 0.22831900 0.22456700 0.21621800
0.23921600 0.23252000 0.22883300 0.22022000
0.24313700 0.23674100 0.23311700 0.22424600
0.24705900 0.24098600 0.23740800 0.22828500
0.25098000 0.24525300 0.24171000 0.23234300
0.25490200 0.24954700 0.24602200 0.23641800
0.25882400 0.25389300 0.25036800 0.24053200
0.26274500 0.25825800 0.25474400 0.24469000
0.26666700 0.26263100 0.25912200 0.24886200
0.27058800 0.26700500 0.26350000 0.25303900
0.27451000 0.27138400 0.26787700 0.25721700
0.27843100 0.27577200 0.27226100 0.26140400
0.28235300 0.28013800 0.27663300 0.26559000
0.28627500 0.28446900 0.28097200 0.26974800
0.29019600 0.28879700 0.28528400 0.27386700
0.29411800 0.29314800 0.28961100 0.27798800
0.29803900 0.29752100 0.29395500 0.28212700
0.30196100 0.30190300 0.29830300 0.28626900
0.30588200 0.30627200 0.30264700 0.29040900
0.30980400 0.31062000 0.30696100 0.29452300
0.31372500 0.31496100 0.31126800 0.29861400
0.31764700 0.31928500 0.31556300 0.30269600
0.32156900 0.32359700 0.31984800 0.30676400
0.32549000 0.32789400 0.32412000 0.31082100
0.32941200 0.33217600 0.32837900 0.31486400
0.33333300 0.33647400 0.33263900 0.31889500
0.33725500 0.34077500 0.33691500 0.32294800
0.34117600 0.34505800 0.34118000 0.32700600
0.34509800 0.34932300 0.34542800 0.33105300
0.34902000 0.35356900 0.34965900 0.33508800
0.35294100 0.35780100 0.35387300 0.33910900
0.35686300 0.36201600 0.35807400 0.34312100
0.36078400 0.36622400 0.36225500 0.34712500
0.36470600 0.37044500 0.36644500 0.35112800
0.36862700 0.37466800 0.37064400 0.35515600
0.37254900 0.37889300 0.37485100 0.35919900
0.37647100 0.38310200 0.37904100 0.36325500
0.38039200 0.38729000 0.38320800 0.36729400
0.38431400 0.39143500 0.38734500 0.37131800
0.38823500 0.39552300 0.39143700 0.37531200
0.39215700 0.39955400 0.39546900 0.37925600
0.39607800 0.40358500 0.39946800 0.38314500
0.40000000 0.40765100 0.40349500 0.38703600
0.40392200 0.41175000 0.40755100 0.39096600
0.40784300 0.41587400 0.41162100 0.39492800
0.41176500 0.42000700 0.41569500 0.39890400
0.41568600 0.42413100 0.41976500 0.40288300
0.41960800 0.42825700 0.42383100 0.40685900
0.42352900 0.43238700 0.42789300 0.41083200
0.42745100 0.43650400 0.43194300 0.41480300
0.43137300 0.44059900 0.43597400 0.41875500
0.43529400 0.44465900 0.43997900 0.42268300
0.43921600 0.44872500 0.44396400 0.42657700
0.44313700 0.45280400 0.44796000 0.43047400
0.44705900 0.45688700 0.45195700 0.43438300
0.45098000 0.46094500 0.45594000 0.43829200
0.45490200 0.46498600 0.45989400 0.44217400
0.45882400 0.46901900 0.46383900 0.44603900
0.46274500 0.47303800 0.46777000 0.44989400
0.46666700 0.47705000 0.47168800 0.45373600
0.47058800 0.48105100 0.47559500 0.45756900
0.47451000 0.48504200 0.47948900 0.46139200
0.47843100 0.48902600 0.48337200 0.46520400
0.48235300 0.49300300 0.48724500 0.46900700
0.48627500 0.49697200 0.49110600 0.47280100
0.49019600 0.50094800 0.49495800 0.47658500
0.49411800 0.50495000 0.49882300 0.48037600
0.49803900 0.50895000 0.50270000 0.48419300
0.50196100 0.51294300 0.50657400 0.48801000
0.50588200 0.51693100 0.51044300 0.49182300
0.50980400 0.52091200 0.51430700 0.49563400
0.51372500 0.52488500 0.51816600 0.49944100
0.51764700 0.52884900 0.52201800 0.50324400
0.52156900 0.53280600 0.52586500 0.50704200
0.52549000 0.53675500 0.52970400 0.51083700
0.52941200 0.54070100 0.53354100 0.51462900
0.53333300 0.54462800 0.53737500 0.51842000
0.53725500 0.54855100 0.54119300 0.52219700
0.54117600 0.55248800 0.54500700 0.52597000
0.54509800 0.55643500 0.54883700 0.52976300
0.54902000 0.56038500 0.55267800 0.53356900
0.55294100 0.56432600 0.55651900 0.53737600
0.55686300 0.56824300 0.56035300 0.54117700
0.56078400 0.57213700 0.56417300 0.54496000
0.56470600 0.57604600 0.56797000 0.54872100
0.56862700 0.57997900 0.57177900 0.55250200
0.57254900 0.58392700 0.57561300 0.55630900
0.57647100 0.58787000 0.57945800 0.56012500
0.58039200 0.59179900 0.58330500 0.56393500
0.58431400 0.59572500 0.58714900 0.56773800
0.58823500 0.59964900 0.59099100 0.57154000
0.59215700 0.60358400 0.59483500 0.57534300
0.59607800 0.60753200 0.59868800 0.57916000
0.60000000 0.61148800 0.60254800 0.58298400
0.60392200 0.61544200 0.60641300 0.58681400
0.60784300 0.61939700 0.61028100 0.59064200
0.61176500 0.62336300 0.61415700 0.59448500
0.61568600 0.62733700 0.61805700 0.59835100
0.61960800 0.63130900 0.62198000 0.60223100
0.62352900 0.63527900 0.62590500 0.60610100
0.62745100 0.63924400 0.62982000 0.60996300
0.63137300 0.64318000 0.63372700 0.61380500
0.63529400 0.64707700 0.63760900 0.61761600
0.63921600 0.65092300 0.64146600 0.62139600
0.64313700 0.65470200 0.64529100 0.62512900
0.64705900 0.65841500 0.64907100 0.62879900
0.65098000 0.66206000 0.65279200 0.63239400
0.65490200 0.66564000 0.65644600 0.63591400
0.65882400 0.66920200 0.66003500 0.63936800
0.66274500 0.67281700 0.66358400 0.64284500
0.66666700 0.67648800 0.66717900 0.64638700
0.67058800 0.68021800 0.67083600 0.64999800
0.67451000 0.68400300 0.67455500 0.65367500
0.67843100 0.68784000 0.67833200 0.65740300
0.68235300 0.69171100 0.68215100 0.66116800
0.68627500 0.69560800 0.68599900 0.66495600
0.69019600 0.69951600 0.68987000 0.66876100
0.69411800 0.70342600 0.69375700 0.67258500
0.69803900 0.70731800 0.69766200 0.67640800
0.70196100 0.71120300 0.70156500 0.68022500
0.70588200 0.71508600 0.70546300 0.68403900
0.70980400 0.71896600 0.70935400 0.68784700
0.71372500 0.72283000 0.71323700 0.69163800
0.71764700 0.72666800 0.71710400 0.69541000
0.72156900 0.73048500 0.72095400 0.69916000
0.72549000 0.73430000 0.72479000 0.70291600
0.72941200 0.73810500 0.72863600 0.70667100
0.73333300 0.74190900 0.73248500 0.71042500
0.73725500 0.74571500 0.73633800 0.71418300
0.74117600 0.74952400 0.74019500 0.71794800
0.74509800 0.75334300 0.74405900 0.72172300
0.74902000 0.75716000 0.74793400 0.72550000
0.75294100 0.76097400 0.75181100 0.72927500
0.75686300 0.76478900 0.75568900 0.73305000
0.76078400 0.76860000 0.75956700 0.73681900
0.76470600 0.77240400 0.76344100 0.74058400
0.76862700 0.77621300 0.76731600 0.74436000
0.77254900 0.78002500 0.77120500 0.74813900
0.77647100 0.78382700 0.77509800 0.75190300
0.78039200 0.78761300 0.77898000 0.75565500
0.78431400 0.79137400 0.78285300 0.75938800
0.78823500 0.79509900 0.78671100 0.76308600
0.79215700 0.79878400 0.79053900 0.76674500
0.79607800 0.80245700 0.79433100 0.77041400
0.80000000 0.80616800 0.79813600 0.77413000
0.80392200 0.80992000 0.80198800 0.77788900
0.80784300 0.81370900 0.80588200 0.78167400
0.81176500 0.81752200 0.80980500 0.78547800
0.81568600 0.82134800 0.81375000 0.78928400
0.81960800 0.82516700 0.81770300 0.79308700
0.82352900 0.82899000 0.82165700 0.79689000
0.82745100 0.83282300 0.82561400 0.80069500
0.83137300 0.83666000 0.82957200 0.80449100
0.83529400 0.84048800 0.83352700 0.80827500
0.83921600 0.84431100 0.83747400 0.81205100
0.84313700 0.84813500 0.84141500 0.81581100
0.84705900 0.85194500 0.84534200 0.81954300
0.85098000 0.85573200 0.84924300 0.82324500
0.85490200 0.85950600 0.85312000 0.82696000
0.85882400 0.86330200 0.85701300 0.83069000
0.86274500 0.86712000 0.86092200 0.83442400
0.86666700 0.87095000 0.86483600 0.83816000
0.87058800 0.87478900 0.86875700 0.84189400
0.87451000 0.87863000 0.87267600 0.84560600
0.87843100 0.88246400 0.87657600 0.84929300
0.88235300 0.88628000 0.88045500 0.85294300
0.88627500 0.89007600 0.88430600 0.85658900
0.89019600 0.89388500 0.88816000 0.86023800
0.89411800 0.89771300 0.89201600 0.86388000
0.89803900 0.90154900 0.89586700 0.86750000
0.90196100 0.90537300 0.89969400 0.87108600
0.90588200 0.90917600 0.90348900 0.87464900
0.90980400 0.91297500 0.90727400 0.87821100
0.91372500 0.91678400 0.91105700 0.88176300
0.91764700 0.92059000 0.91482900 0.88529100
0.92156900 0.92438200 0.91858100 0.88880800
0.92549000 0.92817600 0.92233300 0.89232200
0.92941200 0.93196800 0.92608000 0.89582400
0.93333300 0.93575300 0.92981900 0.89932600
0.93725500 0.93954000 0.93356000 0.90282400
0.94117600 0.94332300 0.93729700 0.90632300
0.94509800 0.94710800 0.94103500 0.90982100
0.94902000 0.95089000 0.94477200 0.91331900
0.95294100 0.95466900 0.94850800 0.91681700
0.95686300 0.95844800 0.95224400 0.92031400
0.96078400 0.96222500 0.95597900 0.92381200
0.96470600 0.96600200 0.95971200 0.92730700
0.96862700 0.96977700 0.96344100 0.93079800
0.97254900 0.97354900 0.96716400 0.93428300
0.97647100 0.97731800 0.97088200 0.93776100
0.98039200 0.98108300 0.97459300 0.94123400
0.98431400 0.98484600 0.97829800 0.94470100
0.98823500 0.98860500 0.98199700 0.94816200
0.99215700 0.99236100 0.98569100 0.95161700
0.99607800 0.99611400 0.98937800 0.95506700
1.00000000 0.99986400 0.99305900 0.95851000
END_DATA
CAL    

DESCRIPTOR "Argyll Calibration options and model"
ORIGINATOR "Argyll dispcal"
CREATED "Wed May 01 13:47:02 201"

NUMBER_OF_FIELDS 3
BEGIN_DATA_FORMAT
R_P G_P B_P
END_DATA_FORMAT

NUMBER_OF_SETS 32
BEGIN_DATA
0.000327375 0.000871778 0.001533510
0.999673000 0.999128000 0.998466000
1.716228000 1.547308000 1.562632000
0.544615000 0.535125000 0.495685000
0.048507300 0.110205000 0.125905000
0.101880000 0.136246000 0.084877500
0.102373000 0.108148000 0.117584000
0.138574000 0.074252100 0.070827700
0.068082500 0.055113400 0.065509600
0.043076000 0.058672100 0.047670400
0.038761900 0.050564200 0.071093500
0.033218800 0.045559300 0.038562100
0.038001900 0.042358200 0.049260900
0.040014100 0.036393400 0.041572600
0.021515800 0.041498100 0.037909300
0.031446000 0.040766500 0.049607100
0.028706000 0.028535000 0.035991600
0.031984500 0.027966600 0.034809400
0.024019600 0.024526700 0.032094000
0.023721700 0.027827500 0.028895500
0.017806000 0.027753000 0.025836600
0.019684800 0.027015000 0.023263400
0.017177300 0.023684900 0.022745800
0.017613000 0.019228800 0.022883600
0.018408100 0.019918000 0.020522900
0.016428400 0.020921400 0.019668500
0.014507200 0.019221200 0.018553200
0.013915500 0.018641000 0.017072200
0.013872900 0.019034500 0.018143100
0.013306400 0.019767900 0.016993100
0.009603190 0.019864400 0.015266800
0.011722400 0.018911000 0.015125000
END_DATA
