storage/U2719D #1 2019-05-01 13-38 D6500 2.2 F-S XYZLUT+MTX/U2719D #1 2019-05-01 13-38 D6500 2.2 F-S XYZLUT+MTX.ti3
CTI3   

DESCRIPTOR "Argyll Calibration Target chart information 3"
ORIGINATOR "Argyll dispread"
CREATED "Wed May 01 13:47:02 2019"
DEVICE_CLASS "DISPLAY"
SINGLE_DIM_STEPS "5"
COMP_GREY_STEPS "52"
MULTI_DIM_STEPS "5"
COLOR_REP "RGB_XYZ"
TARGET_INSTRUMENT "X-Rite i1 DisplayPro, ColorMunki Display"
DISPLAY_TYPE_REFRESH "NO"
DISPLAY_TYPE_BASE_ID "1"
INSTRUMENT_TYPE_SPECTRAL "NO"
LUMINANCE_XYZ_CDM2 "187.335767 197.887341 212.959936"
NORMALIZED_TO_Y_100 "YES"
VIDEO_LUT_CALIBRATION_POSSIBLE "YES"

BEGIN_ARGYLL_COLPROF_ARGS
-v -qh -aX -bn -C "No copyright. Created with DisplayCAL 3.8.0.0 and ArgyllCMS 2.1.0_mod" -M "DELL U2719D" -A "Dell, Inc."
END_ARGYLL_COLPROF_ARGS

OBSERVER "1931_2"
USE_BLACK_POINT_COMPENSATION "NO"
BLACK_POINT_CORRECTION "0.0"
HIRES_B2A "YES"
HIRES_B2A_SIZE "-1"
SMOOTH_B2A "YES"
PATCH_SEQUENCE "OPTIMIZE_DISPLAY_RESPONSE_DELAY"
3DLUT_HDR_MAXMLL_ALT_CLIP "1"
3DLUT_HDR_SAT "0.5"
3DLUT_HDR_PEAK_LUMINANCE "480.0"
3DLUT_HDR_MAXMLL "10000.0"
3DLUT_GAMUT_MAPPING_MODE "G"
3DLUT_HDR_MINMLL "0.0"
3DLUT_SOURCE_PROFILE "ref/Rec709.icm"
3DLUT_RENDERING_INTENT "aw"
3DLUT_HDR_DISPLAY "0"
3DLUT_FORMAT "cube"
3DLUT_HDR_AMBIENT_LUMINANCE "5.0"
3DLUT_APPLY_CAL "1"
3DLUT_SIZE "65"
3DLUT_GAMMA "-2.4"
3DLUT_INPUT_ENCODING "n"
3DLUT_OUTPUT_ENCODING "n"
3DLUT_INPUT_BITDEPTH "10"
3DLUT_TRC "bt1886"
3DLUT_OUTPUT_BITDEPTH "12"
3DLUT_DEGREE_OF_BLACK_OUTPUT_OFFSET "0.0"
3DLUT_HDR_HUE "0.5"
3DLUT_CONTENT_COLORSPACE_WHITE_X "0.3127"
3DLUT_CONTENT_COLORSPACE_WHITE_Y "0.329"
3DLUT_CONTENT_COLORSPACE_RED_X "0.68"
3DLUT_CONTENT_COLORSPACE_RED_Y "0.32"
3DLUT_CONTENT_COLORSPACE_GREEN_X "0.265"
3DLUT_CONTENT_COLORSPACE_GREEN_Y "0.69"
3DLUT_CONTENT_COLORSPACE_BLUE_X "0.15"
3DLUT_CONTENT_COLORSPACE_BLUE_Y "0.06"

NUMBER_OF_FIELDS 7
BEGIN_DATA_FORMAT
SAMPLE_ID RGB_R RGB_G RGB_B XYZ_X XYZ_Y XYZ_Z
END_DATA_FORMAT

NUMBER_OF_SETS 175
BEGIN_DATA
1 100.0000 100.0000 100.0000 94.66789 100.0000 107.6168
2 100.0000 100.0000 75.00000 86.37707 96.86022 64.14594
3 100.0000 100.0000 100.0000 94.66789 100.0000 107.6168
4 100.0000 100.0000 100.0000 94.66789 100.0000 107.6168
5 0.000000 0.000000 0.000000 0.100375 0.101864 0.180740
6 25.00000 0.000000 0.000000 1.890334 1.050806 0.236920
7 50.00000 0.000000 0.000000 8.771442 4.678638 0.394724
8 75.00000 0.000000 0.000000 21.12781 11.18974 0.699531
9 100.0000 0.000000 0.000000 40.39473 21.35894 1.207903
10 100.0000 0.000000 25.00000 41.38965 21.75602 5.924258
11 100.0000 25.00000 25.00000 42.99130 25.00025 6.418856
12 100.0000 50.00000 25.00000 49.31453 37.30293 8.636339
13 100.0000 75.00000 25.00000 60.49172 59.19217 12.61225
14 0.000000 0.000000 25.00000 0.900206 0.414291 4.433719
15 25.00000 0.000000 25.00000 2.721559 1.367449 4.625884
16 75.00000 0.000000 100.0000 38.61079 17.78416 94.30020
17 100.0000 0.000000 100.0000 57.91816 27.99191 94.91062
18 1.960800 1.960800 1.960800 0.149500 0.156723 0.220276
19 3.921600 3.921600 3.921600 0.230109 0.242760 0.307918
20 5.882400 5.882400 5.882400 0.316137 0.332544 0.415402
21 7.843100 7.843100 7.843100 0.464976 0.488542 0.597313
22 9.803900 9.803900 9.803900 0.631379 0.659144 0.759361
23 11.76500 11.76500 11.76500 0.930536 0.973913 1.109784
24 13.72600 13.72600 13.72600 1.269808 1.330987 1.496596
25 15.68600 15.68600 15.68600 1.625450 1.703158 1.916106
26 17.64700 17.64700 17.64700 2.163203 2.272579 2.514634
27 19.60800 19.60800 19.60800 2.653754 2.792660 3.094568
28 21.56900 21.56900 21.56900 3.329708 3.498305 3.890609
29 23.52900 23.52900 23.52900 3.940744 4.137962 4.610071
30 27.45100 27.45100 27.45100 5.462224 5.752591 6.321868
31 29.41200 29.41200 29.41200 6.481090 6.831068 7.532512
32 31.37300 31.37300 31.37300 7.391464 7.782310 8.591518
33 33.33300 33.33300 33.33300 8.523174 8.991021 9.689361
34 35.29400 35.29400 35.29400 9.656839 10.18533 11.02624
35 37.25500 37.25500 37.25500 10.78718 11.37952 12.34737
36 39.21600 39.21600 39.21600 12.23651 12.92091 14.06522
37 41.17600 41.17600 41.17600 13.52704 14.28871 15.58803
38 43.13700 43.13700 43.13700 14.94422 15.79108 17.23845
39 45.09800 45.09800 45.09800 16.55165 17.38727 19.05155
40 47.05900 47.05900 47.05900 18.18216 19.08154 20.93742
41 49.02000 49.02000 49.02000 19.83098 20.87372 22.87359
42 50.98000 50.98000 50.98000 21.53094 22.70060 24.61674
43 52.94100 52.94100 52.94100 23.43208 24.66457 26.83979
44 54.90200 54.90200 54.90200 25.35126 26.66708 29.06362
45 56.86300 56.86300 56.86300 27.32679 28.74735 31.38466
46 58.82400 58.82400 58.82400 29.54492 31.05844 33.99496
47 60.78400 60.78400 60.78400 31.71505 33.38934 36.51117
48 62.74500 62.74500 62.74500 33.99704 35.75700 39.12142
49 64.70600 64.70600 64.70600 36.27025 38.27607 41.35201
50 66.66700 66.66700 66.66700 38.75698 40.58635 44.53157
51 68.62700 68.62700 68.62700 41.35596 43.30114 47.52907
52 70.58800 70.58800 70.58800 44.07515 46.15026 50.62372
53 72.54900 72.54900 72.54900 46.35752 48.88567 52.95786
54 76.47100 76.47100 76.47100 52.17143 54.97095 59.72657
55 78.43100 78.43100 78.43100 55.40440 58.37998 63.49855
56 80.39200 80.39200 80.39200 58.56078 61.71056 67.07762
57 82.35300 82.35300 82.35300 61.79375 65.11959 70.84960
58 84.31400 84.31400 84.31400 65.13420 68.64109 74.52579
59 86.27500 86.27500 86.27500 68.30413 72.11231 78.39823
60 88.23500 88.23500 88.23500 71.85190 75.90631 82.46254
61 90.19600 90.19600 90.19600 75.53501 79.76587 85.94705
62 92.15700 92.15700 92.15700 79.30733 83.75216 90.29984
63 94.11800 94.11800 94.11800 82.97261 87.37701 95.12495
64 96.07800 96.07800 96.07800 86.83310 91.56743 98.90425
65 98.03900 98.03900 98.03900 90.91511 95.86922 102.7767
66 25.00000 25.00000 0.000000 3.600298 4.322840 0.803454
67 50.00000 25.00000 0.000000 10.53453 7.975483 0.986159
68 75.00000 25.00000 0.000000 23.00040 14.56530 1.314829
69 100.0000 25.00000 0.000000 42.09335 24.65140 1.800615
70 100.0000 50.00000 0.000000 48.32887 36.85876 3.989945
71 50.00000 50.00000 0.000000 16.87708 20.26175 3.189481
72 75.00000 50.00000 0.000000 29.15002 26.72625 3.467773
73 25.00000 50.00000 0.000000 9.910890 16.59666 3.010744
74 25.00000 75.00000 0.000000 21.15208 38.52103 6.854470
75 50.00000 75.00000 0.000000 28.12052 42.18620 7.043871
76 75.00000 75.00000 0.000000 40.49199 48.68701 7.353148
77 100.0000 75.00000 0.000000 59.49958 58.74777 7.935282
78 25.00000 100.0000 0.000000 38.64686 72.94527 12.86414
79 50.00000 100.0000 0.000000 45.75934 76.66477 13.08230
80 75.00000 100.0000 0.000000 58.13873 83.16584 13.42901
81 100.0000 100.0000 0.000000 76.99989 93.13427 14.05563
82 100.0000 100.0000 25.00000 78.01500 93.55794 18.70836
83 50.00000 0.000000 25.00000 9.650962 5.017878 4.870848
84 50.00000 25.00000 50.00000 14.41672 9.518582 21.68658
85 0.000000 25.00000 0.000000 1.767333 3.349160 0.757530
86 0.000000 25.00000 25.00000 2.608065 3.728675 5.085446
87 25.49000 25.49000 25.49000 4.712428 4.965414 5.428065
88 50.00000 25.00000 25.00000 11.43300 8.362599 5.524838
89 75.00000 25.00000 25.00000 23.74155 14.86016 5.849253
90 0.000000 50.00000 0.000000 8.067683 15.65882 2.932325
91 0.000000 50.00000 25.00000 8.882884 16.00481 7.159448
92 25.00000 50.00000 25.00000 10.78483 16.98257 7.430957
93 50.00000 50.00000 25.00000 17.77589 20.74580 7.690973
94 75.00000 50.00000 25.00000 30.15160 27.24675 8.020314
95 0.000000 75.00000 0.000000 19.21006 37.48751 6.695455
96 0.000000 75.00000 25.00000 20.05173 37.87232 10.96315
97 25.00000 75.00000 25.00000 21.88734 38.79343 11.22300
98 50.00000 75.00000 25.00000 28.94381 42.51599 11.52656
99 75.00000 75.00000 25.00000 41.36172 49.15359 11.93451
100 0.000000 100.0000 0.000000 36.68468 71.97042 12.65805
101 0.000000 100.0000 25.00000 37.43094 72.16238 16.89751
102 25.00000 100.0000 25.00000 39.51845 73.33110 17.27325
103 50.00000 100.0000 25.00000 46.62927 77.10991 17.53180
104 75.00000 100.0000 25.00000 59.04012 83.55269 17.97895
105 0.000000 0.000000 50.00000 3.815921 1.517320 20.10679
106 25.00000 0.000000 50.00000 5.700357 2.494770 20.65894
107 50.00000 0.000000 50.00000 12.65250 6.163242 21.04792
108 75.00000 0.000000 50.00000 25.05691 12.70812 21.46059
109 100.0000 0.000000 50.00000 44.33828 22.85735 22.55127
110 100.0000 0.000000 75.00000 49.89442 24.94459 51.62704
111 100.0000 25.00000 75.00000 51.58578 28.30171 52.26814
112 75.00000 0.000000 25.00000 21.97587 11.51638 5.277850
113 75.00000 25.00000 50.00000 26.83214 16.05496 22.09867
114 100.0000 25.00000 50.00000 45.91327 26.09744 22.90305
115 25.00000 25.00000 50.00000 7.489031 5.876065 21.39416
116 25.00000 50.00000 50.00000 13.82316 18.24680 23.55016
117 75.00000 50.00000 50.00000 33.22240 28.45356 24.25386
118 100.0000 50.00000 50.00000 52.32100 38.53483 25.05900
119 100.0000 50.00000 75.00000 57.78814 40.66708 54.33184
120 25.00000 75.00000 50.00000 24.94652 40.07709 27.23194
121 50.00000 75.00000 50.00000 32.07374 43.91639 27.62127
122 75.00000 75.00000 50.00000 44.50552 50.42011 28.22419
123 100.0000 75.00000 50.00000 63.55229 60.46702 29.22235
124 100.0000 75.00000 75.00000 69.13415 62.69070 58.30217
125 25.00000 100.0000 50.00000 42.55533 74.54287 33.36297
126 50.00000 100.0000 50.00000 49.68139 78.26363 33.65190
127 75.00000 100.0000 50.00000 62.06465 84.78747 34.16072
128 100.0000 100.0000 50.00000 81.04902 94.74033 35.25386
129 25.00000 0.000000 75.00000 11.16739 4.574236 49.83389
130 50.00000 0.000000 75.00000 18.10850 8.235259 50.22292
131 75.00000 0.000000 75.00000 30.49389 14.75721 50.73162
132 75.00000 25.00000 75.00000 32.19264 18.09344 51.27545
133 75.00000 50.00000 100.0000 46.89921 33.88779 97.00619
134 25.00000 25.00000 75.00000 12.87278 7.938698 50.28226
135 25.00000 50.00000 100.0000 27.51119 23.62163 96.30022
136 0.000000 25.00000 50.00000 5.576612 4.880806 20.93873
137 0.000000 25.00000 75.00000 10.91667 6.936734 49.63531
138 0.000000 50.00000 75.00000 17.32121 19.35878 51.98341
139 25.00000 50.00000 75.00000 19.27388 20.36003 52.63051
140 50.00000 50.00000 75.00000 26.31827 24.10448 53.01914
141 75.00000 50.00000 75.00000 38.64086 30.58920 53.33591
142 74.51000 74.51000 74.51000 49.22184 51.88187 56.34191
143 0.000000 75.00000 75.00000 28.47877 41.26864 55.66680
144 25.00000 75.00000 75.00000 30.44150 42.21051 56.31150
145 50.00000 75.00000 75.00000 37.60427 46.12683 56.70234
146 0.000000 75.00000 50.00000 23.00961 39.08120 26.68080
147 0.000000 100.0000 50.00000 40.34979 73.29989 32.61904
148 0.000000 100.0000 75.00000 45.91466 75.60326 61.79862
149 25.00000 100.0000 75.00000 47.99992 76.64146 62.63539
150 50.00000 100.0000 75.00000 55.04518 80.35890 62.54155
151 75.00000 100.0000 75.00000 67.47866 86.82454 63.23934
152 75.00000 100.0000 100.0000 75.57095 90.02692 106.5264
153 25.00000 0.000000 100.0000 19.34363 7.627632 93.69098
154 50.00000 0.000000 100.0000 26.27736 11.30369 93.98441
155 0.000000 0.000000 75.00000 9.236906 3.581670 49.18642
156 0.000000 0.000000 100.0000 17.45086 6.635104 93.23478
157 0.000000 25.00000 100.0000 19.20644 10.08757 93.78080
158 25.00000 25.00000 100.0000 21.16963 11.10937 94.62085
159 50.00000 25.00000 100.0000 28.12583 14.75299 94.62355
160 75.00000 25.00000 100.0000 40.35754 21.23814 94.84692
161 100.0000 25.00000 100.0000 59.58070 31.35161 95.45659
162 100.0000 50.00000 100.0000 66.08040 43.98113 97.61631
163 50.00000 25.00000 75.00000 19.83177 11.56946 50.86208
164 50.00000 50.00000 100.0000 34.51231 27.38315 96.59418
165 0.000000 50.00000 50.00000 11.86971 17.24608 22.90311
166 0.000000 50.00000 100.0000 25.62285 22.62011 95.93956
167 0.000000 75.00000 100.0000 36.79160 44.62420 99.62593
168 25.00000 75.00000 100.0000 38.77810 45.62113 100.0792
169 50.00000 75.00000 100.0000 45.75514 49.26511 100.1776
170 75.00000 75.00000 100.0000 58.28580 55.96601 101.1694
171 100.0000 75.00000 100.0000 77.34742 66.00736 101.8781
172 0.000000 100.0000 100.0000 54.04826 78.60686 105.6550
173 25.00000 100.0000 100.0000 56.19341 79.77720 106.3019
174 50.00000 100.0000 100.0000 63.32627 83.51358 106.3985
175 100.0000 100.0000 100.0000 94.66388 100.0029 107.6169
END_DATA
CAL    

DESCRIPTOR "Argyll Device Calibration State"
ORIGINATOR "Argyll dispread"
CREATED "Wed May 01 13:47:02 2019"
DEVICE_CLASS "DISPLAY"
COLOR_REP "RGB"

BEGIN_ARGYLL_DISPCAL_ARGS
-v2 -ql -t6500 -g2.2 -f1.0 -k0 -A4.0 -d1 -c1 -yn -P0.455185358986,0.582591493571,1.0 -Ibw
END_ARGYLL_DISPCAL_ARGS


NUMBER_OF_FIELDS 4
BEGIN_DATA_FORMAT
RGB_I RGB_R RGB_G RGB_B
END_DATA_FORMAT

NUMBER_OF_SETS 256
BEGIN_DATA
0.00000000 0.00000000 0.00000000 0.00000000
0.00392157 0.00176263 0.00174749 0.00157191
0.00784314 0.00358454 0.00355563 0.00320212
0.01176470 0.00546877 0.00542763 0.00489391
0.01568630 0.00741856 0.00736693 0.00665085
0.01960780 0.00943741 0.00937724 0.00847678
0.02352940 0.01152900 0.01146250 0.01037580
0.02745100 0.01369750 0.01362700 0.01235250
0.03137250 0.01594700 0.01587540 0.01441170
0.03529410 0.01828230 0.01821260 0.01655850
0.03921570 0.02070830 0.02064400 0.01879890
0.04313730 0.02323050 0.02317540 0.02113900
0.04705880 0.02585460 0.02581310 0.02358560
0.05098040 0.02858700 0.02856400 0.02614610
0.05490200 0.03143450 0.03143540 0.02882880
0.05882350 0.03440430 0.03443520 0.03164250
0.06274510 0.03750110 0.03756730 0.03459550
0.06666670 0.04072820 0.04082960 0.03768970
0.07058820 0.04409390 0.04421670 0.04092220
0.07450980 0.04760890 0.04772310 0.04428990
0.07843140 0.05128040 0.05134300 0.04778930
0.08235290 0.05510750 0.05506980 0.05141500
0.08627450 0.05908160 0.05889600 0.05515700
0.09019610 0.06318960 0.06281240 0.05900230
0.09411760 0.06741790 0.06680920 0.06293670
0.09803920 0.07175830 0.07088020 0.06694930
0.10196100 0.07620680 0.07502410 0.07103610
0.10588200 0.08075460 0.07924190 0.07519920
0.10980400 0.08538410 0.08353110 0.07943740
0.11372500 0.09007040 0.08789340 0.08375000
0.11764700 0.09479620 0.09232810 0.08812830
0.12156900 0.09953170 0.09682420 0.09256670
0.12549000 0.10427300 0.10138000 0.09705100
0.12941200 0.10899100 0.10598000 0.10157700
0.13333300 0.11368700 0.11060900 0.10612300
0.13725500 0.11835900 0.11526500 0.11069100
0.14117600 0.12300100 0.11991800 0.11525300
0.14509800 0.12762600 0.12456200 0.11980200
0.14902000 0.13224200 0.12919400 0.12434000
0.15294100 0.13683000 0.13378100 0.12883700
0.15686300 0.14140700 0.13832200 0.13328700
0.16078400 0.14598500 0.14282000 0.13769600
0.16470600 0.15056900 0.14728900 0.14207600
0.16862700 0.15513100 0.15171400 0.14641500
0.17254900 0.15968500 0.15609900 0.15071100
0.17647100 0.16422100 0.16046300 0.15498200
0.18039200 0.16874100 0.16480600 0.15922500
0.18431400 0.17324500 0.16914600 0.16345800
0.18823500 0.17770600 0.17347800 0.16767600
0.19215700 0.18209900 0.17778500 0.17185500
0.19607800 0.18644800 0.18206100 0.17598700
0.20000000 0.19075800 0.18633800 0.18010200
0.20392200 0.19501600 0.19060700 0.18419200
0.20784300 0.19922600 0.19486300 0.18825000
0.21176500 0.20341800 0.19910800 0.19228000
0.21568600 0.20759900 0.20336500 0.19630800
0.21960800 0.21175500 0.20762100 0.20032300
0.22352900 0.21589900 0.21186600 0.20431400
0.22745100 0.22002500 0.21610500 0.20829100
0.23137300 0.22415400 0.22032900 0.21224900
0.23529400 0.22831900 0.22456700 0.21621800
0.23921600 0.23252000 0.22883300 0.22022000
0.24313700 0.23674100 0.23311700 0.22424600
0.24705900 0.24098600 0.23740800 0.22828500
0.25098000 0.24525300 0.24171000 0.23234300
0.25490200 0.24954700 0.24602200 0.23641800
0.25882400 0.25389300 0.25036800 0.24053200
0.26274500 0.25825800 0.25474400 0.24469000
0.26666700 0.26263100 0.25912200 0.24886200
0.27058800 0.26700500 0.26350000 0.25303900
0.27451000 0.27138400 0.26787700 0.25721700
0.27843100 0.27577200 0.27226100 0.26140400
0.28235300 0.28013800 0.27663300 0.26559000
0.28627500 0.28446900 0.28097200 0.26974800
0.29019600 0.28879700 0.28528400 0.27386700
0.29411800 0.29314800 0.28961100 0.27798800
0.29803900 0.29752100 0.29395500 0.28212700
0.30196100 0.30190300 0.29830300 0.28626900
0.30588200 0.30627200 0.30264700 0.29040900
0.30980400 0.31062000 0.30696100 0.29452300
0.31372500 0.31496100 0.31126800 0.29861400
0.31764700 0.31928500 0.31556300 0.30269600
0.32156900 0.32359700 0.31984800 0.30676400
0.32549000 0.32789400 0.32412000 0.31082100
0.32941200 0.33217600 0.32837900 0.31486400
0.33333300 0.33647400 0.33263900 0.31889500
0.33725500 0.34077500 0.33691500 0.32294800
0.34117600 0.34505800 0.34118000 0.32700600
0.34509800 0.34932300 0.34542800 0.33105300
0.34902000 0.35356900 0.34965900 0.33508800
0.35294100 0.35780100 0.35387300 0.33910900
0.35686300 0.36201600 0.35807400 0.34312100
0.36078400 0.36622400 0.36225500 0.34712500
0.36470600 0.37044500 0.36644500 0.35112800
0.36862700 0.37466800 0.37064400 0.35515600
0.37254900 0.37889300 0.37485100 0.35919900
0.37647100 0.38310200 0.37904100 0.36325500
0.38039200 0.38729000 0.38320800 0.36729400
0.38431400 0.39143500 0.38734500 0.37131800
0.38823500 0.39552300 0.39143700 0.37531200
0.39215700 0.39955400 0.39546900 0.37925600
0.39607800 0.40358500 0.39946800 0.38314500
0.40000000 0.40765100 0.40349500 0.38703600
0.40392200 0.41175000 0.40755100 0.39096600
0.40784300 0.41587400 0.41162100 0.39492800
0.41176500 0.42000700 0.41569500 0.39890400
0.41568600 0.42413100 0.41976500 0.40288300
0.41960800 0.42825700 0.42383100 0.40685900
0.42352900 0.43238700 0.42789300 0.41083200
0.42745100 0.43650400 0.43194300 0.41480300
0.43137300 0.44059900 0.43597400 0.41875500
0.43529400 0.44465900 0.43997900 0.42268300
0.43921600 0.44872500 0.44396400 0.42657700
0.44313700 0.45280400 0.44796000 0.43047400
0.44705900 0.45688700 0.45195700 0.43438300
0.45098000 0.46094500 0.45594000 0.43829200
0.45490200 0.46498600 0.45989400 0.44217400
0.45882400 0.46901900 0.46383900 0.44603900
0.46274500 0.47303800 0.46777000 0.44989400
0.46666700 0.47705000 0.47168800 0.45373600
0.47058800 0.48105100 0.47559500 0.45756900
0.47451000 0.48504200 0.47948900 0.46139200
0.47843100 0.48902600 0.48337200 0.46520400
0.48235300 0.49300300 0.48724500 0.46900700
0.48627500 0.49697200 0.49110600 0.47280100
0.49019600 0.50094800 0.49495800 0.47658500
0.49411800 0.50495000 0.49882300 0.48037600
0.49803900 0.50895000 0.50270000 0.48419300
0.50196100 0.51294300 0.50657400 0.48801000
0.50588200 0.51693100 0.51044300 0.49182300
0.50980400 0.52091200 0.51430700 0.49563400
0.51372500 0.52488500 0.51816600 0.49944100
0.51764700 0.52884900 0.52201800 0.50324400
0.52156900 0.53280600 0.52586500 0.50704200
0.52549000 0.53675500 0.52970400 0.51083700
0.52941200 0.54070100 0.53354100 0.51462900
0.53333300 0.54462800 0.53737500 0.51842000
0.53725500 0.54855100 0.54119300 0.52219700
0.54117600 0.55248800 0.54500700 0.52597000
0.54509800 0.55643500 0.54883700 0.52976300
0.54902000 0.56038500 0.55267800 0.53356900
0.55294100 0.56432600 0.55651900 0.53737600
0.55686300 0.56824300 0.56035300 0.54117700
0.56078400 0.57213700 0.56417300 0.54496000
0.56470600 0.57604600 0.56797000 0.54872100
0.56862700 0.57997900 0.57177900 0.55250200
0.57254900 0.58392700 0.57561300 0.55630900
0.57647100 0.58787000 0.57945800 0.56012500
0.58039200 0.59179900 0.58330500 0.56393500
0.58431400 0.59572500 0.58714900 0.56773800
0.58823500 0.59964900 0.59099100 0.57154000
0.59215700 0.60358400 0.59483500 0.57534300
0.59607800 0.60753200 0.59868800 0.57916000
0.60000000 0.61148800 0.60254800 0.58298400
0.60392200 0.61544200 0.60641300 0.58681400
0.60784300 0.61939700 0.61028100 0.59064200
0.61176500 0.62336300 0.61415700 0.59448500
0.61568600 0.62733700 0.61805700 0.59835100
0.61960800 0.63130900 0.62198000 0.60223100
0.62352900 0.63527900 0.62590500 0.60610100
0.62745100 0.63924400 0.62982000 0.60996300
0.63137300 0.64318000 0.63372700 0.61380500
0.63529400 0.64707700 0.63760900 0.61761600
0.63921600 0.65092300 0.64146600 0.62139600
0.64313700 0.65470200 0.64529100 0.62512900
0.64705900 0.65841500 0.64907100 0.62879900
0.65098000 0.66206000 0.65279200 0.63239400
0.65490200 0.66564000 0.65644600 0.63591400
0.65882400 0.66920200 0.66003500 0.63936800
0.66274500 0.67281700 0.66358400 0.64284500
0.66666700 0.67648800 0.66717900 0.64638700
0.67058800 0.68021800 0.67083600 0.64999800
0.67451000 0.68400300 0.67455500 0.65367500
0.67843100 0.68784000 0.67833200 0.65740300
0.68235300 0.69171100 0.68215100 0.66116800
0.68627500 0.69560800 0.68599900 0.66495600
0.69019600 0.69951600 0.68987000 0.66876100
0.69411800 0.70342600 0.69375700 0.67258500
0.69803900 0.70731800 0.69766200 0.67640800
0.70196100 0.71120300 0.70156500 0.68022500
0.70588200 0.71508600 0.70546300 0.68403900
0.70980400 0.71896600 0.70935400 0.68784700
0.71372500 0.72283000 0.71323700 0.69163800
0.71764700 0.72666800 0.71710400 0.69541000
0.72156900 0.73048500 0.72095400 0.69916000
0.72549000 0.73430000 0.72479000 0.70291600
0.72941200 0.73810500 0.72863600 0.70667100
0.73333300 0.74190900 0.73248500 0.71042500
0.73725500 0.74571500 0.73633800 0.71418300
0.74117600 0.74952400 0.74019500 0.71794800
0.74509800 0.75334300 0.74405900 0.72172300
0.74902000 0.75716000 0.74793400 0.72550000
0.75294100 0.76097400 0.75181100 0.72927500
0.75686300 0.76478900 0.75568900 0.73305000
0.76078400 0.76860000 0.75956700 0.73681900
0.76470600 0.77240400 0.76344100 0.74058400
0.76862700 0.77621300 0.76731600 0.74436000
0.77254900 0.78002500 0.77120500 0.74813900
0.77647100 0.78382700 0.77509800 0.75190300
0.78039200 0.78761300 0.77898000 0.75565500
0.78431400 0.79137400 0.78285300 0.75938800
0.78823500 0.79509900 0.78671100 0.76308600
0.79215700 0.79878400 0.79053900 0.76674500
0.79607800 0.80245700 0.79433100 0.77041400
0.80000000 0.80616800 0.79813600 0.77413000
0.80392200 0.80992000 0.80198800 0.77788900
0.80784300 0.81370900 0.80588200 0.78167400
0.81176500 0.81752200 0.80980500 0.78547800
0.81568600 0.82134800 0.81375000 0.78928400
0.81960800 0.82516700 0.81770300 0.79308700
0.82352900 0.82899000 0.82165700 0.79689000
0.82745100 0.83282300 0.82561400 0.80069500
0.83137300 0.83666000 0.82957200 0.80449100
0.83529400 0.84048800 0.83352700 0.80827500
0.83921600 0.84431100 0.83747400 0.81205100
0.84313700 0.84813500 0.84141500 0.81581100
0.84705900 0.85194500 0.84534200 0.81954300
0.85098000 0.85573200 0.84924300 0.82324500
0.85490200 0.85950600 0.85312000 0.82696000
0.85882400 0.86330200 0.85701300 0.83069000
0.86274500 0.86712000 0.86092200 0.83442400
0.86666700 0.87095000 0.86483600 0.83816000
0.87058800 0.87478900 0.86875700 0.84189400
0.87451000 0.87863000 0.87267600 0.84560600
0.87843100 0.88246400 0.87657600 0.84929300
0.88235300 0.88628000 0.88045500 0.85294300
0.88627500 0.89007600 0.88430600 0.85658900
0.89019600 0.89388500 0.88816000 0.86023800
0.89411800 0.89771300 0.89201600 0.86388000
0.89803900 0.90154900 0.89586700 0.86750000
0.90196100 0.90537300 0.89969400 0.87108600
0.90588200 0.90917600 0.90348900 0.87464900
0.90980400 0.91297500 0.90727400 0.87821100
0.91372500 0.91678400 0.91105700 0.88176300
0.91764700 0.92059000 0.91482900 0.88529100
0.92156900 0.92438200 0.91858100 0.88880800
0.92549000 0.92817600 0.92233300 0.89232200
0.92941200 0.93196800 0.92608000 0.89582400
0.93333300 0.93575300 0.92981900 0.89932600
0.93725500 0.93954000 0.93356000 0.90282400
0.94117600 0.94332300 0.93729700 0.90632300
0.94509800 0.94710800 0.94103500 0.90982100
0.94902000 0.95089000 0.94477200 0.91331900
0.95294100 0.95466900 0.94850800 0.91681700
0.95686300 0.95844800 0.95224400 0.92031400
0.96078400 0.96222500 0.95597900 0.92381200
0.96470600 0.96600200 0.95971200 0.92730700
0.96862700 0.96977700 0.96344100 0.93079800
0.97254900 0.97354900 0.96716400 0.93428300
0.97647100 0.97731800 0.97088200 0.93776100
0.98039200 0.98108300 0.97459300 0.94123400
0.98431400 0.98484600 0.97829800 0.94470100
0.98823500 0.98860500 0.98199700 0.94816200
0.99215700 0.99236100 0.98569100 0.95161700
0.99607800 0.99611400 0.98937800 0.95506700
1.00000000 0.99986400 0.99305900 0.95851000
END_DATA
