storage/LTN133HL05902 #1 2019-04-27 22-56 D6500 2.2 F-S XYZLUT+MTX/LTN133HL05902 #1 2019-04-27 22-56 D6500 2.2 F-S XYZLUT+MTX.bpc.ti3
CTI3   

DESCRIPTOR "Argyll Calibration Target chart information 3"
ORIGINATOR "Argyll dispread"
CREATED "Sat Apr 27 23:05:51 2019"
DEVICE_CLASS "DISPLAY"
SINGLE_DIM_STEPS "5"
COMP_GREY_STEPS "52"
MULTI_DIM_STEPS "5"
COLOR_REP "RGB_XYZ"
TARGET_INSTRUMENT "X-Rite i1 DisplayPro, ColorMunki Display"
DISPLAY_TYPE_REFRESH "YES"
DISPLAY_TYPE_BASE_ID "2"
INSTRUMENT_TYPE_SPECTRAL "NO"
LUMINANCE_XYZ_CDM2 "205.584270 216.320357 235.558060"
NORMALIZED_TO_Y_100 "YES"
VIDEO_LUT_CALIBRATION_POSSIBLE "YES"

BEGIN_ARGYLL_COLPROF_ARGS
-v -qh -aX -bn -C "No copyright. Created with DisplayCAL 3.8.0.0 and ArgyllCMS 2.1.0" -M "LTN133HL05902" -A "Lenovo Group Limited"
END_ARGYLL_COLPROF_ARGS

OBSERVER "1931_2"
USE_BLACK_POINT_COMPENSATION "NO"
BLACK_POINT_CORRECTION "0.0"
HIRES_B2A "YES"
HIRES_B2A_SIZE "-1"
SMOOTH_B2A "YES"
PATCH_SEQUENCE "OPTIMIZE_DISPLAY_RESPONSE_DELAY"
3DLUT_HDR_MAXMLL_ALT_CLIP "1"
3DLUT_HDR_SAT "0.5"
3DLUT_HDR_PEAK_LUMINANCE "480.0"
3DLUT_HDR_MAXMLL "10000.0"
3DLUT_GAMUT_MAPPING_MODE "G"
3DLUT_HDR_MINMLL "0.0"
3DLUT_SOURCE_PROFILE "ref/Rec709.icm"
3DLUT_RENDERING_INTENT "aw"
3DLUT_HDR_DISPLAY "0"
3DLUT_FORMAT "cube"
3DLUT_HDR_AMBIENT_LUMINANCE "5.0"
3DLUT_APPLY_CAL "1"
3DLUT_SIZE "65"
3DLUT_GAMMA "-2.4"
3DLUT_INPUT_ENCODING "n"
3DLUT_OUTPUT_ENCODING "n"
3DLUT_INPUT_BITDEPTH "10"
3DLUT_TRC "bt1886"
3DLUT_OUTPUT_BITDEPTH "12"
3DLUT_DEGREE_OF_BLACK_OUTPUT_OFFSET "0.0"
3DLUT_HDR_HUE "0.5"
3DLUT_CONTENT_COLORSPACE_WHITE_X "0.3127"
3DLUT_CONTENT_COLORSPACE_WHITE_Y "0.329"
3DLUT_CONTENT_COLORSPACE_RED_X "0.68"
3DLUT_CONTENT_COLORSPACE_RED_Y "0.32"
3DLUT_CONTENT_COLORSPACE_GREEN_X "0.265"
3DLUT_CONTENT_COLORSPACE_GREEN_Y "0.69"
3DLUT_CONTENT_COLORSPACE_BLUE_X "0.15"
3DLUT_CONTENT_COLORSPACE_BLUE_Y "0.06"

NUMBER_OF_FIELDS 7
BEGIN_DATA_FORMAT
SAMPLE_ID RGB_R RGB_G RGB_B XYZ_X XYZ_Y XYZ_Z
END_DATA_FORMAT

NUMBER_OF_SETS 175
BEGIN_DATA
1 100.00000 100.00000 100.00000 95.036950 100.00000 108.89320
2 100.00000 100.00000 75.000000 85.627821 92.552181 66.206011
3 100.00000 100.00000 100.00000 95.026770 99.998880 108.84940
4 100.00000 100.00000 100.00000 95.048460 99.989560 108.89240
5 0.0000000 0.0000000 0.0000000 0.0687296 0.0723188 0.0787502
6 25.000000 0.0000000 0.0000000 1.7221195 1.0646547 0.3694714
7 50.000000 0.0000000 0.0000000 8.1210730 4.9180399 1.2833457
8 75.000000 0.0000000 0.0000000 19.757824 11.920698 2.9253264
9 100.00000 0.0000000 0.0000000 37.672381 22.704105 5.3212265
10 100.00000 0.0000000 25.000000 38.648711 23.469185 9.7899070
11 100.00000 25.000000 25.000000 40.510319 26.514155 10.453587
12 100.00000 50.000000 25.000000 47.041114 37.295962 12.736266
13 100.00000 75.000000 25.000000 58.490119 56.200219 16.643474
14 0.0000000 0.0000000 25.000000 1.0057345 0.7965557 4.3795019
15 25.000000 0.0000000 25.000000 2.6864556 1.8099625 4.6806865
16 75.000000 0.0000000 100.00000 39.802308 27.560874 93.365430
17 100.00000 0.0000000 100.00000 57.608726 38.287452 95.949851
18 1.9608000 1.9608000 1.9608000 0.0875249 0.0925508 0.0990895
19 3.9216000 3.9216000 3.9216000 0.1289338 0.1370019 0.1557063
20 5.8824000 5.8824000 5.8824000 0.2351079 0.2514568 0.2920552
21 7.8431000 7.8431000 7.8431000 0.3688492 0.3876448 0.4739313
22 9.8039000 9.8039000 9.8039000 0.5690154 0.6048688 0.6920003
23 11.765000 11.765000 11.765000 0.9454616 0.9989387 1.1224255
24 13.726000 13.726000 13.726000 1.2723745 1.3598656 1.5384399
25 15.686000 15.686000 15.686000 1.6441197 1.7391586 1.9473109
26 17.647000 17.647000 17.647000 2.1741992 2.2899404 2.6396202
27 19.608000 19.608000 19.608000 2.7073120 2.8624783 3.1972940
28 21.569000 21.569000 21.569000 3.2549975 3.3820012 3.7107436
29 23.529000 23.529000 23.529000 3.9598789 4.1851891 4.5610029
30 27.451000 27.451000 27.451000 5.3384989 5.6223028 6.2416894
31 29.412000 29.412000 29.412000 6.3087938 6.5891276 7.2581324
32 31.373000 31.373000 31.373000 7.4426684 7.8685563 8.6110322
33 33.333000 33.333000 33.333000 8.3858513 8.8118381 9.7976193
34 35.294000 35.294000 35.294000 9.6169572 10.058318 10.947248
35 37.255000 37.255000 37.255000 10.894447 11.498778 12.630718
36 39.216000 39.216000 39.216000 12.178037 12.865277 14.179277
37 41.176000 41.176000 41.176000 13.572276 14.216887 15.547627
38 43.137000 43.137000 43.137000 15.012686 15.876387 17.277617
39 45.098000 45.098000 45.098000 16.522426 17.499016 19.092216
40 47.059000 47.059000 47.059000 18.047735 18.879976 20.941956
41 49.020000 49.020000 49.020000 19.704605 20.602626 22.579186
42 50.980000 50.980000 50.980000 21.401065 22.514495 24.397945
43 52.941000 52.941000 52.941000 23.327294 24.625035 26.877045
44 54.902000 54.902000 54.902000 25.335034 26.454655 29.299735
45 56.863000 56.863000 56.863000 27.243614 28.637014 31.121184
46 58.824000 58.824000 58.824000 29.737443 31.278304 34.481734
47 60.784000 60.784000 60.784000 32.035433 33.581743 36.911723
48 62.745000 62.745000 62.745000 34.045442 35.725333 39.389323
49 64.706000 64.706000 64.706000 35.974152 37.819382 41.339202
50 66.667000 66.667000 66.667000 38.674521 40.865262 44.046582
51 68.627000 68.627000 68.627000 41.328371 43.471251 47.180591
52 70.588000 70.588000 70.588000 43.443230 45.566391 50.269841
53 72.549000 72.549000 72.549000 45.881340 48.283530 52.533610
54 76.471000 76.471000 76.471000 52.122469 54.809649 59.610659
55 78.431000 78.431000 78.431000 54.825988 57.689728 62.620498
56 80.392000 80.392000 80.392000 58.278487 61.409968 66.032278
57 82.353000 82.353000 82.353000 62.234757 65.575847 71.117417
58 84.314000 84.314000 84.314000 65.415916 68.583026 74.733216
59 86.275000 86.275000 86.275000 68.148125 71.728946 77.619246
60 88.235000 88.235000 88.235000 72.133935 76.040675 81.695435
61 90.196000 90.196000 90.196000 76.054704 80.116384 86.646414
62 92.157000 92.157000 92.157000 79.547813 83.918853 90.896673
63 94.118000 94.118000 94.118000 82.678742 87.096443 95.048563
64 96.078000 96.078000 96.078000 86.386222 91.008782 99.339902
65 98.039000 98.039000 98.039000 92.263081 96.692031 104.81340
66 25.000000 25.000000 0.0000000 3.4905550 3.9707321 0.9709879
67 50.000000 25.000000 0.0000000 9.9441462 7.8608123 1.8918916
68 75.000000 25.000000 0.0000000 21.602301 14.891817 3.5367821
69 100.00000 25.000000 0.0000000 39.495009 25.710475 5.9406392
70 100.00000 50.000000 0.0000000 45.977415 36.420283 8.1596944
71 50.000000 50.000000 0.0000000 16.346115 18.411836 4.0795596
72 75.000000 50.000000 0.0000000 28.010096 25.487505 5.7352681
73 25.000000 50.000000 0.0000000 9.8447310 14.460297 3.1468228
74 25.000000 75.000000 0.0000000 21.245840 33.274143 7.0368484
75 50.000000 75.000000 0.0000000 27.778620 37.251192 7.9773392
76 75.000000 75.000000 0.0000000 39.455480 44.344481 9.6536498
77 100.00000 75.000000 0.0000000 57.415949 55.303869 12.065013
78 25.000000 100.00000 0.0000000 38.887025 62.327487 12.940412
79 50.000000 100.00000 0.0000000 45.420805 66.304487 13.884982
80 75.000000 100.00000 0.0000000 57.086294 73.352685 15.522712
81 100.00000 100.00000 0.0000000 74.947453 84.171913 17.932361
82 100.00000 100.00000 25.000000 75.984473 85.035333 22.554561
83 50.000000 0.0000000 25.000000 9.1433594 5.6973118 5.6266240
84 50.000000 25.000000 50.000000 14.294850 11.257818 21.235915
85 0.0000000 25.000000 0.0000000 1.7993032 2.9271203 0.7259852
86 0.0000000 25.000000 25.000000 2.7630331 3.6941772 5.0320800
87 25.490000 25.490000 25.490000 4.6284759 4.9099499 5.4954817
88 50.000000 25.000000 25.000000 10.962131 8.6764332 6.2772467
89 75.000000 25.000000 25.000000 22.629631 15.707127 7.9598920
90 0.0000000 50.000000 0.0000000 8.1064402 13.349447 2.8865618
91 0.0000000 50.000000 25.000000 9.1107866 14.192267 7.2336242
92 25.000000 50.000000 25.000000 10.881913 15.310457 7.5436309
93 50.000000 50.000000 25.000000 17.420385 19.287406 8.5074507
94 75.000000 50.000000 25.000000 29.113405 26.370815 10.192697
95 0.0000000 75.000000 0.0000000 19.479710 32.135224 6.7742685
96 0.0000000 75.000000 25.000000 20.516510 33.003983 11.136326
97 25.000000 75.000000 25.000000 22.309520 34.157573 11.472076
98 50.000000 75.000000 25.000000 28.873320 38.160162 12.416615
99 75.000000 75.000000 25.000000 40.583570 45.261311 14.142925
100 0.0000000 100.00000 0.0000000 37.138635 61.247948 12.694223
101 0.0000000 100.00000 25.000000 38.146475 62.073388 17.095753
102 25.000000 100.00000 25.000000 39.914815 63.173997 17.430453
103 50.000000 100.00000 25.000000 46.512505 67.175317 18.373883
104 75.000000 100.00000 25.000000 58.210004 74.231315 20.054992
105 0.0000000 0.0000000 50.000000 4.2243010 3.3028492 19.075498
106 25.000000 0.0000000 50.000000 5.9352779 4.3310900 19.497590
107 50.000000 0.0000000 50.000000 12.412684 8.2385913 20.485601
108 75.000000 0.0000000 50.000000 24.069363 15.260677 22.210870
109 100.00000 0.0000000 50.000000 41.993320 26.053385 24.882003
110 100.00000 0.0000000 75.000000 48.158128 30.866004 53.000359
111 100.00000 25.000000 75.000000 50.081277 33.964253 53.840157
112 75.000000 0.0000000 25.000000 20.774054 12.705957 7.2978443
113 75.000000 25.000000 50.000000 25.970670 18.296216 23.005108
114 100.00000 25.000000 50.000000 43.876988 29.125204 25.678052
115 25.000000 25.000000 50.000000 7.7692310 7.3146254 20.248114
116 25.000000 50.000000 50.000000 14.207304 17.916616 22.483478
117 75.000000 50.000000 50.000000 32.487965 29.012404 25.285992
118 100.00000 50.000000 50.000000 50.452684 39.947372 28.004819
119 100.00000 50.000000 75.000000 56.638483 44.822461 56.168752
120 25.000000 75.000000 50.000000 25.656270 36.780403 26.477499
121 50.000000 75.000000 50.000000 32.246560 40.800962 27.509918
122 75.000000 75.000000 50.000000 43.943570 47.910940 29.236957
123 100.00000 75.000000 50.000000 61.924308 58.881038 31.956485
124 100.00000 75.000000 75.000000 68.148387 63.782247 60.164167
125 25.000000 100.00000 50.000000 43.248735 65.769527 32.523444
126 50.000000 100.00000 50.000000 49.872445 69.788866 33.554753
127 75.000000 100.00000 50.000000 61.565284 76.854105 35.280363
128 100.00000 100.00000 50.000000 79.402842 87.684962 37.955531
129 25.000000 0.0000000 75.000000 12.083812 9.1330521 47.484001
130 50.000000 0.0000000 75.000000 18.590632 13.048937 48.515399
131 75.000000 0.0000000 75.000000 30.276101 20.079256 50.284058
132 75.000000 25.000000 75.000000 32.173319 23.141825 51.079384
133 75.000000 50.000000 100.00000 48.281643 41.452472 96.354919
134 25.000000 25.000000 75.000000 13.935099 12.134417 48.278641
135 25.000000 50.000000 100.00000 29.944944 30.342104 93.641808
136 0.0000000 25.000000 50.000000 6.0237780 6.2295537 19.825157
137 0.0000000 25.000000 75.000000 12.172749 11.031608 47.811564
138 0.0000000 50.000000 75.000000 18.577414 21.616966 50.091446
139 25.000000 50.000000 75.000000 20.406134 22.789045 50.558855
140 50.000000 50.000000 75.000000 26.987544 26.791845 51.590921
141 75.000000 50.000000 75.000000 38.682904 33.883773 53.361397
142 74.510000 74.510000 74.510000 49.554989 52.138760 56.691779
143 0.0000000 75.000000 75.000000 29.994420 40.453362 54.085543
144 25.000000 75.000000 75.000000 31.831230 41.643012 54.553293
145 50.000000 75.000000 75.000000 38.462320 45.679811 55.584972
146 0.0000000 75.000000 50.000000 23.811430 35.598003 26.054290
147 0.0000000 100.00000 50.000000 41.439185 64.629237 32.100574
148 0.0000000 100.00000 75.000000 47.630715 69.484546 60.175605
149 25.000000 100.00000 75.000000 49.442635 70.621256 60.642305
150 50.000000 100.00000 75.000000 56.086184 74.648595 61.673244
151 75.000000 100.00000 75.000000 67.794613 81.731334 63.442973
152 75.000000 100.00000 100.00000 77.297542 89.218462 106.26060
153 25.000000 0.0000000 100.00000 21.617140 16.605757 90.652558
154 50.000000 0.0000000 100.00000 28.134559 20.529326 91.639830
155 0.0000000 0.0000000 75.000000 10.357251 8.0732893 47.017355
156 0.0000000 0.0000000 100.00000 19.873780 15.557937 90.318941
157 0.0000000 25.000000 100.00000 21.677258 18.532666 91.026084
158 25.000000 25.000000 100.00000 23.457588 19.623856 91.360052
159 50.000000 25.000000 100.00000 30.033258 23.599135 92.347285
160 75.000000 25.000000 100.00000 41.694497 30.638004 94.072917
161 100.00000 25.000000 100.00000 59.518745 41.413442 96.658389
162 100.00000 50.000000 100.00000 66.134691 52.322839 98.986924
163 50.000000 25.000000 75.000000 20.488099 16.083267 49.309783
164 50.000000 50.000000 100.00000 36.573273 34.366983 94.629254
165 0.0000000 50.000000 50.000000 12.392133 16.760567 22.060279
166 0.0000000 50.000000 100.00000 28.116224 29.177794 93.262959
167 0.0000000 75.000000 100.00000 39.552879 48.039360 97.213226
168 25.000000 75.000000 100.00000 41.391849 49.236560 97.593075
169 50.000000 75.000000 100.00000 48.063999 53.289669 98.624003
170 75.000000 75.000000 100.00000 59.770298 60.389488 100.35031
171 100.00000 75.000000 100.00000 77.625966 71.306816 102.93971
172 0.0000000 100.00000 100.00000 57.126924 76.980355 103.21401
173 25.000000 100.00000 100.00000 58.953714 78.115244 103.59210
174 50.000000 100.00000 100.00000 65.616353 82.167944 104.57920
175 100.00000 100.00000 100.00000 95.069860 100.02750 108.89290
END_DATA
CAL    

DESCRIPTOR "Argyll Device Calibration State"
ORIGINATOR "Argyll dispread"
CREATED "Sat Apr 27 23:05:51 2019"
DEVICE_CLASS "DISPLAY"
COLOR_REP "RGB"

BEGIN_ARGYLL_DISPCAL_ARGS
-v2 -ql -t6500 -g2.2 -f1.0 -k0 -A4.0 -d1 -c1 -yr -P0.500395256917,0.501176470588,1.0 -Ibw
END_ARGYLL_DISPCAL_ARGS


NUMBER_OF_FIELDS 4
BEGIN_DATA_FORMAT
RGB_I RGB_R RGB_G RGB_B
END_DATA_FORMAT

NUMBER_OF_SETS 256
BEGIN_DATA
0.00000000 0.00000000 0.00000000 0.00000000
0.00392157 0.00300728 0.00286054 0.00254490
0.00784314 0.00607068 0.00577825 0.00515660
0.01176470 0.00919181 0.00875486 0.00783777
0.01568630 0.01237230 0.01179220 0.01059120
0.01960780 0.01561390 0.01489210 0.01341990
0.02352940 0.01891830 0.01805650 0.01632690
0.02745100 0.02228740 0.02128750 0.01931560
0.03137250 0.02572320 0.02458710 0.02238950
0.03529410 0.02922750 0.02795770 0.02555220
0.03921570 0.03280260 0.03140150 0.02880770
0.04313730 0.03645620 0.03492330 0.03216030
0.04705880 0.04019820 0.03853530 0.03561860
0.05098040 0.04404180 0.04223800 0.03919020
0.05490200 0.04799410 0.04602720 0.04286730
0.05882350 0.05205820 0.04989530 0.04664040
0.06274510 0.05625350 0.05383370 0.05049830
0.06666670 0.06057060 0.05783380 0.05443160
0.07058820 0.06497690 0.06188190 0.05842740
0.07450980 0.06942390 0.06595520 0.06245860
0.07843140 0.07386540 0.07003150 0.06650310
0.08235290 0.07828240 0.07408230 0.07053200
0.08627450 0.08266460 0.07810460 0.07452540
0.09019610 0.08699680 0.08209810 0.07849340
0.09411760 0.09128550 0.08605610 0.08243370
0.09803920 0.09554540 0.08998010 0.08634640
0.10196100 0.09977230 0.09386880 0.09024140
0.10588200 0.10396100 0.09773400 0.09412800
0.10980400 0.10811900 0.10158500 0.09800870
0.11372500 0.11224700 0.10543300 0.10189500
0.11764700 0.11634900 0.10928700 0.10579900
0.12156900 0.12043800 0.11314900 0.10971200
0.12549000 0.12454600 0.11701700 0.11363700
0.12941200 0.12870200 0.12090600 0.11757900
0.13333300 0.13292700 0.12482100 0.12154800
0.13725500 0.13722300 0.12877200 0.12555100
0.14117600 0.14158000 0.13275400 0.12958900
0.14509800 0.14600500 0.13677000 0.13366000
0.14902000 0.15052300 0.14081200 0.13775000
0.15294100 0.15515500 0.14486800 0.14184300
0.15686300 0.15990400 0.14893800 0.14595500
0.16078400 0.16475300 0.15302600 0.15008600
0.16470600 0.16968300 0.15714000 0.15424400
0.16862700 0.17467600 0.16127700 0.15843100
0.17254900 0.17974200 0.16543500 0.16264300
0.17647100 0.18485100 0.16961600 0.16686300
0.18039200 0.19000200 0.17384100 0.17110400
0.18431400 0.19513900 0.17811500 0.17538000
0.18823500 0.20024900 0.18242600 0.17967700
0.19215700 0.20529900 0.18677400 0.18398700
0.19607800 0.21024100 0.19114100 0.18829300
0.20000000 0.21508100 0.19551500 0.19257600
0.20392200 0.21982200 0.19990100 0.19684000
0.20784300 0.22444000 0.20428000 0.20107900
0.21176500 0.22895600 0.20863400 0.20526900
0.21568600 0.23336800 0.21296900 0.20941200
0.21960800 0.23768800 0.21727800 0.21350200
0.22352900 0.24195600 0.22155700 0.21754400
0.22745100 0.24617600 0.22581200 0.22155600
0.23137300 0.25035000 0.23005300 0.22554100
0.23529400 0.25452200 0.23428200 0.22950000
0.23921600 0.25870400 0.23849500 0.23345100
0.24313700 0.26289100 0.24267900 0.23739500
0.24705900 0.26708800 0.24684100 0.24133400
0.25098000 0.27130400 0.25098600 0.24526900
0.25490200 0.27554500 0.25512400 0.24920200
0.25882400 0.27981400 0.25925300 0.25312500
0.26274500 0.28410400 0.26336100 0.25704400
0.26666700 0.28845100 0.26744400 0.26095400
0.27058800 0.29288100 0.27152400 0.26486700
0.27451000 0.29739300 0.27560800 0.26881400
0.27843100 0.30197200 0.27968400 0.27279100
0.28235300 0.30661600 0.28376100 0.27677100
0.28627500 0.31131300 0.28784500 0.28074900
0.29019600 0.31604600 0.29193900 0.28473000
0.29411800 0.32078100 0.29602500 0.28872900
0.29803900 0.32548800 0.30009800 0.29273200
0.30196100 0.33015200 0.30416900 0.29673700
0.30588200 0.33477400 0.30824200 0.30075600
0.30980400 0.33933100 0.31232200 0.30479100
0.31372500 0.34379600 0.31641000 0.30884800
0.31764700 0.34816600 0.32050000 0.31290900
0.32156900 0.35245500 0.32459200 0.31696700
0.32549000 0.35670200 0.32868300 0.32101800
0.32941200 0.36092400 0.33277200 0.32505200
0.33333300 0.36511800 0.33683800 0.32908300
0.33725500 0.36930600 0.34086600 0.33309000
0.34117600 0.37349700 0.34487200 0.33706000
0.34509800 0.37771300 0.34885000 0.34100500
0.34902000 0.38198100 0.35281200 0.34490800
0.35294100 0.38629600 0.35676800 0.34877800
0.35686300 0.39065100 0.36071900 0.35262200
0.36078400 0.39502600 0.36465700 0.35645000
0.36470600 0.39940400 0.36857700 0.36026800
0.36862700 0.40378400 0.37248300 0.36407700
0.37254900 0.40814600 0.37640100 0.36788600
0.37647100 0.41248600 0.38034000 0.37171900
0.38039200 0.41677500 0.38430200 0.37558500
0.38431400 0.42099400 0.38827700 0.37948700
0.38823500 0.42514600 0.39225400 0.38340400
0.39215700 0.42924600 0.39623200 0.38732600
0.39607800 0.43331700 0.40021200 0.39125600
0.40000000 0.43737900 0.40419400 0.39518600
0.40392200 0.44143400 0.40817900 0.39910800
0.40784300 0.44546800 0.41214700 0.40301600
0.41176500 0.44949900 0.41608700 0.40689300
0.41568600 0.45354500 0.42000400 0.41072400
0.41960800 0.45762000 0.42389100 0.41451400
0.42352900 0.46173300 0.42774300 0.41825800
0.42745100 0.46588200 0.43156200 0.42196400
0.43137300 0.47004000 0.43535600 0.42563500
0.43529400 0.47419200 0.43911700 0.42929000
0.43921600 0.47834500 0.44284400 0.43292700
0.44313700 0.48247800 0.44653700 0.43655300
0.44705900 0.48656800 0.45020400 0.44016800
0.45098000 0.49061000 0.45385400 0.44378200
0.45490200 0.49460400 0.45748700 0.44740900
0.45882400 0.49855100 0.46110400 0.45105400
0.46274500 0.50245900 0.46470400 0.45471600
0.46666700 0.50634000 0.46829400 0.45839500
0.47058800 0.51018700 0.47188100 0.46209000
0.47451000 0.51399900 0.47546100 0.46578300
0.47843100 0.51777600 0.47903300 0.46947100
0.48235300 0.52152500 0.48259800 0.47315300
0.48627500 0.52526500 0.48614900 0.47682800
0.49019600 0.52901300 0.48967700 0.48048500
0.49411800 0.53276500 0.49318500 0.48411000
0.49803900 0.53651300 0.49666900 0.48770300
0.50196100 0.54025000 0.50013700 0.49125600
0.50588200 0.54397400 0.50359600 0.49477500
0.50980400 0.54769000 0.50704200 0.49827200
0.51372500 0.55140800 0.51048500 0.50174900
0.51764700 0.55514000 0.51393100 0.50521600
0.52156900 0.55888500 0.51737400 0.50867700
0.52549000 0.56264300 0.52082000 0.51213400
0.52941200 0.56638500 0.52427500 0.51558600
0.53333300 0.57009200 0.52772900 0.51903400
0.53725500 0.57378100 0.53117900 0.52246500
0.54117600 0.57747900 0.53464100 0.52588400
0.54509800 0.58118800 0.53812500 0.52931700
0.54902000 0.58490800 0.54163000 0.53276700
0.55294100 0.58863800 0.54514900 0.53622000
0.55686300 0.59239900 0.54867600 0.53966600
0.56078400 0.59619500 0.55221100 0.54310900
0.56470600 0.60002400 0.55574600 0.54655000
0.56862700 0.60386500 0.55927800 0.54997900
0.57254900 0.60768900 0.56279100 0.55339000
0.57647100 0.61149400 0.56628400 0.55676800
0.58039200 0.61527700 0.56976000 0.56011200
0.58431400 0.61903000 0.57321700 0.56342700
0.58823500 0.62275300 0.57665600 0.56671500
0.59215700 0.62644900 0.58007800 0.56999000
0.59607800 0.63014400 0.58348700 0.57324800
0.60000000 0.63384300 0.58689700 0.57649300
0.60392200 0.63755900 0.59031500 0.57973400
0.60784300 0.64130100 0.59374500 0.58298200
0.61176500 0.64505900 0.59718800 0.58624800
0.61568600 0.64881700 0.60064000 0.58953700
0.61960800 0.65255700 0.60408600 0.59284800
0.62352900 0.65628500 0.60751800 0.59616100
0.62745100 0.66000500 0.61093000 0.59946300
0.63137300 0.66371900 0.61432300 0.60274900
0.63529400 0.66743400 0.61769800 0.60600900
0.63921600 0.67116600 0.62106400 0.60924300
0.64313700 0.67491400 0.62444900 0.61245600
0.64705900 0.67867900 0.62785700 0.61567900
0.65098000 0.68245900 0.63129000 0.61893100
0.65490200 0.68625100 0.63474800 0.62221100
0.65882400 0.69004300 0.63822200 0.62552100
0.66274500 0.69380000 0.64170400 0.62885900
0.66666700 0.69751800 0.64518000 0.63220800
0.67058800 0.70120200 0.64864500 0.63555300
0.67451000 0.70485600 0.65210000 0.63889200
0.67843100 0.70848300 0.65555600 0.64222600
0.68235300 0.71210400 0.65902300 0.64555800
0.68627500 0.71572500 0.66250400 0.64888900
0.69019600 0.71936600 0.66600100 0.65223800
0.69411800 0.72302400 0.66951200 0.65560800
0.69803900 0.72668600 0.67304200 0.65899500
0.70196100 0.73035800 0.67658900 0.66239300
0.70588200 0.73404800 0.68016500 0.66580900
0.70980400 0.73773800 0.68377400 0.66924300
0.71372500 0.74141900 0.68740400 0.67270600
0.71764700 0.74508500 0.69105400 0.67618600
0.72156900 0.74873800 0.69471900 0.67967400
0.72549000 0.75239200 0.69839700 0.68317400
0.72941200 0.75607000 0.70207800 0.68667800
0.73333300 0.75977300 0.70576100 0.69018700
0.73725500 0.76350100 0.70944500 0.69371000
0.74117600 0.76724800 0.71312200 0.69725000
0.74509800 0.77100100 0.71679100 0.70080700
0.74902000 0.77475700 0.72045500 0.70437900
0.75294100 0.77850900 0.72410700 0.70796000
0.75686300 0.78225700 0.72775500 0.71156200
0.76078400 0.78600700 0.73140100 0.71518000
0.76470600 0.78975700 0.73502700 0.71881100
0.76862700 0.79349800 0.73862200 0.72245500
0.77254900 0.79723500 0.74218800 0.72609100
0.77647100 0.80097200 0.74573000 0.72969900
0.78039200 0.80470000 0.74926800 0.73327400
0.78431400 0.80841500 0.75280500 0.73682100
0.78823500 0.81212300 0.75634100 0.74036000
0.79215700 0.81582200 0.75985900 0.74389400
0.79607800 0.81949200 0.76335000 0.74740600
0.80000000 0.82313600 0.76681500 0.75087400
0.80392200 0.82675900 0.77026300 0.75428900
0.80784300 0.83036700 0.77369400 0.75766000
0.81176500 0.83395300 0.77710700 0.76100300
0.81568600 0.83750900 0.78050300 0.76432400
0.81960800 0.84102700 0.78387600 0.76762500
0.82352900 0.84451600 0.78722500 0.77090900
0.82745100 0.84798300 0.79054700 0.77416900
0.83137300 0.85142700 0.79383700 0.77740800
0.83529400 0.85485600 0.79709600 0.78063200
0.83921600 0.85827200 0.80033400 0.78384400
0.84313700 0.86170000 0.80356400 0.78704800
0.84705900 0.86514700 0.80678000 0.79026400
0.85098000 0.86860600 0.80997200 0.79350900
0.85490200 0.87205500 0.81313700 0.79677500
0.85882400 0.87549600 0.81628100 0.80004800
0.86274500 0.87894900 0.81941500 0.80332400
0.86666700 0.88242100 0.82254300 0.80660900
0.87058800 0.88589200 0.82566500 0.80991100
0.87451000 0.88935700 0.82878200 0.81322900
0.87843100 0.89282800 0.83189700 0.81654600
0.88235300 0.89630300 0.83501400 0.81986200
0.88627500 0.89977500 0.83813400 0.82317900
0.89019600 0.90324000 0.84126500 0.82649300
0.89411800 0.90670000 0.84440800 0.82980500
0.89803900 0.91016100 0.84756800 0.83311300
0.90196100 0.91363400 0.85075200 0.83641200
0.90588200 0.91711300 0.85396000 0.83971200
0.90980400 0.92059800 0.85718100 0.84301500
0.91372500 0.92409400 0.86041100 0.84631700
0.91764700 0.92759900 0.86365300 0.84961100
0.92156900 0.93110800 0.86689700 0.85291300
0.92549000 0.93461400 0.87013900 0.85621800
0.92941200 0.93812200 0.87338100 0.85951500
0.93333300 0.94161500 0.87661400 0.86280700
0.93725500 0.94509300 0.87983800 0.86608400
0.94117600 0.94856000 0.88304900 0.86935500
