storage/Web 2019-04-28 00-27 D6500 2.2 F-S XYZLUT+MTX/Web 2019-04-28 00-27 D6500 2.2 F-S XYZLUT+MTX.bpc.ti3
CTI3   

DESCRIPTOR "Argyll Calibration Target chart information 3"
ORIGINATOR "Argyll dispread"
CREATED "Sun Apr 28 00:36:45 2019"
DEVICE_CLASS "DISPLAY"
SINGLE_DIM_STEPS "5"
COMP_GREY_STEPS "52"
MULTI_DIM_STEPS "5"
COLOR_REP "RGB_XYZ"
TARGET_INSTRUMENT "X-Rite i1 DisplayPro, ColorMunki Display"
DISPLAY_TYPE_REFRESH "YES"
DISPLAY_TYPE_BASE_ID "2"
INSTRUMENT_TYPE_SPECTRAL "NO"
LUMINANCE_XYZ_CDM2 "175.972291 185.637278 201.602374"
NORMALIZED_TO_Y_100 "YES"
VIDEO_LUT_CALIBRATION_POSSIBLE "NO"

BEGIN_ARGYLL_COLPROF_ARGS
-v -qh -aX -bn -C "No copyright. Created with DisplayCAL 3.8.0.0 and ArgyllCMS 2.1.0" -M "Web"
END_ARGYLL_COLPROF_ARGS

OBSERVER "1931_2"
USE_BLACK_POINT_COMPENSATION "NO"
BLACK_POINT_CORRECTION "0.0"
HIRES_B2A "YES"
HIRES_B2A_SIZE "-1"
SMOOTH_B2A "YES"
PATCH_SEQUENCE "OPTIMIZE_DISPLAY_RESPONSE_DELAY"

NUMBER_OF_FIELDS 7
BEGIN_DATA_FORMAT
SAMPLE_ID RGB_R RGB_G RGB_B XYZ_X XYZ_Y XYZ_Z
END_DATA_FORMAT

NUMBER_OF_SETS 175
BEGIN_DATA
1 100.00000 100.00000 100.00000 94.793620 100.00000 108.60020
2 100.00000 100.00000 75.000000 86.185300 96.550980 63.687080
3 100.00000 100.00000 100.00000 94.818030 100.00960 108.59970
4 100.00000 100.00000 100.00000 94.793620 100.00000 108.60020
5 0.0000000 0.0000000 0.0000000 0.0588415 0.0620733 0.0674117
6 25.000000 0.0000000 0.0000000 1.8611121 0.9449599 0.0935783
7 50.000000 0.0000000 0.0000000 8.5137315 4.3755397 0.0891375
8 75.000000 0.0000000 0.0000000 21.473838 11.262305 0.3155648
9 100.00000 0.0000000 0.0000000 41.382567 22.009615 0.8433465
10 100.00000 0.0000000 25.000000 42.279697 22.379395 5.4823807
11 100.00000 25.000000 25.000000 43.957546 25.762814 6.0935976
12 100.00000 50.000000 25.000000 49.577844 37.240734 8.0740223
13 100.00000 75.000000 25.000000 60.463682 59.134272 12.025591
14 0.0000000 0.0000000 25.000000 0.8661091 0.3343019 4.3131804
15 25.000000 0.0000000 25.000000 2.6393427 1.2158379 4.4188613
16 75.000000 0.0000000 100.00000 39.971468 18.704265 96.060594
17 100.00000 0.0000000 100.00000 59.847377 29.462494 96.678019
18 1.9608000 1.9608000 1.9608000 0.0710859 0.0740293 0.0807082
19 3.9216000 3.9216000 3.9216000 0.1189957 0.1287320 0.1369933
20 5.8824000 5.8824000 5.8824000 0.2193374 0.2271619 0.2679376
21 7.8431000 7.8431000 7.8431000 0.3478489 0.3633879 0.4296397
22 9.8039000 9.8039000 9.8039000 0.5565421 0.5909709 0.6464669
23 11.765000 11.765000 11.765000 0.8284879 0.8563109 0.9826297
24 13.726000 13.726000 13.726000 1.1640652 1.2122659 1.3763495
25 15.686000 15.686000 15.686000 1.5447852 1.5933209 1.7935580
26 17.647000 17.647000 17.647000 2.0196928 2.1144788 2.4105820
27 19.608000 19.608000 19.608000 2.5319028 2.6315598 2.9933820
28 21.569000 21.569000 21.569000 3.1581077 3.3044748 3.6295456
29 23.529000 23.529000 23.529000 3.8553952 4.0603177 4.3376088
30 27.451000 27.451000 27.451000 5.4017734 5.6631906 6.0962932
31 29.412000 29.412000 29.412000 6.2392813 6.5994446 7.1647074
32 31.373000 31.373000 31.373000 7.1091333 7.4910795 8.1028624
33 33.333000 33.333000 33.333000 7.9535642 8.3844975 9.1074924
34 35.294000 35.294000 35.294000 8.9090192 9.3511104 10.385845
35 37.255000 37.255000 37.255000 10.042935 10.612915 11.574395
36 39.216000 39.216000 39.216000 11.343705 11.967375 13.068845
37 41.176000 41.176000 41.176000 12.557655 13.269675 14.358915
38 43.137000 43.137000 43.137000 13.938895 14.727935 16.008415
39 45.098000 45.098000 45.098000 15.521515 16.358235 17.760175
40 47.059000 47.059000 47.059000 17.192765 18.279825 19.673255
41 49.020000 49.020000 49.020000 18.993185 20.114365 21.630535
42 50.980000 50.980000 50.980000 20.821224 22.044785 23.795595
43 52.941000 52.941000 52.941000 22.640814 23.934475 26.010824
44 54.902000 54.902000 54.902000 24.703114 26.087254 28.227534
45 56.863000 56.863000 56.863000 26.770964 28.285944 30.753624
46 58.824000 58.824000 58.824000 28.728554 30.206674 33.273534
47 60.784000 60.784000 60.784000 30.802574 32.472354 35.391144
48 62.745000 62.745000 62.745000 33.140324 34.966684 38.072964
49 64.706000 64.706000 64.706000 35.741414 37.612304 41.008344
50 66.667000 66.667000 66.667000 38.147183 40.181024 43.947234
51 68.627000 68.627000 68.627000 40.616403 42.876663 46.426583
52 70.588000 70.588000 70.588000 43.035583 45.258623 49.461203
53 72.549000 72.549000 72.549000 46.037053 48.302743 52.757073
54 76.471000 76.471000 76.471000 51.558703 54.392313 59.056123
55 78.431000 78.431000 78.431000 54.717542 57.718633 62.767453
56 80.392000 80.392000 80.392000 57.780942 61.070702 65.866762
57 82.353000 82.353000 82.353000 60.794982 64.039692 69.775552
58 84.314000 84.314000 84.314000 64.230502 67.673312 73.745442
59 86.275000 86.275000 86.275000 67.625152 71.279202 77.869652
60 88.235000 88.235000 88.235000 71.339871 75.137571 81.427911
61 90.196000 90.196000 90.196000 74.951131 78.967871 85.707051
62 92.157000 92.157000 92.157000 78.611661 82.880701 90.038831
63 94.118000 94.118000 94.118000 82.367471 86.886401 94.524821
64 96.078000 96.078000 96.078000 86.305851 91.086371 99.165761
65 98.039000 98.039000 98.039000 90.325210 95.439360 103.75810
66 25.000000 25.000000 0.0000000 3.4488968 4.1924567 0.4261447
67 50.000000 25.000000 0.0000000 10.051397 7.6409475 0.5281291
68 75.000000 25.000000 0.0000000 23.133147 14.615495 0.8260727
69 100.00000 25.000000 0.0000000 43.049706 25.392674 1.4039486
70 100.00000 50.000000 0.0000000 48.695094 36.860014 3.4321827
71 50.000000 50.000000 0.0000000 15.779304 19.258725 2.3284871
72 75.000000 50.000000 0.0000000 28.824725 26.079114 2.6993819
73 25.000000 50.000000 0.0000000 9.0995254 15.744345 2.1504642
74 25.000000 75.000000 0.0000000 19.984392 37.427784 5.9881310
75 50.000000 75.000000 0.0000000 26.644943 41.016224 6.1974869
76 75.000000 75.000000 0.0000000 39.832253 48.135853 6.6789758
77 100.00000 75.000000 0.0000000 59.570102 58.764612 7.4032866
78 25.000000 100.00000 0.0000000 37.387391 71.733072 12.220060
79 50.000000 100.00000 0.0000000 43.977321 75.292751 12.443180
80 75.000000 100.00000 0.0000000 57.119871 82.309801 12.938370
81 100.00000 100.00000 0.0000000 76.594560 92.781150 13.712520
82 100.00000 100.00000 25.000000 77.496270 93.130870 18.418270
83 50.000000 0.0000000 25.000000 9.2684647 4.6645607 4.4361877
84 50.000000 25.000000 50.000000 13.971737 9.2174784 20.845639
85 0.0000000 25.000000 0.0000000 1.4193017 3.0837288 0.3937711
86 0.0000000 25.000000 25.000000 2.3469459 3.5115048 5.0466427
87 25.490000 25.490000 25.490000 4.6659044 4.8428857 5.3537605
88 50.000000 25.000000 25.000000 11.015867 8.0595765 5.0928388
89 75.000000 25.000000 25.000000 24.037847 14.962675 5.3592984
90 0.0000000 50.000000 0.0000000 7.1196071 14.735325 2.1114273
91 0.0000000 50.000000 25.000000 8.0542923 15.126585 6.8829148
92 25.000000 50.000000 25.000000 10.053164 16.176685 6.9214317
93 50.000000 50.000000 25.000000 16.759984 19.700765 7.1114053
94 75.000000 50.000000 25.000000 29.731665 26.449224 7.3847518
95 0.0000000 75.000000 0.0000000 18.031822 36.365184 5.9110901
96 0.0000000 75.000000 25.000000 18.900962 36.725224 10.533672
97 25.000000 75.000000 25.000000 20.890462 37.786434 10.598651
98 50.000000 75.000000 25.000000 27.531433 41.365423 10.831321
99 75.000000 75.000000 25.000000 40.731933 48.474073 11.304341
100 0.0000000 100.00000 0.0000000 35.419871 70.681392 12.143121
101 0.0000000 100.00000 25.000000 36.295991 71.041672 16.798731
102 25.000000 100.00000 25.000000 38.287931 72.102962 16.875231
103 50.000000 100.00000 25.000000 44.858621 75.621571 17.097531
104 75.000000 100.00000 25.000000 58.021581 82.659521 17.644130
105 0.0000000 0.0000000 50.000000 3.8400106 1.3948649 19.966913
106 25.000000 0.0000000 50.000000 5.5658653 2.2928798 20.203284
107 50.000000 0.0000000 50.000000 12.377579 5.8772696 20.369241
108 75.000000 0.0000000 50.000000 25.333928 12.804545 20.148617
109 100.00000 0.0000000 50.000000 45.267797 23.553315 20.969194
110 100.00000 0.0000000 75.000000 51.065477 25.895084 51.099057
111 100.00000 25.000000 75.000000 52.726706 29.257724 51.676776
112 75.000000 0.0000000 25.000000 22.349428 11.614815 4.7503747
113 75.000000 25.000000 50.000000 27.030367 16.177165 20.776886
114 100.00000 25.000000 50.000000 46.938646 26.936494 21.547324
115 25.000000 25.000000 50.000000 7.3628886 5.7081596 21.189482
116 25.000000 50.000000 50.000000 13.249524 17.551035 23.057776
117 75.000000 50.000000 50.000000 32.708565 27.654404 22.844374
118 100.00000 50.000000 50.000000 52.549214 38.416734 23.668382
119 100.00000 50.000000 75.000000 58.345284 40.715374 53.694144
120 25.000000 75.000000 50.000000 23.874273 38.971634 26.135973
121 50.000000 75.000000 50.000000 30.533453 42.571463 26.409622
122 75.000000 75.000000 50.000000 43.704863 49.650123 26.906052
123 100.00000 75.000000 50.000000 63.505852 60.350452 27.677821
124 100.00000 75.000000 75.000000 69.230352 62.649312 57.551882
125 25.000000 100.00000 50.000000 41.297231 73.268812 32.578081
126 50.000000 100.00000 50.000000 47.867921 76.787421 32.800391
127 75.000000 100.00000 50.000000 61.021261 83.804831 33.346580
128 100.00000 100.00000 50.000000 80.494780 94.296350 34.070130
129 25.000000 0.0000000 75.000000 11.092080 4.4113067 49.615716
130 50.000000 0.0000000 75.000000 17.684339 7.9010195 49.887658
131 75.000000 0.0000000 75.000000 31.143578 15.126505 50.380071
132 75.000000 25.000000 75.000000 32.864427 18.508745 51.007909
133 75.000000 50.000000 100.00000 47.300605 33.593004 98.451178
134 25.000000 25.000000 75.000000 12.766428 7.7043405 50.293258
135 25.000000 50.000000 100.00000 27.288985 22.777465 97.887381
136 0.0000000 25.000000 50.000000 5.3743061 4.6185657 21.060560
137 0.0000000 25.000000 75.000000 10.900578 6.6798206 50.162720
138 0.0000000 50.000000 75.000000 16.554365 18.147445 52.230629
139 25.000000 50.000000 75.000000 18.521885 19.199125 52.307569
140 50.000000 50.000000 75.000000 25.160645 22.778045 52.529818
141 75.000000 50.000000 75.000000 38.535845 29.974324 52.972546
142 74.510000 74.510000 74.510000 48.873213 51.311403 56.108263
143 0.0000000 75.000000 75.000000 27.673243 40.240454 56.086494
144 25.000000 75.000000 75.000000 29.660003 41.333213 56.164254
145 50.000000 75.000000 75.000000 36.302773 44.900833 56.334654
146 0.0000000 75.000000 50.000000 21.882343 37.910344 26.059473
147 0.0000000 100.00000 50.000000 39.318921 72.216772 32.450151
148 0.0000000 100.00000 75.000000 45.041801 74.472502 62.220091
149 25.000000 100.00000 75.000000 47.004151 75.555641 62.298291
150 50.000000 100.00000 75.000000 53.569221 79.042421 62.468331
151 75.000000 100.00000 75.000000 66.700981 86.059091 62.912531
152 75.000000 100.00000 100.00000 75.374541 89.559541 107.92800
153 25.000000 0.0000000 100.00000 19.824640 7.8806375 95.346817
154 50.000000 0.0000000 100.00000 26.478199 11.448625 95.568210
155 0.0000000 0.0000000 75.000000 9.5279239 3.5597067 49.430284
156 0.0000000 0.0000000 100.00000 18.400940 7.0765775 95.261279
157 0.0000000 25.000000 100.00000 19.704058 10.247965 95.843672
158 25.000000 25.000000 100.00000 21.525078 11.241965 95.923241
159 50.000000 25.000000 100.00000 28.199048 14.830855 96.196047
160 75.000000 25.000000 100.00000 41.582697 22.067855 96.588602
161 100.00000 25.000000 100.00000 61.330906 32.746184 97.155968
162 100.00000 50.000000 100.00000 66.952324 44.212713 99.070895
163 50.000000 25.000000 75.000000 19.381948 11.253465 50.566524
164 50.000000 50.000000 100.00000 33.873305 26.305324 98.058240
165 0.0000000 50.000000 50.000000 11.021784 16.210165 22.568396
166 0.0000000 50.000000 100.00000 25.277805 21.675095 97.810062
167 0.0000000 75.000000 100.00000 36.367153 43.775883 101.41051
168 25.000000 75.000000 100.00000 38.359083 44.837173 101.48701
169 50.000000 75.000000 100.00000 44.982613 48.363713 101.65660
170 75.000000 75.000000 100.00000 58.216483 55.470843 102.10070
171 100.00000 75.000000 100.00000 77.916302 66.193252 102.72240
172 0.0000000 100.00000 100.00000 53.701741 77.963701 107.28700
173 25.000000 100.00000 100.00000 55.624431 78.984851 107.31300
174 50.000000 100.00000 100.00000 62.213921 82.481241 107.48260
175 100.00000 100.00000 100.00000 94.793180 99.936700 108.54660
END_DATA
CAL    

DESCRIPTOR "Argyll Device Calibration State"
ORIGINATOR "Argyll dispread"
CREATED "Sun Apr 28 00:36:45 2019"
DEVICE_CLASS "DISPLAY"
COLOR_REP "RGB"

BEGIN_ARGYLL_DISPCAL_ARGS
-v2 -ql -t6500 -g2.2 -f1.0 -k0 -A4.0 -dweb:8080 -c1 -yr
END_ARGYLL_DISPCAL_ARGS


NUMBER_OF_FIELDS 4
BEGIN_DATA_FORMAT
RGB_I RGB_R RGB_G RGB_B
END_DATA_FORMAT

NUMBER_OF_SETS 256
BEGIN_DATA
0.00000000 0.00000000 0.00000000 0.00000000
0.00392157 0.00368838 0.00333014 0.00316615
0.00784314 0.00736337 0.00666441 0.00634866
0.01176470 0.01102500 0.01000280 0.00954767
0.01568630 0.01467350 0.01334540 0.01276330
0.01960780 0.01830880 0.01669210 0.01599570
0.02352940 0.02193090 0.02004300 0.01924500
0.02745100 0.02554010 0.02339810 0.02251130
0.03137250 0.02913630 0.02675730 0.02579470
0.03529410 0.03271960 0.03012080 0.02909540
0.03921570 0.03629010 0.03348860 0.03241360
0.04313730 0.03984890 0.03686460 0.03575020
0.04705880 0.04339150 0.04025020 0.03910040
0.05098040 0.04692010 0.04364310 0.04245500
0.05490200 0.05044260 0.04704770 0.04581520
0.05882350 0.05395880 0.05046540 0.04918230
0.06274510 0.05746740 0.05389400 0.05255390
0.06666670 0.06097500 0.05733610 0.05593190
0.07058820 0.06449500 0.06079910 0.05932410
0.07450980 0.06804290 0.06429240 0.06274090
0.07843140 0.07162890 0.06781880 0.06618870
0.08235290 0.07525220 0.07137020 0.06966580
0.08627450 0.07891160 0.07493820 0.07317170
0.09019610 0.08260500 0.07851380 0.07670760
0.09411760 0.08632940 0.08209400 0.08027480
0.09803920 0.09007740 0.08566930 0.08386850
0.10196100 0.09384070 0.08923600 0.08748180
0.10588200 0.09761160 0.09279080 0.09110550
0.10980400 0.10139000 0.09633340 0.09473910
0.11372500 0.10518500 0.09987290 0.09838260
0.11764700 0.10900000 0.10341700 0.10203900
0.12156900 0.11284000 0.10697100 0.10570900
0.12549000 0.11670800 0.11053700 0.10938800
0.12941200 0.12059600 0.11411500 0.11306400
0.13333300 0.12449200 0.11769500 0.11672800
0.13725500 0.12838400 0.12127300 0.12036700
0.14117600 0.13225900 0.12484000 0.12397400
0.14509800 0.13611800 0.12839500 0.12754900
0.14902000 0.13995700 0.13193900 0.13108900
0.15294100 0.14377700 0.13547200 0.13459700
0.15686300 0.14757300 0.13899000 0.13806800
0.16078400 0.15134200 0.14249000 0.14150300
0.16470600 0.15508500 0.14597100 0.14490400
0.16862700 0.15881000 0.14943800 0.14828100
0.17254900 0.16252200 0.15290100 0.15163800
0.17647100 0.16622200 0.15636300 0.15497800
0.18039200 0.16991300 0.15982400 0.15830800
0.18431400 0.17360000 0.16329300 0.16163500
0.18823500 0.17728200 0.16677400 0.16495800
0.19215700 0.18096700 0.17026700 0.16828300
0.19607800 0.18465900 0.17378200 0.17161700
0.20000000 0.18835900 0.17731800 0.17496300
0.20392200 0.19207900 0.18087600 0.17832700
0.20784300 0.19581900 0.18446400 0.18170800
0.21176500 0.19957800 0.18807900 0.18510300
0.21568600 0.20335500 0.19172000 0.18851500
0.21960800 0.20715200 0.19538200 0.19194400
0.22352900 0.21096800 0.19906700 0.19539000
0.22745100 0.21480500 0.20277000 0.19885000
0.23137300 0.21866100 0.20648900 0.20232300
0.23529400 0.22253900 0.21021700 0.20580700
0.23921600 0.22642900 0.21395100 0.20930100
0.24313700 0.23032900 0.21768400 0.21280500
0.24705900 0.23423900 0.22141700 0.21632200
0.25098000 0.23815100 0.22513900 0.21984800
0.25490200 0.24205600 0.22884400 0.22337700
0.25882400 0.24596000 0.23253200 0.22691300
0.26274500 0.24986200 0.23620700 0.23046000
0.26666700 0.25374700 0.23986900 0.23401500
0.27058800 0.25760900 0.24350400 0.23757100
0.27451000 0.26144900 0.24711500 0.24112600
0.27843100 0.26526000 0.25069900 0.24467900
0.28235300 0.26903800 0.25425500 0.24822500
0.28627500 0.27277300 0.25778000 0.25176000
0.29019600 0.27645600 0.26126900 0.25527600
0.29411800 0.28008400 0.26472100 0.25876100
0.29803900 0.28365800 0.26813400 0.26221400
0.30196100 0.28717900 0.27150600 0.26562900
0.30588200 0.29065100 0.27484100 0.26901100
0.30980400 0.29408000 0.27815000 0.27236600
0.31372500 0.29747400 0.28143500 0.27569500
0.31764700 0.30084100 0.28470200 0.27900500
0.32156900 0.30418700 0.28795600 0.28229700
0.32549000 0.30751900 0.29120500 0.28557300
0.32941200 0.31084500 0.29445400 0.28883800
0.33333300 0.31417600 0.29771700 0.29210400
0.33725500 0.31752500 0.30100400 0.29537900
0.34117600 0.32089600 0.30432000 0.29866800
0.34509800 0.32429400 0.30767000 0.30197700
0.34902000 0.32772200 0.31105800 0.30530700
0.35294100 0.33118000 0.31448800 0.30866000
0.35686300 0.33468200 0.31796100 0.31204400
0.36078400 0.33824900 0.32149800 0.31547200
0.36470600 0.34188100 0.32510300 0.31894500
0.36862700 0.34558100 0.32877600 0.32246200
0.37254900 0.34934600 0.33251800 0.32601800
0.37647100 0.35316900 0.33632200 0.32960700
0.38039200 0.35703900 0.34018100 0.33322100
0.38431400 0.36094800 0.34408400 0.33685500
0.38823500 0.36489400 0.34802100 0.34050600
0.39215700 0.36887600 0.35199000 0.34417800
0.39607800 0.37289100 0.35599000 0.34787100
0.40000000 0.37693600 0.36001500 0.35158100
0.40392200 0.38099400 0.36405600 0.35529400
0.40784300 0.38506200 0.36811400 0.35901200
0.41176500 0.38913500 0.37217800 0.36273300
0.41568600 0.39321800 0.37624900 0.36646000
0.41960800 0.39731900 0.38033500 0.37019600
0.42352900 0.40144000 0.38443200 0.37394400
0.42745100 0.40557300 0.38853000 0.37771100
0.43137300 0.40971300 0.39263200 0.38149600
0.43529400 0.41386800 0.39674500 0.38530400
0.43921600 0.41805100 0.40086400 0.38913800
0.44313700 0.42225100 0.40497800 0.39299200
0.44705900 0.42646600 0.40908700 0.39686200
0.45098000 0.43069100 0.41318700 0.40074200
0.45490200 0.43492000 0.41727200 0.40462900
0.45882400 0.43914800 0.42134900 0.40852200
0.46274500 0.44339000 0.42541800 0.41242700
0.46666700 0.44764000 0.42946800 0.41634200
0.47058800 0.45188300 0.43349800 0.42026300
0.47451000 0.45611600 0.43750400 0.42418800
0.47843100 0.46032800 0.44148800 0.42810200
0.48235300 0.46452500 0.44546900 0.43200800
0.48627500 0.46872300 0.44945400 0.43592000
0.49019600 0.47293100 0.45343500 0.43984100
0.49411800 0.47713600 0.45740800 0.44376200
0.49803900 0.48133600 0.46137800 0.44768200
0.50196100 0.48553700 0.46534300 0.45160500
0.50588200 0.48973500 0.46930000 0.45552900
0.50980400 0.49393100 0.47325200 0.45945400
0.51372500 0.49812400 0.47719800 0.46338000
0.51764700 0.50231600 0.48114400 0.46730500
0.52156900 0.50649900 0.48508000 0.47121500
0.52549000 0.51066900 0.48900500 0.47510800
0.52941200 0.51482800 0.49292000 0.47898400
0.53333300 0.51897500 0.49682600 0.48284400
0.53725500 0.52311300 0.50072300 0.48668800
0.54117600 0.52723500 0.50460900 0.49051400
0.54509800 0.53134800 0.50849200 0.49432500
0.54902000 0.53546300 0.51237300 0.49812900
0.55294100 0.53957100 0.51625000 0.50192100
0.55686300 0.54366700 0.52011300 0.50570000
0.56078400 0.54775000 0.52395800 0.50946500
0.56470600 0.55181900 0.52778300 0.51322100
0.56862700 0.55587000 0.53158400 0.51696500
0.57254900 0.55990600 0.53536500 0.52069200
0.57647100 0.56393400 0.53913400 0.52440900
0.58039200 0.56797300 0.54290000 0.52812800
0.58431400 0.57203300 0.54667100 0.53185400
0.58823500 0.57611900 0.55045900 0.53559400
0.59215700 0.58023100 0.55426000 0.53934600
0.59607800 0.58436200 0.55807200 0.54310500
0.60000000 0.58850400 0.56188300 0.54686400
0.60392200 0.59264400 0.56568900 0.55061500
0.60784300 0.59678500 0.56949300 0.55436200
0.61176500 0.60092900 0.57329500 0.55810600
0.61568600 0.60507700 0.57708900 0.56185000
0.61960800 0.60922800 0.58087600 0.56559600
0.62352900 0.61338200 0.58465700 0.56934300
0.62745100 0.61754600 0.58843800 0.57309700
0.63137300 0.62173400 0.59223600 0.57687100
0.63529400 0.62594300 0.59604800 0.58066700
0.63921600 0.63015200 0.59986200 0.58447100
0.64313700 0.63435300 0.60367300 0.58827300
0.64705900 0.63854300 0.60748400 0.59207100
0.65098000 0.64271200 0.61128900 0.59585500
0.65490200 0.64686100 0.61508800 0.59962500
0.65882400 0.65099900 0.61887300 0.60338000
0.66274500 0.65513200 0.62264900 0.60712700
0.66666700 0.65926200 0.62641800 0.61086200
0.67058800 0.66338900 0.63018200 0.61458500
0.67451000 0.66751400 0.63394100 0.61829500
0.67843100 0.67162200 0.63769900 0.62199700
0.68235300 0.67570700 0.64145900 0.62570000
0.68627500 0.67977100 0.64521900 0.62940200
0.69019600 0.68381400 0.64898300 0.63310500
0.69411800 0.68784000 0.65275100 0.63680500
0.69803900 0.69186500 0.65652600 0.64050400
0.70196100 0.69588700 0.66031400 0.64420900
0.70588200 0.69989900 0.66410300 0.64792000
0.70980400 0.70390700 0.66788800 0.65163200
0.71372500 0.70790900 0.67167800 0.65534600
0.71764700 0.71189300 0.67547300 0.65905200
0.72156900 0.71585900 0.67926800 0.66274200
0.72549000 0.71980000 0.68306000 0.66641500
0.72941200 0.72371800 0.68684500 0.67006700
0.73333300 0.72762100 0.69062600 0.67370400
0.73725500 0.73151000 0.69441000 0.67733300
0.74117600 0.73538500 0.69819400 0.68096000
0.74509800 0.73925500 0.70197600 0.68458300
0.74902000 0.74312900 0.70576100 0.68820600
0.75294100 0.74701000 0.70955000 0.69183400
0.75686300 0.75089500 0.71334600 0.69546900
0.76078400 0.75476900 0.71714400 0.69910700
0.76470600 0.75862900 0.72093400 0.70274000
0.76862700 0.76247300 0.72471400 0.70636800
0.77254900 0.76630100 0.72847900 0.70998400
0.77647100 0.77012300 0.73223300 0.71359000
0.78039200 0.77395400 0.73598900 0.71719700
0.78431400 0.77780100 0.73976100 0.72081500
0.78823500 0.78166800 0.74355300 0.72444700
0.79215700 0.78555300 0.74736800 0.72808900
0.79607800 0.78944900 0.75119700 0.73173900
0.80000000 0.79335600 0.75503000 0.73539200
0.80392200 0.79727400 0.75886900 0.73904500
0.80784300 0.80120400 0.76271400 0.74269800
0.81176500 0.80513800 0.76655800 0.74635500
0.81568600 0.80907200 0.77039600 0.75002300
0.81960800 0.81300700 0.77422700 0.75369600
0.82352900 0.81696000 0.77805800 0.75737700
0.82745100 0.82093000 0.78189200 0.76107700
0.83137300 0.82490900 0.78572700 0.76478400
0.83529400 0.82888700 0.78955900 0.76849100
0.83921600 0.83286600 0.79338600 0.77219400
0.84313700 0.83685000 0.79721300 0.77589500
0.84705900 0.84084200 0.80104700 0.77960500
0.85098000 0.84484100 0.80488600 0.78332200
0.85490200 0.84884400 0.80872600 0.78704200
0.85882400 0.85284500 0.81255500 0.79076400
0.86274500 0.85684100 0.81637100 0.79448400
0.86666700 0.86083700 0.82018400 0.79820000
0.87058800 0.86483900 0.82400500 0.80192200
0.87451000 0.86885800 0.82783900 0.80565400
0.87843100 0.87290000 0.83168800 0.80940300
0.88235300 0.87695700 0.83554600 0.81316900
0.88627500 0.88100800 0.83940300 0.81693800
0.89019600 0.88506400 0.84326200 0.82070800
0.89411800 0.88913000 0.84712900 0.82448900
0.89803900 0.89319100 0.85099400 0.82827600
0.90196100 0.89724300 0.85485600 0.83206800
0.90588200 0.90128300 0.85871100 0.83586300
0.90980400 0.90532300 0.86257200 0.83965900
0.91372500 0.90936400 0.86644100 0.84345500
0.91764700 0.91340600 0.87031600 0.84725700
0.92156900 0.91745300 0.87419700 0.85106900
0.92549000 0.92149500 0.87807400 0.85488800
0.92941200 0.92553600 0.88194700 0.85870500
0.93333300 0.92958200 0.88583000 0.86253100
0.93725500 0.93363000 0.88971200 0.86636200
0.94117600 0.93767400 0.89359100 0.87019400
0.94509800 0.94172500 0.89747600 0.87403200
0.94902000 0.94577700 0.90136200 0.87787600
0.95294100 0.94983400 0.90525100 0.88172600
0.95686300 0.95389400 0.90914400 0.88558300
0.96078400 0.95795900 0.91304000 0.88944500
0.96470600 0.96202700 0.91693900 0.89331400
0.96862700 0.96609900 0.92084100 0.89718900
0.97254900 0.97017400 0.92474800 0.90107200
0.97647100 0.97425200 0.92865900 0.90496000
0.98039200 0.97833200 0.93257200 0.90885500
0.98431400 0.98241400 0.93649000 0.91275600
0.98823500 0.98649800 0.94041100 0.91666300
0.99215700 0.99058500 0.94433500 0.92057700
0.99607800 0.99467300 0.94826300 0.92449600
1.00000000 0.99876400 0.95219400 0.92842200
END_DATA
