storage/Web 2019-04-28 00-27 D6500 2.2 F-S XYZLUT+MTX/Web 2019-04-28 00-27 D6500 2.2 F-S XYZLUT+MTX.cal
CAL    

DESCRIPTOR "Argyll Device Calibration Curves"
ORIGINATOR "Argyll dispcal"
CREATED "Sun Apr 28 00:36:44 2019"
DEVICE_CLASS "DISPLAY"
COLOR_REP "RGB"
VIDEO_LUT_CALIBRATION_POSSIBLE "NO"
TV_OUTPUT_ENCODING "NO"
DEVICE_TYPE "r"
TARGET_WHITE_XYZ "175.029663 184.208452 200.331589"
TARGET_GAMMA "2.2"
DEGREE_OF_BLACK_OUTPUT_OFFSET "1.0"
BLACK_POINT_CORRECTION "0.0"
BLACK_NEUTRAL_BLEND_RATE "4.0"
BLACK_POINT_HACK "YES"
QUALITY "low"

BEGIN_ARGYLL_DISPCAL_ARGS
-v2 -dweb:8080 -c1 -yr -ql -t6500 -g2.2 -f1.0 -k0 -A4.0 -b
END_ARGYLL_DISPCAL_ARGS


NUMBER_OF_FIELDS 4
BEGIN_DATA_FORMAT
RGB_I RGB_R RGB_G RGB_B
END_DATA_FORMAT

NUMBER_OF_SETS 256
BEGIN_DATA
0.00000000 0.00000000 0.00000000 0.00000000
0.00392157 0.00368838 0.00333014 0.00316615
0.00784314 0.00736337 0.00666441 0.00634866
0.01176470 0.01102500 0.01000280 0.00954767
0.01568630 0.01467350 0.01334540 0.01276330
0.01960780 0.01830880 0.01669210 0.01599570
0.02352940 0.02193090 0.02004300 0.01924500
0.02745100 0.02554010 0.02339810 0.02251130
0.03137250 0.02913630 0.02675730 0.02579470
0.03529410 0.03271960 0.03012080 0.02909540
0.03921570 0.03629010 0.03348860 0.03241360
0.04313730 0.03984890 0.03686460 0.03575020
0.04705880 0.04339150 0.04025020 0.03910040
0.05098040 0.04692010 0.04364310 0.04245500
0.05490200 0.05044260 0.04704770 0.04581520
0.05882350 0.05395880 0.05046540 0.04918230
0.06274510 0.05746740 0.05389400 0.05255390
0.06666670 0.06097500 0.05733610 0.05593190
0.07058820 0.06449500 0.06079910 0.05932410
0.07450980 0.06804290 0.06429240 0.06274090
0.07843140 0.07162890 0.06781880 0.06618870
0.08235290 0.07525220 0.07137020 0.06966580
0.08627450 0.07891160 0.07493820 0.07317170
0.09019610 0.08260500 0.07851380 0.07670760
0.09411760 0.08632940 0.08209400 0.08027480
0.09803920 0.09007740 0.08566930 0.08386850
0.10196100 0.09384070 0.08923600 0.08748180
0.10588200 0.09761160 0.09279080 0.09110550
0.10980400 0.10139000 0.09633340 0.09473910
0.11372500 0.10518500 0.09987290 0.09838260
0.11764700 0.10900000 0.10341700 0.10203900
0.12156900 0.11284000 0.10697100 0.10570900
0.12549000 0.11670800 0.11053700 0.10938800
0.12941200 0.12059600 0.11411500 0.11306400
0.13333300 0.12449200 0.11769500 0.11672800
0.13725500 0.12838400 0.12127300 0.12036700
0.14117600 0.13225900 0.12484000 0.12397400
0.14509800 0.13611800 0.12839500 0.12754900
0.14902000 0.13995700 0.13193900 0.13108900
0.15294100 0.14377700 0.13547200 0.13459700
0.15686300 0.14757300 0.13899000 0.13806800
0.16078400 0.15134200 0.14249000 0.14150300
0.16470600 0.15508500 0.14597100 0.14490400
0.16862700 0.15881000 0.14943800 0.14828100
0.17254900 0.16252200 0.15290100 0.15163800
0.17647100 0.16622200 0.15636300 0.15497800
0.18039200 0.16991300 0.15982400 0.15830800
0.18431400 0.17360000 0.16329300 0.16163500
0.18823500 0.17728200 0.16677400 0.16495800
0.19215700 0.18096700 0.17026700 0.16828300
0.19607800 0.18465900 0.17378200 0.17161700
0.20000000 0.18835900 0.17731800 0.17496300
0.20392200 0.19207900 0.18087600 0.17832700
0.20784300 0.19581900 0.18446400 0.18170800
0.21176500 0.19957800 0.18807900 0.18510300
0.21568600 0.20335500 0.19172000 0.18851500
0.21960800 0.20715200 0.19538200 0.19194400
0.22352900 0.21096800 0.19906700 0.19539000
0.22745100 0.21480500 0.20277000 0.19885000
0.23137300 0.21866100 0.20648900 0.20232300
0.23529400 0.22253900 0.21021700 0.20580700
0.23921600 0.22642900 0.21395100 0.20930100
0.24313700 0.23032900 0.21768400 0.21280500
0.24705900 0.23423900 0.22141700 0.21632200
0.25098000 0.23815100 0.22513900 0.21984800
0.25490200 0.24205600 0.22884400 0.22337700
0.25882400 0.24596000 0.23253200 0.22691300
0.26274500 0.24986200 0.23620700 0.23046000
0.26666700 0.25374700 0.23986900 0.23401500
0.27058800 0.25760900 0.24350400 0.23757100
0.27451000 0.26144900 0.24711500 0.24112600
0.27843100 0.26526000 0.25069900 0.24467900
0.28235300 0.26903800 0.25425500 0.24822500
0.28627500 0.27277300 0.25778000 0.25176000
0.29019600 0.27645600 0.26126900 0.25527600
0.29411800 0.28008400 0.26472100 0.25876100
0.29803900 0.28365800 0.26813400 0.26221400
0.30196100 0.28717900 0.27150600 0.26562900
0.30588200 0.29065100 0.27484100 0.26901100
0.30980400 0.29408000 0.27815000 0.27236600
0.31372500 0.29747400 0.28143500 0.27569500
0.31764700 0.30084100 0.28470200 0.27900500
0.32156900 0.30418700 0.28795600 0.28229700
0.32549000 0.30751900 0.29120500 0.28557300
0.32941200 0.31084500 0.29445400 0.28883800
0.33333300 0.31417600 0.29771700 0.29210400
0.33725500 0.31752500 0.30100400 0.29537900
0.34117600 0.32089600 0.30432000 0.29866800
0.34509800 0.32429400 0.30767000 0.30197700
0.34902000 0.32772200 0.31105800 0.30530700
0.35294100 0.33118000 0.31448800 0.30866000
0.35686300 0.33468200 0.31796100 0.31204400
0.36078400 0.33824900 0.32149800 0.31547200
0.36470600 0.34188100 0.32510300 0.31894500
0.36862700 0.34558100 0.32877600 0.32246200
0.37254900 0.34934600 0.33251800 0.32601800
0.37647100 0.35316900 0.33632200 0.32960700
0.38039200 0.35703900 0.34018100 0.33322100
0.38431400 0.36094800 0.34408400 0.33685500
0.38823500 0.36489400 0.34802100 0.34050600
0.39215700 0.36887600 0.35199000 0.34417800
0.39607800 0.37289100 0.35599000 0.34787100
0.40000000 0.37693600 0.36001500 0.35158100
0.40392200 0.38099400 0.36405600 0.35529400
0.40784300 0.38506200 0.36811400 0.35901200
0.41176500 0.38913500 0.37217800 0.36273300
0.41568600 0.39321800 0.37624900 0.36646000
0.41960800 0.39731900 0.38033500 0.37019600
0.42352900 0.40144000 0.38443200 0.37394400
0.42745100 0.40557300 0.38853000 0.37771100
0.43137300 0.40971300 0.39263200 0.38149600
0.43529400 0.41386800 0.39674500 0.38530400
0.43921600 0.41805100 0.40086400 0.38913800
0.44313700 0.42225100 0.40497800 0.39299200
0.44705900 0.42646600 0.40908700 0.39686200
0.45098000 0.43069100 0.41318700 0.40074200
0.45490200 0.43492000 0.41727200 0.40462900
0.45882400 0.43914800 0.42134900 0.40852200
0.46274500 0.44339000 0.42541800 0.41242700
0.46666700 0.44764000 0.42946800 0.41634200
0.47058800 0.45188300 0.43349800 0.42026300
0.47451000 0.45611600 0.43750400 0.42418800
0.47843100 0.46032800 0.44148800 0.42810200
0.48235300 0.46452500 0.44546900 0.43200800
0.48627500 0.46872300 0.44945400 0.43592000
0.49019600 0.47293100 0.45343500 0.43984100
0.49411800 0.47713600 0.45740800 0.44376200
0.49803900 0.48133600 0.46137800 0.44768200
0.50196100 0.48553700 0.46534300 0.45160500
0.50588200 0.48973500 0.46930000 0.45552900
0.50980400 0.49393100 0.47325200 0.45945400
0.51372500 0.49812400 0.47719800 0.46338000
0.51764700 0.50231600 0.48114400 0.46730500
0.52156900 0.50649900 0.48508000 0.47121500
0.52549000 0.51066900 0.48900500 0.47510800
0.52941200 0.51482800 0.49292000 0.47898400
0.53333300 0.51897500 0.49682600 0.48284400
0.53725500 0.52311300 0.50072300 0.48668800
0.54117600 0.52723500 0.50460900 0.49051400
0.54509800 0.53134800 0.50849200 0.49432500
0.54902000 0.53546300 0.51237300 0.49812900
0.55294100 0.53957100 0.51625000 0.50192100
0.55686300 0.54366700 0.52011300 0.50570000
0.56078400 0.54775000 0.52395800 0.50946500
0.56470600 0.55181900 0.52778300 0.51322100
0.56862700 0.55587000 0.53158400 0.51696500
0.57254900 0.55990600 0.53536500 0.52069200
0.57647100 0.56393400 0.53913400 0.52440900
0.58039200 0.56797300 0.54290000 0.52812800
0.58431400 0.57203300 0.54667100 0.53185400
0.58823500 0.57611900 0.55045900 0.53559400
0.59215700 0.58023100 0.55426000 0.53934600
0.59607800 0.58436200 0.55807200 0.54310500
0.60000000 0.58850400 0.56188300 0.54686400
0.60392200 0.59264400 0.56568900 0.55061500
0.60784300 0.59678500 0.56949300 0.55436200
0.61176500 0.60092900 0.57329500 0.55810600
0.61568600 0.60507700 0.57708900 0.56185000
0.61960800 0.60922800 0.58087600 0.56559600
0.62352900 0.61338200 0.58465700 0.56934300
0.62745100 0.61754600 0.58843800 0.57309700
0.63137300 0.62173400 0.59223600 0.57687100
0.63529400 0.62594300 0.59604800 0.58066700
0.63921600 0.63015200 0.59986200 0.58447100
0.64313700 0.63435300 0.60367300 0.58827300
0.64705900 0.63854300 0.60748400 0.59207100
0.65098000 0.64271200 0.61128900 0.59585500
0.65490200 0.64686100 0.61508800 0.59962500
0.65882400 0.65099900 0.61887300 0.60338000
0.66274500 0.65513200 0.62264900 0.60712700
0.66666700 0.65926200 0.62641800 0.61086200
0.67058800 0.66338900 0.63018200 0.61458500
0.67451000 0.66751400 0.63394100 0.61829500
0.67843100 0.67162200 0.63769900 0.62199700
0.68235300 0.67570700 0.64145900 0.62570000
0.68627500 0.67977100 0.64521900 0.62940200
0.69019600 0.68381400 0.64898300 0.63310500
0.69411800 0.68784000 0.65275100 0.63680500
0.69803900 0.69186500 0.65652600 0.64050400
0.70196100 0.69588700 0.66031400 0.64420900
0.70588200 0.69989900 0.66410300 0.64792000
0.70980400 0.70390700 0.66788800 0.65163200
0.71372500 0.70790900 0.67167800 0.65534600
0.71764700 0.71189300 0.67547300 0.65905200
0.72156900 0.71585900 0.67926800 0.66274200
0.72549000 0.71980000 0.68306000 0.66641500
0.72941200 0.72371800 0.68684500 0.67006700
0.73333300 0.72762100 0.69062600 0.67370400
0.73725500 0.73151000 0.69441000 0.67733300
0.74117600 0.73538500 0.69819400 0.68096000
0.74509800 0.73925500 0.70197600 0.68458300
0.74902000 0.74312900 0.70576100 0.68820600
0.75294100 0.74701000 0.70955000 0.69183400
0.75686300 0.75089500 0.71334600 0.69546900
0.76078400 0.75476900 0.71714400 0.69910700
0.76470600 0.75862900 0.72093400 0.70274000
0.76862700 0.76247300 0.72471400 0.70636800
0.77254900 0.76630100 0.72847900 0.70998400
0.77647100 0.77012300 0.73223300 0.71359000
0.78039200 0.77395400 0.73598900 0.71719700
0.78431400 0.77780100 0.73976100 0.72081500
0.78823500 0.78166800 0.74355300 0.72444700
0.79215700 0.78555300 0.74736800 0.72808900
0.79607800 0.78944900 0.75119700 0.73173900
0.80000000 0.79335600 0.75503000 0.73539200
0.80392200 0.79727400 0.75886900 0.73904500
0.80784300 0.80120400 0.76271400 0.74269800
0.81176500 0.80513800 0.76655800 0.74635500
0.81568600 0.80907200 0.77039600 0.75002300
0.81960800 0.81300700 0.77422700 0.75369600
0.82352900 0.81696000 0.77805800 0.75737700
0.82745100 0.82093000 0.78189200 0.76107700
0.83137300 0.82490900 0.78572700 0.76478400
0.83529400 0.82888700 0.78955900 0.76849100
0.83921600 0.83286600 0.79338600 0.77219400
0.84313700 0.83685000 0.79721300 0.77589500
0.84705900 0.84084200 0.80104700 0.77960500
0.85098000 0.84484100 0.80488600 0.78332200
0.85490200 0.84884400 0.80872600 0.78704200
0.85882400 0.85284500 0.81255500 0.79076400
0.86274500 0.85684100 0.81637100 0.79448400
0.86666700 0.86083700 0.82018400 0.79820000
0.87058800 0.86483900 0.82400500 0.80192200
0.87451000 0.86885800 0.82783900 0.80565400
0.87843100 0.87290000 0.83168800 0.80940300
0.88235300 0.87695700 0.83554600 0.81316900
0.88627500 0.88100800 0.83940300 0.81693800
0.89019600 0.88506400 0.84326200 0.82070800
0.89411800 0.88913000 0.84712900 0.82448900
0.89803900 0.89319100 0.85099400 0.82827600
0.90196100 0.89724300 0.85485600 0.83206800
0.90588200 0.90128300 0.85871100 0.83586300
0.90980400 0.90532300 0.86257200 0.83965900
0.91372500 0.90936400 0.86644100 0.84345500
0.91764700 0.91340600 0.87031600 0.84725700
0.92156900 0.91745300 0.87419700 0.85106900
0.92549000 0.92149500 0.87807400 0.85488800
0.92941200 0.92553600 0.88194700 0.85870500
0.93333300 0.92958200 0.88583000 0.86253100
0.93725500 0.93363000 0.88971200 0.86636200
0.94117600 0.93767400 0.89359100 0.87019400
0.94509800 0.94172500 0.89747600 0.87403200
0.94902000 0.94577700 0.90136200 0.87787600
0.95294100 0.94983400 0.90525100 0.88172600
0.95686300 0.95389400 0.90914400 0.88558300
0.96078400 0.95795900 0.91304000 0.88944500
0.96470600 0.96202700 0.91693900 0.89331400
0.96862700 0.96609900 0.92084100 0.89718900
0.97254900 0.97017400 0.92474800 0.90107200
0.97647100 0.97425200 0.92865900 0.90496000
0.98039200 0.97833200 0.93257200 0.90885500
0.98431400 0.98241400 0.93649000 0.91275600
0.98823500 0.98649800 0.94041100 0.91666300
0.99215700 0.99058500 0.94433500 0.92057700
0.99607800 0.99467300 0.94826300 0.92449600
1.00000000 0.99876400 0.95219400 0.92842200
END_DATA
CAL    

DESCRIPTOR "Argyll Calibration options and model"
ORIGINATOR "Argyll dispcal"
CREATED "Sun Apr 28 00:36:44 201"

NUMBER_OF_FIELDS 3
BEGIN_DATA_FORMAT
R_P G_P B_P
END_DATA_FORMAT

NUMBER_OF_SETS 32
BEGIN_DATA
-0.001166170 -0.000541665 -0.000137854
1.001166000 1.000542000 1.000138000
1.630708000 1.447577000 1.431270000
0.535842000 0.501583000 0.486308000
0.014868600 0.080891600 0.095354800
0.072122600 0.126033000 0.129010000
0.082487600 0.097412900 0.094769200
0.140620000 0.071056600 0.071537100
0.081629000 0.058181200 0.076762200
0.059469400 0.066255300 0.068220500
0.042170800 0.057920100 0.059024700
0.037701900 0.055032300 0.050582300
0.040898600 0.051905800 0.052467800
0.033259600 0.043279200 0.050102800
0.026858900 0.050218600 0.038686900
0.040842700 0.049566000 0.038211900
0.027080600 0.037917400 0.042575100
0.027683800 0.037020600 0.040697000
0.021109200 0.031601800 0.037595500
0.023993200 0.034287900 0.033379200
0.020709700 0.033057300 0.032881400
0.018221500 0.031334900 0.029630000
0.019838700 0.029652300 0.028002500
0.017557200 0.027502300 0.026264600
0.016323200 0.028760400 0.025026000
0.017087300 0.028568500 0.024308100
0.015792000 0.025534000 0.022760000
0.013319200 0.024326500 0.022978400
0.012348000 0.023876400 0.022501500
0.013361700 0.022384200 0.020645900
0.014522000 0.021155500 0.017462500
0.012364100 0.019925000 0.017429600
END_DATA
