storage/madVR 2019-05-01 17-25 0.3127x 0.329y S XYZLUT+MTX/madVR 2019-05-01 17-25 0.3127x 0.329y S XYZLUT+MTX.bpc.ti3
CTI3   

DESCRIPTOR "Argyll Calibration Target chart information 3"
ORIGINATOR "Argyll dispread"
CREATED "Wed May 01 17:28:17 2019"
DEVICE_CLASS "DISPLAY"
SINGLE_DIM_STEPS "33"
COMP_GREY_STEPS "97"
DARK_REGION_EMPHASIS "1.6"
COLOR_REP "RGB_XYZ"
TARGET_INSTRUMENT "X-Rite i1 DisplayPro, ColorMunki Display"
DISPLAY_TYPE_REFRESH "NO"
DISPLAY_TYPE_BASE_ID "1"
INSTRUMENT_TYPE_SPECTRAL "NO"
LUMINANCE_XYZ_CDM2 "202.571729 216.086284 243.409391"
NORMALIZED_TO_Y_100 "YES"
VIDEO_LUT_CALIBRATION_POSSIBLE "YES"

BEGIN_ARGYLL_COLPROF_ARGS
-v -qh -aX -bl -C "No copyright. Created with DisplayCAL 3.8.0.0 and ArgyllCMS 2.1.0_mod" -M "madVR"
END_ARGYLL_COLPROF_ARGS

OBSERVER "1931_2"
USE_BLACK_POINT_COMPENSATION "NO"
BLACK_POINT_CORRECTION "0.0"
HIRES_B2A "NO"
HIRES_B2A_SIZE "-1"
SMOOTH_B2A "YES"
PATCH_SEQUENCE "OPTIMIZE_DISPLAY_RESPONSE_DELAY"
3DLUT_HDR_MAXMLL_ALT_CLIP "1"
3DLUT_HDR_SAT "0.5"
3DLUT_HDR_PEAK_LUMINANCE "480.0"
3DLUT_HDR_MAXMLL "10000.0"
3DLUT_GAMUT_MAPPING_MODE "G"
3DLUT_HDR_MINMLL "0.0"
3DLUT_SOURCE_PROFILE "ref/Rec709.icm"
3DLUT_RENDERING_INTENT "aw"
3DLUT_HDR_DISPLAY "0"
3DLUT_FORMAT "madVR"
3DLUT_HDR_AMBIENT_LUMINANCE "5.0"
3DLUT_APPLY_CAL "1"
3DLUT_SIZE "65"
3DLUT_GAMMA "-2.4"
3DLUT_INPUT_ENCODING "t"
3DLUT_OUTPUT_ENCODING "t"
3DLUT_INPUT_BITDEPTH "10"
3DLUT_TRC "bt1886"
3DLUT_OUTPUT_BITDEPTH "12"
3DLUT_DEGREE_OF_BLACK_OUTPUT_OFFSET "0.0"
3DLUT_HDR_HUE "0.5"
3DLUT_CONTENT_COLORSPACE_WHITE_X "0.3127"
3DLUT_CONTENT_COLORSPACE_WHITE_Y "0.329"
3DLUT_CONTENT_COLORSPACE_RED_X "0.68"
3DLUT_CONTENT_COLORSPACE_RED_Y "0.32"
3DLUT_CONTENT_COLORSPACE_GREEN_X "0.265"
3DLUT_CONTENT_COLORSPACE_GREEN_Y "0.69"
3DLUT_CONTENT_COLORSPACE_BLUE_X "0.15"
3DLUT_CONTENT_COLORSPACE_BLUE_Y "0.06"

NUMBER_OF_FIELDS 7
BEGIN_DATA_FORMAT
SAMPLE_ID RGB_R RGB_G RGB_B XYZ_X XYZ_Y XYZ_Z
END_DATA_FORMAT

NUMBER_OF_SETS 1545
BEGIN_DATA
1 100.00000 100.00000 100.00000 93.745760 100.000000 112.64450
2 1.9608000 1.9608000 1.9608000 0.0921967 0.0983438 0.1097426
3 3.9216000 3.9216000 3.9216000 0.1126783 0.1195746 0.1375335
4 5.8824000 5.8824000 5.8824000 0.1872923 0.1977186 0.2336858
5 9.8039000 9.8039000 9.8039000 0.5347926 0.5654116 0.6497168
6 13.726000 13.726000 13.726000 1.2017773 1.2746988 1.3960919
7 17.647000 17.647000 17.647000 2.0790923 2.2108110 2.3683373
8 21.569000 21.569000 21.569000 3.1979113 3.4022632 3.6048373
9 25.490000 25.490000 25.490000 4.5620224 4.8556715 5.1169063
10 29.412000 29.412000 29.412000 6.1536938 6.5508708 6.8763682
11 33.333000 33.333000 33.333000 8.0499141 8.5728752 8.9766168
12 37.255000 37.255000 37.255000 10.159544 10.808163 11.316923
13 41.176000 41.176000 41.176000 12.464034 13.273223 13.915594
14 45.098000 45.098000 45.098000 15.004575 15.984534 16.768554
15 49.020000 49.020000 49.020000 17.829305 19.013074 19.948775
16 52.941000 52.941000 52.941000 21.054926 22.481935 23.577145
17 56.863000 56.863000 56.863000 24.724246 26.372946 27.734496
18 60.784000 60.784000 60.784000 28.819507 30.794107 32.425167
19 64.706000 64.706000 64.706000 33.468378 35.760267 37.733698
20 68.627000 68.627000 68.627000 38.442169 41.079729 43.484609
21 72.549000 72.549000 72.549000 43.722360 46.751860 49.590460
22 76.471000 76.471000 76.471000 49.446271 52.846161 56.225381
23 80.392000 80.392000 80.392000 55.689563 59.558192 63.481902
24 84.314000 84.314000 84.314000 62.378584 66.657784 71.354334
25 88.235000 88.235000 88.235000 69.367155 74.129425 79.670735
26 92.157000 92.157000 92.157000 76.804227 82.062607 88.781687
27 96.078000 96.078000 96.078000 85.161638 90.934738 99.393318
28 39.056800 25.776300 38.698100 8.5104591 6.7726949 11.697065
29 39.232800 31.981600 44.735500 10.281011 9.1127513 15.822416
30 42.241900 48.794100 61.852500 18.083115 18.646354 32.855968
31 0.0000000 1.4451000 0.0000000 0.0885265 0.0957449 0.1056813
32 0.0000000 2.9412000 0.0000000 0.0917864 0.1019686 0.1079401
33 31.292100 14.958300 16.408300 3.7407709 2.6948081 1.8796041
34 58.569800 29.686300 21.378100 14.015370 10.841903 3.8406599
35 76.198400 39.870100 37.902900 26.736392 20.321094 11.988000
36 100.00000 50.589000 46.203300 48.404125 35.706507 18.518892
37 4.4910000 0.0000000 0.0000000 0.1048593 0.1022746 0.1067804
38 6.0976000 0.0000000 0.0000000 0.1282942 0.1145196 0.1103157
39 7.7640000 0.0000000 0.0000000 0.1879766 0.1451416 0.1154244
40 9.4937000 0.0000000 0.0000000 0.2405849 0.1720496 0.1205504
41 11.290300 0.0000000 0.0000000 0.3424748 0.2247216 0.1284862
42 13.157900 0.0000000 0.0000000 0.4750155 0.2931336 0.1373476
43 15.100700 0.0000000 0.0000000 0.6034453 0.3597856 0.1437602
44 17.123300 0.0000000 0.0000000 0.8112669 0.4670646 0.1515229
45 19.230800 0.0000000 0.0000000 1.0320013 0.5815606 0.1561137
46 21.428600 0.0000000 0.0000000 1.3016405 0.7212217 0.1608520
47 23.722600 0.0000000 0.0000000 1.6063191 0.8792197 0.1620953
48 26.119400 0.0000000 0.0000000 1.9627958 1.0640317 0.1635649
49 28.625900 0.0000000 0.0000000 2.3931054 1.2873368 0.1636421
50 31.250000 0.0000000 0.0000000 2.8527797 1.5260988 0.1627309
51 34.000000 0.0000000 0.0000000 3.3850024 1.8022669 0.1624252
52 36.885200 0.0000000 0.0000000 4.0052196 2.1237019 0.1615334
53 39.916000 0.0000000 0.0000000 4.7294525 2.5000510 0.1601025
54 43.103500 0.0000000 0.0000000 5.5257212 2.9128941 0.1580844
55 46.460200 0.0000000 0.0000000 6.4556531 3.3956802 0.1564340
56 50.000000 0.0000000 0.0000000 7.5267791 3.9513543 0.1547052
57 53.738300 0.0000000 0.0000000 8.8069366 4.6162944 0.1524452
58 57.692300 0.0000000 0.0000000 10.354892 5.4210116 0.1496803
59 61.881200 0.0000000 0.0000000 12.209402 6.3792938 0.1453789
60 66.326500 0.0000000 0.0000000 14.397953 7.5186520 0.1419284
61 71.052600 0.0000000 0.0000000 16.930743 8.8313493 0.1375078
62 76.087000 0.0000000 0.0000000 19.951903 10.401163 0.1333192
63 81.460700 0.0000000 0.0000000 23.354784 12.163793 0.1259395
64 81.537200 0.0000000 20.195800 23.946994 12.368263 2.9236049
65 86.017100 0.0000000 54.579300 30.809044 15.133823 23.769089
66 100.00000 0.0000000 84.217600 49.639566 23.297225 66.564052
67 100.00000 0.0000000 100.00000 56.197395 25.192095 103.57126
68 100.00000 100.00000 100.00000 93.770570 99.981360 112.64160
69 0.0000000 4.4910000 0.0000000 0.1063379 0.1302836 0.1172460
70 0.0000000 6.0976000 0.0000000 0.1309446 0.1782366 0.1310947
71 0.0000000 7.7640000 0.0000000 0.1909723 0.2952306 0.1608153
72 0.0000000 9.4937000 0.0000000 0.2478379 0.4074276 0.1831246
73 0.0000000 11.290300 0.0000000 0.3427021 0.5947577 0.2134332
74 0.0000000 13.157900 0.0000000 0.4737064 0.8551107 0.2476111
75 0.0000000 15.100700 0.0000000 0.6018081 1.1106448 0.2771780
76 0.0000000 17.123300 0.0000000 0.7898828 1.4853328 0.3182541
77 0.0000000 19.230800 0.0000000 1.0225466 1.9489269 0.3689744
78 0.0000000 21.428600 0.0000000 1.2650406 2.4325230 0.4216437
79 0.0000000 23.722600 0.0000000 1.5620679 3.0255621 0.4862935
80 0.0000000 26.119400 0.0000000 1.9059478 3.7102013 0.5595098
81 0.0000000 28.625900 0.0000000 2.2904842 4.4786534 0.6432669
82 0.0000000 31.250000 0.0000000 2.7464984 5.3884316 0.7404382
83 0.0000000 34.000000 0.0000000 3.2717285 6.4365048 0.8545635
84 0.0000000 36.885200 0.0000000 3.8588477 7.6482770 0.9862547
85 0.0000000 39.916000 0.0000000 4.5782828 8.9857543 1.1290828
86 0.0000000 43.103500 0.0000000 5.3332661 10.537013 1.2964560
87 0.0000000 46.460200 0.0000000 6.2086573 12.335083 1.4918841
88 0.0000000 50.000000 0.0000000 7.2291776 14.361183 1.7107132
89 0.0000000 53.738300 0.0000000 8.4981989 16.826864 1.9777574
90 0.0000000 57.692300 0.0000000 10.033470 19.910644 2.3106685
91 0.0000000 61.881200 0.0000000 11.792071 23.452755 2.6943877
92 0.0000000 66.326500 0.0000000 13.936221 27.716496 3.1557009
93 0.0000000 71.052600 0.0000000 16.346772 32.598337 3.6836121
94 0.0000000 76.087000 0.0000000 19.245773 38.413338 4.3117954
95 0.0000000 81.460700 0.0000000 22.651313 45.196779 5.0484637
96 0.0000000 87.209300 0.0000000 26.709294 53.319961 5.9317440
97 24.859300 100.00000 51.238100 42.616637 76.736935 28.470638
98 28.432700 100.00000 73.999400 48.149747 78.483926 56.335357
99 41.327100 100.00000 83.665200 54.015367 80.920016 72.932217
100 23.019800 85.296900 100.00000 45.612843 57.793822 109.07229
101 48.937000 91.404400 100.00000 56.029465 69.751454 110.13549
102 46.973600 100.00000 100.00000 62.656837 84.041877 111.75690
103 60.891900 33.356000 100.00000 33.658907 18.454114 104.33855
104 68.168900 47.147100 100.00000 40.760432 27.172956 105.12737
105 76.060100 68.537300 100.00000 53.998119 47.111030 106.73598
106 0.0000000 0.0000000 13.157900 0.2572256 0.1449246 1.0561894
107 0.0000000 0.0000000 15.100700 0.3114009 0.1614196 1.3529277
108 0.0000000 0.0000000 17.123300 0.3993539 0.1879346 1.8411779
109 0.0000000 0.0000000 19.230800 0.4986945 0.2178446 2.3972352
110 0.0000000 0.0000000 21.428600 0.6123530 0.2527386 3.0346667
111 0.0000000 0.0000000 23.722600 0.7476693 0.2938556 3.7964869
112 0.0000000 0.0000000 26.119400 0.9033462 0.3409566 4.6796420
113 0.0000000 0.0000000 28.625900 1.0912930 0.3984816 5.7476812
114 0.0000000 0.0000000 31.250000 1.2881028 0.4583006 6.8676380
115 0.0000000 0.0000000 34.000000 1.5257323 0.5305936 8.2185742
116 0.0000000 0.0000000 36.885200 1.8001017 0.6141137 9.7821263
117 0.0000000 0.0000000 39.916000 2.1194432 0.7114827 11.599325
118 0.0000000 0.0000000 43.103500 2.4752860 0.8199497 13.617146
119 0.0000000 0.0000000 46.460200 2.8868794 0.9447647 15.954899
120 0.0000000 0.0000000 50.000000 3.3721579 1.0906237 18.696754
121 0.0000000 0.0000000 53.738300 3.9498253 1.2677518 21.974262
122 0.0000000 0.0000000 57.692300 4.6382752 1.4765968 25.869204
123 0.0000000 0.0000000 61.881200 5.4832667 1.7328029 30.647432
124 0.0000000 0.0000000 66.326500 6.4817312 2.0378839 36.309367
125 0.0000000 0.0000000 71.052600 7.6713773 2.3963630 43.031757
126 0.0000000 0.0000000 76.087000 9.0971450 2.8234881 51.080261
127 0.0000000 0.0000000 81.460700 10.692157 3.3042402 60.101460
128 0.0000000 0.0000000 87.209300 12.691359 3.9034713 71.421910
129 0.0000000 0.0000000 93.373500 15.132779 4.6257064 85.218052
130 0.0000000 88.908600 100.00000 46.569124 62.252883 109.14139
131 0.0000000 100.00000 100.00000 55.355167 80.160706 111.08650
132 26.753700 100.00000 100.00000 57.743207 81.485136 111.67720
133 1.4451000 0.0000000 0.0000000 0.0895967 0.0944724 0.1055368
134 2.9412000 0.0000000 0.0000000 0.0921829 0.0955947 0.1058290
135 2.4366000 2.4366000 2.4366000 0.0956015 0.1011516 0.1150902
136 2.9412000 2.9412000 2.9412000 0.0988702 0.1049946 0.1195478
137 3.4517000 3.4517000 3.4517000 0.1053061 0.1117546 0.1285168
138 3.9683000 3.9683000 3.9683000 0.1148433 0.1215286 0.1408942
139 4.4910000 4.4910000 4.4910000 0.1349201 0.1448106 0.1653629
140 5.0201000 5.0201000 5.0201000 0.1625509 0.1723716 0.2025463
141 5.5556000 5.5556000 5.5556000 0.1691436 0.1791516 0.2110311
142 6.0976000 6.0976000 6.0976000 0.1952946 0.2092296 0.2424553
143 6.6462000 6.6462000 6.6462000 0.2256045 0.2377676 0.2835782
144 7.2016000 7.2016000 7.2016000 0.2757823 0.2959886 0.3404697
145 7.7640000 7.7640000 7.7640000 0.3444988 0.3661226 0.4271243
146 8.3333000 8.3333000 8.3333000 0.4072885 0.4295386 0.4977787
147 8.9099000 8.9099000 8.9099000 0.4382212 0.4615706 0.5424850
148 9.4937000 9.4937000 9.4937000 0.4866200 0.5180386 0.5946435
149 10.084900 10.084900 10.084900 0.6045487 0.6484427 0.7276924
150 10.683800 10.683800 10.683800 0.6963843 0.7339247 0.8401663
151 11.290300 11.290300 11.290300 0.7319573 0.7800477 0.8740014
152 11.904800 11.904800 11.904800 0.8667042 0.9175957 1.0356249
153 12.527200 12.527200 12.527200 0.9353961 0.9922867 1.1097303
154 13.157900 13.157900 13.157900 1.0612714 1.1417308 1.2375387
155 13.796900 13.796900 13.796900 1.2133440 1.2929998 1.4181780
156 14.444400 14.444400 14.444400 1.2929065 1.3712478 1.5146343
157 15.100700 15.100700 15.100700 1.3907156 1.4929278 1.6044568
158 15.765800 15.765800 15.765800 1.5341822 1.6367059 1.7777112
159 16.439900 16.439900 16.439900 1.6824906 1.7900249 1.9484167
160 17.123300 17.123300 17.123300 1.8788524 2.0154299 2.1523808
161 17.816100 17.816100 17.816100 2.1056951 2.2562990 2.4018528
162 18.518500 18.518500 18.518500 2.3065794 2.4631130 2.6373778
163 19.230800 19.230800 19.230800 2.4846528 2.6435460 2.8475962
164 19.953100 19.953100 19.953100 2.6922430 2.8695351 3.0753119
165 20.685600 20.685600 20.685600 2.9077018 3.1014881 3.3046831
166 21.428600 21.428600 21.428600 3.1444184 3.3646082 3.5640363
167 22.182200 22.182200 22.182200 3.3744957 3.6144192 3.8164953
168 22.946900 22.946900 22.946900 3.6282910 3.8900913 4.0957115
169 23.722600 23.722600 23.722600 3.9060452 4.1863513 4.4067152
170 24.509800 24.509800 24.509800 4.1711993 4.4725024 4.7011440
171 25.308600 25.308600 25.308600 4.4834084 4.8033735 5.0520042
172 26.119400 26.119400 26.119400 4.7990145 5.1361515 5.4099729
173 26.942400 26.942400 26.942400 5.1133026 5.4652576 5.7695014
174 27.777800 27.777800 27.777800 5.4810046 5.8493277 6.1944287
175 28.625900 28.625900 28.625900 5.8636557 6.2411787 6.6275989
176 29.487200 29.487200 29.487200 6.1656518 6.5961848 6.9804561
177 30.361800 30.361800 30.361800 6.5616229 7.0354399 7.4038833
178 31.250000 31.250000 31.250000 7.0089640 7.4950170 7.8936055
179 32.152200 32.152200 32.152200 7.4391570 7.9227731 8.4009965
180 33.068800 33.068800 33.068800 7.8790562 8.4310542 8.8665287
181 34.000000 34.000000 34.000000 8.3576252 8.9236443 9.4100948
182 34.946200 34.946200 34.946200 8.8623513 9.4517954 10.000343
183 35.907900 35.907900 35.907900 9.3710514 10.014752 10.531613
184 36.885200 36.885200 36.885200 9.9558536 10.649643 11.269543
185 37.878800 37.878800 37.878800 10.461474 11.212503 11.786133
186 38.888900 38.888900 38.888900 11.136264 11.880583 12.552103
187 39.916000 39.916000 39.916000 11.702384 12.514813 13.201323
188 40.960500 40.960500 40.960500 12.331544 13.200963 13.872204
189 42.022800 42.022800 42.022800 13.033564 13.904653 14.689904
190 43.103500 43.103500 43.103500 13.635374 14.574803 15.430794
191 44.202900 44.202900 44.202900 14.410344 15.419664 16.284344
192 45.321600 45.321600 45.321600 15.157635 16.228904 17.083884
193 46.460200 46.460200 46.460200 15.974435 17.109864 18.058714
194 47.619100 47.619100 47.619100 16.815805 18.006714 18.950335
195 48.798800 48.798800 48.798800 17.675695 18.904204 19.930095
196 50.000000 50.000000 50.000000 18.578205 19.926754 21.001575
197 51.223200 51.223200 51.223200 19.624895 20.999415 22.158915
198 52.469100 52.469100 52.469100 20.716226 22.162535 23.495425
199 53.738300 53.738300 53.738300 21.874816 23.323405 24.829635
200 55.031400 55.031400 55.031400 23.013636 24.626835 26.080726
201 56.349200 56.349200 56.349200 24.231346 25.948016 27.507306
202 57.692300 57.692300 57.692300 25.644747 27.390386 29.109306
203 59.061500 59.061500 59.061500 27.021857 28.940086 30.627437
204 60.457500 60.457500 60.457500 28.556787 30.525276 32.496617
205 61.881200 61.881200 61.881200 30.199598 32.267887 34.367787
206 63.333300 63.333300 63.333300 31.738108 34.011497 36.064827
207 64.814800 64.814800 64.814800 33.637738 36.001018 38.291218
208 66.326500 66.326500 66.326500 35.485829 37.919428 40.427948
209 67.869400 67.869400 67.869400 37.504959 40.086368 42.834009
210 69.444400 69.444400 69.444400 39.633989 42.376119 45.329489
211 71.052600 71.052600 71.052600 41.779500 44.701109 47.825619
212 72.695000 72.695000 72.695000 44.016390 47.148290 50.323000
213 74.372800 74.372800 74.372800 46.418701 49.720170 53.174230
214 76.087000 76.087000 76.087000 49.035191 52.413881 56.288911
215 77.838800 77.838800 77.838800 51.679392 55.390451 59.235121
216 79.629600 79.629600 79.629600 54.564302 58.351052 62.882572
217 81.460700 81.460700 81.460700 57.551063 61.572893 66.269743
218 83.333300 83.333300 83.333300 60.675844 64.972783 69.924703
219 85.249000 85.249000 85.249000 64.059434 68.584974 74.022234
220 87.209300 87.209300 87.209300 67.536395 72.284745 78.208395
221 89.215700 89.215700 89.215700 71.165876 76.232405 82.575645
222 91.269800 91.269800 91.269800 75.226456 80.497696 87.649646
223 93.373500 93.373500 93.373500 79.527317 84.974637 93.077977
224 80.646500 29.731100 0.0000000 25.460919 16.783724 0.6437341
225 100.00000 52.585400 16.137000 46.338935 36.111158 3.5132295
226 73.122000 69.460900 0.0000000 33.920640 40.491088 3.4668639
227 100.00000 77.707000 0.0000000 58.059703 60.114092 4.4839697
228 100.00000 100.00000 0.0000000 75.107759 94.407659 8.2762708
229 100.00000 100.00000 50.911800 78.743419 95.564399 29.081560
230 53.757000 0.0000000 100.00000 27.071727 10.092012 103.28452
231 69.906900 0.0000000 100.00000 34.680370 13.995903 103.71074
232 86.894000 21.011100 100.00000 46.991895 22.251425 104.13946
233 100.00000 23.306300 100.00000 57.854378 28.380436 103.83047
234 100.00000 40.805200 100.00000 61.237552 35.291467 104.67428
235 0.0000000 71.626200 85.253300 29.044670 37.778458 71.116533
236 0.0000000 73.361600 100.00000 36.589280 41.991219 107.29168
237 50.862300 78.937700 100.00000 47.994501 52.823221 108.19439
238 0.0000000 43.172000 61.689900 10.978275 12.710293 31.708151
239 39.974000 57.796900 62.528400 20.951507 24.885695 34.477133
240 47.087400 78.725300 67.096500 34.915412 48.060860 42.825001
241 100.00000 84.191800 100.00000 81.290845 75.257665 109.24879
242 0.0000000 0.0000000 1.4451000 0.0876008 0.0931760 0.1076765
243 0.0000000 0.0000000 2.9412000 0.0889187 0.0936984 0.1148759
244 0.0000000 0.0000000 4.4910000 0.0957659 0.0960066 0.1513841
245 0.0000000 0.0000000 6.0976000 0.1047387 0.0985998 0.2030055
246 0.0000000 23.075200 11.832800 1.6567102 2.9837981 1.2505660
247 14.935700 27.427100 0.0000000 2.6343478 4.3919944 0.6027107
248 26.014900 35.130700 0.0000000 5.4353192 7.8994271 0.8984190
249 36.716100 64.112300 0.0000000 16.905110 27.634906 2.9058721
250 39.724500 76.788800 0.0000000 24.572642 41.854759 4.3979886
251 54.924000 100.00000 21.755100 47.544097 79.920506 11.553479
252 48.736900 100.00000 0.0000000 44.749357 78.607966 8.3028751
253 61.429300 100.00000 55.654500 54.151127 82.687177 32.961788
254 63.400000 100.00000 69.177800 57.991598 84.010497 49.556578
255 49.691500 40.528600 29.920200 13.564424 13.861813 7.6918364
256 62.976400 78.161700 34.452800 35.413402 48.762800 13.528116
257 73.951600 100.00000 35.492500 57.891948 84.980427 17.788149
258 0.0000000 25.046100 56.471100 6.2044675 4.9079635 25.202214
259 0.0000000 27.945000 69.363100 9.5007353 6.6895988 41.209692
260 0.0000000 46.819100 73.463000 14.861314 15.622284 48.091207
261 84.499600 47.757300 83.227300 43.896673 30.457136 65.863559
262 85.412200 0.0000000 67.719100 33.149443 15.758074 39.443242
263 84.959600 0.0000000 82.211500 36.860463 16.798014 62.505474
264 0.0000000 0.0000000 100.00000 18.398390 5.5700496 103.57967
265 22.057900 0.0000000 100.00000 19.648501 6.2257457 103.29679
266 24.301100 28.265200 100.00000 22.387413 11.150463 103.82553
267 43.467200 63.672800 100.00000 37.245727 34.786487 106.13117
268 53.899400 72.231500 100.00000 45.148310 45.420109 107.49338
269 82.820600 90.181200 100.00000 72.245716 76.984376 109.59789
270 100.00000 92.341100 100.00000 87.123928 87.091767 110.27580
271 0.0000000 0.0000000 9.4937000 0.1540732 0.1135996 0.4865608
272 18.504300 0.0000000 16.353100 1.2436902 0.6306537 1.7473214
273 28.384900 0.0000000 20.160100 2.8272888 1.4101798 2.8703160
274 34.102800 47.794700 22.978800 10.848447 15.402244 5.2325755
275 44.153400 70.231700 43.460800 24.747750 36.264938 17.944843
276 0.0000000 86.746800 36.693900 28.281584 53.625641 15.514596
277 0.0000000 100.00000 53.582300 41.040647 75.893045 30.038178
278 0.0000000 100.00000 67.538800 43.952657 76.848595 46.294967
279 64.250400 100.00000 93.556400 66.353348 86.619517 94.073497
280 0.0000000 26.265400 50.294500 5.3352457 4.9563485 19.290443
281 23.531000 42.810500 53.606300 10.965205 12.864753 23.467206
282 64.916700 72.407200 61.212300 36.863390 43.737599 34.630601
283 0.0000000 31.435900 21.572800 3.4161573 5.8209877 3.7934197
284 0.0000000 100.00000 21.158500 37.785287 75.020775 11.269319
285 28.195300 100.00000 36.127800 41.303337 76.412485 18.001958
286 31.196000 0.0000000 88.542600 16.036723 5.5066956 74.744828
287 42.054700 18.567400 100.00000 24.748739 10.271203 104.07402
288 51.079700 44.521700 100.00000 32.521810 21.848915 104.85286
289 0.0000000 15.796300 35.112900 2.2346020 1.7405999 9.0720509
290 0.0000000 22.475200 40.382900 3.5542154 3.4713222 12.265297
291 49.080600 40.416500 66.331000 18.871852 15.547904 38.206482
292 65.050700 50.214400 66.852700 28.188124 24.345825 39.547931
293 0.9579000 0.9579000 0.9579000 0.0890451 0.0951015 0.1073541
294 23.674700 46.670200 0.0000000 7.8806333 13.337123 1.5077683
295 47.904600 55.779900 0.0000000 16.277148 22.030095 2.1307000
296 70.485800 58.198900 0.0000000 27.006117 29.047996 2.3237776
297 76.613100 77.253900 94.246600 56.369352 56.118091 91.992499
298 95.528500 95.528500 95.528500 83.929388 89.715788 98.587318
299 0.0000000 42.660600 100.00000 23.944370 16.675414 104.76765
300 0.0000000 58.499400 100.00000 29.195745 27.174346 105.58897
301 30.273000 70.997600 100.00000 37.987939 40.693998 106.93538
302 50.422400 0.0000000 35.908300 9.3471310 4.5335524 9.7432925
303 63.178900 0.0000000 37.977900 14.778141 7.2949840 11.068668
304 72.780000 27.914300 43.723100 23.003348 14.659213 15.273094
305 100.00000 38.203300 54.517100 46.490732 29.584276 25.137268
306 33.309600 11.967000 0.0000000 3.6398797 2.3850830 0.2283921
307 44.667200 13.552100 0.0000000 6.5158143 4.0516183 0.2483486
308 55.750100 38.301100 41.684700 16.433632 14.378583 14.241674
309 64.429500 47.619500 48.589900 23.644794 21.570485 19.819956
310 93.373500 0.0000000 0.0000000 32.412955 16.876224 0.1174791
311 100.00000 0.0000000 22.027400 38.517876 19.920404 3.6230523
312 100.00000 0.0000000 40.575500 40.365616 20.516135 13.090559
313 100.00000 21.091500 41.508900 41.500598 22.847615 13.967450
314 100.00000 0.0000000 0.0000000 37.889586 19.722474 0.1216194
315 100.00000 0.0000000 13.711600 38.237546 19.855794 1.3585396
316 100.00000 0.0000000 60.815000 43.469896 21.432365 31.149262
317 100.00000 34.998500 62.953100 47.358371 28.627906 34.291455
318 100.00000 70.040800 65.701700 60.594720 53.946511 40.607733
319 100.00000 70.641100 89.667700 68.188661 57.004612 81.253360
320 100.00000 91.673300 91.770200 82.686907 84.802267 88.768027
321 87.209300 0.0000000 0.0000000 27.543225 14.343013 0.1217539
322 100.00000 33.926300 0.0000000 41.126931 26.054156 0.8014537
323 100.00000 38.353700 15.128200 42.342372 28.219626 2.4799054
324 100.00000 37.216000 25.146600 42.793582 27.981586 5.6928405
325 100.00000 37.717100 35.206900 43.751892 28.502586 10.650383
326 0.0000000 0.0000000 7.7640000 0.1324675 0.1069326 0.3612319
327 0.0000000 14.709400 26.156700 1.4078325 1.3376208 4.8817621
328 0.0000000 17.778700 45.619000 3.6253043 2.5597620 15.646555
329 0.0000000 18.221500 57.294700 5.4682877 3.2027372 25.775811
330 0.0000000 71.847600 64.753100 23.253401 36.146848 38.063188
331 52.475500 100.00000 75.717600 55.169357 82.215787 59.311737
332 71.758700 100.00000 81.501100 65.924768 87.349328 69.340928
333 72.493700 47.272200 0.0000000 24.416924 22.125575 1.5091386
334 72.370100 65.619600 41.306300 34.094249 37.608438 16.183894
335 88.561300 100.00000 60.727200 71.442729 91.350388 38.813419
336 100.00000 100.00000 64.058200 81.234759 96.294229 43.282730
337 18.731500 13.760400 0.0000000 1.4481221 1.4433598 0.2608598
338 20.285400 18.762300 0.0000000 2.0820944 2.4285890 0.3564064
339 56.954700 34.546400 0.0000000 13.659302 11.990643 0.8609842
340 68.856000 40.124800 19.911800 21.107402 17.796264 3.8730586
341 0.0000000 9.3330000 17.830200 0.5925990 0.5074986 2.1335644
342 0.0000000 17.552800 17.934700 1.2270912 1.7599209 2.3359091
343 0.0000000 21.339700 15.860500 1.5566879 2.5825810 1.8761952
344 0.0000000 25.842100 27.983300 2.8976271 4.0747013 5.9627376
345 0.0000000 55.788500 33.651800 10.957209 19.329394 10.228090
346 0.0000000 74.816600 59.283800 23.777542 39.185868 31.761800
347 0.0000000 100.00000 89.825800 50.863467 78.908236 85.273256
348 30.179600 23.760800 0.0000000 4.2212900 4.4234204 0.4827518
