storage/madVR 2019-05-01 17-25 0.3127x 0.329y S XYZLUT+MTX/madVR 2019-05-01 17-25 0.3127x 0.329y S XYZLUT+MTX.ti1
CTI1   

DESCRIPTOR "Argyll Calibration Target chart information 1"
ORIGINATOR "Argyll targen"
CREATED "Wed May 01 17:27:54 2019"
APPROX_WHITE_POINT "93.791199 100.000000 110.015869"
COLOR_REP "RGB"
ACCURATE_EXPECTED_VALUES "true"
DARK_REGION_EMPHASIS "1.6"
WHITE_COLOR_PATCHES "4"
BLACK_COLOR_PATCHES "4"
SINGLE_DIM_STEPS "33"
COMP_GREY_STEPS "97"
OFPS_PATCHES "1320"

NUMBER_OF_FIELDS 7
BEGIN_DATA_FORMAT
SAMPLE_ID RGB_R RGB_G RGB_B XYZ_X XYZ_Y XYZ_Z
END_DATA_FORMAT

NUMBER_OF_SETS 1545
BEGIN_DATA
1 100.00000 100.00000 100.00000 93.791200 100.00000 110.01590
2 1.9608000 1.9608000 1.9608000 1.1428000 1.1502000 1.1637000
3 3.9216000 3.9216000 3.9216000 1.2856000 1.3005000 1.3273000
4 5.8824000 5.8824000 5.8824000 1.4495000 1.4729000 1.5152000
5 9.8039000 9.8039000 9.8039000 1.9148000 1.9624000 2.0484000
6 13.726000 13.726000 13.726000 2.5817000 2.6639000 2.8126000
7 17.647000 17.647000 17.647000 3.4695000 3.5979000 3.8300000
8 21.569000 21.569000 21.569000 4.5953000 4.7822000 5.1201000
9 25.490000 25.490000 25.490000 5.9745000 6.2332000 6.7007000
10 29.412000 29.412000 29.412000 7.6213000 7.9656000 8.5879000
11 33.333000 33.333000 33.333000 9.5488000 9.9933000 10.797000
12 37.255000 37.255000 37.255000 11.769000 12.329000 13.341000
13 41.176000 41.176000 41.176000 14.294000 14.985000 16.234000
14 45.098000 45.098000 45.098000 17.134000 17.973000 19.489000
15 49.020000 49.020000 49.020000 20.299000 21.303000 23.117000
16 52.941000 52.941000 52.941000 23.800000 24.986000 27.129000
17 56.863000 56.863000 56.863000 27.646000 29.032000 31.536000
18 60.784000 60.784000 60.784000 31.846000 33.450000 36.349000
19 64.706000 64.706000 64.706000 36.409000 38.250000 41.578000
20 68.627000 68.627000 68.627000 41.343000 43.440000 47.232000
21 72.549000 72.549000 72.549000 46.656000 49.030000 53.321000
22 76.471000 76.471000 76.471000 52.356000 55.027000 59.853000
23 80.392000 80.392000 80.392000 58.452000 61.439000 66.838000
24 84.314000 84.314000 84.314000 64.949000 68.275000 74.285000
25 88.235000 88.235000 88.235000 71.857000 75.541000 82.200000
26 92.157000 92.157000 92.157000 79.181000 83.246000 90.594000
27 96.078000 96.078000 96.078000 86.929000 91.397000 99.472000
28 39.056800 25.776300 38.698100 8.6601210 6.8703910 11.689350
29 39.232800 31.981600 44.735500 10.462820 9.2554610 15.739340
30 42.241900 48.794100 61.852500 18.175320 18.633110 32.805410
31 0.0000000 1.4451000 0.0000000 0.0861383 0.0913773 0.1601430
32 0.0000000 2.9412000 0.0000000 0.0913205 0.1017800 0.1612740
33 31.292100 14.958300 16.408300 3.8970580 2.7716440 1.9668840
34 58.569800 29.686300 21.378100 14.241550 11.053600 3.8924860
35 76.198400 39.870100 37.902900 26.835880 20.310650 11.816180
36 100.00000 50.589000 46.203300 48.800460 35.973140 17.798150
37 4.4910000 0.0000000 0.0000000 0.1094040 0.0972043 0.1591990
38 6.0976000 0.0000000 0.0000000 0.1414300 0.1138010 0.1591620
39 7.7640000 0.0000000 0.0000000 0.1919030 0.1399570 0.1591030
40 9.4937000 0.0000000 0.0000000 0.2642080 0.1774270 0.1590190
41 11.290300 0.0000000 0.0000000 0.3626760 0.2284560 0.1589050
42 13.157900 0.0000000 0.0000000 0.4901960 0.2945400 0.1587570
43 15.100700 0.0000000 0.0000000 0.6510540 0.3779000 0.1585700
44 17.123300 0.0000000 0.0000000 0.8498840 0.4809380 0.1583390
45 19.230800 0.0000000 0.0000000 1.0900390 0.6053920 0.1580600
46 21.428600 0.0000000 0.0000000 1.3761530 0.7536630 0.1577270
47 23.722600 0.0000000 0.0000000 1.7124170 0.9279220 0.1573370
48 26.119400 0.0000000 0.0000000 2.1031500 1.1304090 0.1568830
49 28.625900 0.0000000 0.0000000 2.5517000 1.3628580 0.1563620
50 31.250000 0.0000000 0.0000000 3.0614170 1.6270050 0.1557700
51 34.000000 0.0000000 0.0000000 3.6346520 1.9240690 0.1551040
52 36.885200 0.0000000 0.0000000 4.2798560 2.2584280 0.1543540
53 39.916000 0.0000000 0.0000000 5.0092720 2.6364280 0.1535070
54 43.103500 0.0000000 0.0000000 5.8390970 3.0664630 0.1525430
55 46.460200 0.0000000 0.0000000 6.7961670 3.5624380 0.1514310
56 50.000000 0.0000000 0.0000000 7.9136300 4.1415330 0.1501330
57 53.738300 0.0000000 0.0000000 9.2270480 4.8221760 0.1486080
58 57.692300 0.0000000 0.0000000 10.774470 5.6240850 0.1468100
59 61.881200 0.0000000 0.0000000 12.621680 6.5813500 0.1446640
60 66.326500 0.0000000 0.0000000 14.824710 7.7230110 0.1421050
61 71.052600 0.0000000 0.0000000 17.375460 9.0448680 0.1391420
62 76.087000 0.0000000 0.0000000 20.294970 10.557830 0.1357510
63 81.460700 0.0000000 0.0000000 23.724500 12.335090 0.1317670
64 81.537200 0.0000000 20.195800 24.277500 12.511930 2.9285590
65 86.017100 0.0000000 54.579300 31.169990 15.272940 23.591330
66 100.00000 0.0000000 84.217600 50.304270 23.497100 66.694950
67 100.00000 0.0000000 100.00000 56.624730 25.390940 101.90780
68 100.00000 100.00000 100.00000 93.791200 100.00000 110.01590
69 0.0000000 4.4910000 0.0000000 0.1044420 0.1281200 0.1641360
70 0.0000000 6.0976000 0.0000000 0.1320350 0.1835130 0.1701560
71 0.0000000 7.7640000 0.0000000 0.1781970 0.2761780 0.1802270
72 0.0000000 9.4937000 0.0000000 0.2458120 0.4119110 0.1949770
73 0.0000000 11.290300 0.0000000 0.3394260 0.5998340 0.2154000
74 0.0000000 13.157900 0.0000000 0.4614710 0.8448300 0.2420250
75 0.0000000 15.100700 0.0000000 0.6168630 1.1567700 0.2759250
76 0.0000000 17.123300 0.0000000 0.8082040 1.5408720 0.3176670
77 0.0000000 19.230800 0.0000000 1.0395840 2.0053520 0.3681440
78 0.0000000 21.428600 0.0000000 1.3139320 2.5560850 0.4279950
79 0.0000000 23.722600 0.0000000 1.6342070 3.1990160 0.4978650
80 0.0000000 26.119400 0.0000000 2.0024270 3.9381900 0.5781950
81 0.0000000 28.625900 0.0000000 2.4196450 4.7757270 0.6692140
82 0.0000000 31.250000 0.0000000 2.8873910 5.7146930 0.7712560
83 0.0000000 34.000000 0.0000000 3.4051410 6.7540410 0.8842070
84 0.0000000 36.885200 0.0000000 3.9843890 7.9168390 1.0105730
85 0.0000000 39.916000 0.0000000 4.6468000 9.2465820 1.1550830
86 0.0000000 43.103500 0.0000000 5.4195710 10.797870 1.3236680
87 0.0000000 46.460200 0.0000000 6.3434860 12.652560 1.5252260
88 0.0000000 50.000000 0.0000000 7.4545160 14.882870 1.7676050
89 0.0000000 53.738300 0.0000000 8.7515830 17.486640 2.0505690
90 0.0000000 57.692300 0.0000000 10.235540 20.465580 2.3743040
91 0.0000000 61.881200 0.0000000 12.016360 24.040440 2.7628020
92 0.0000000 66.326500 0.0000000 14.204050 28.432090 3.2400630
93 0.0000000 71.052600 0.0000000 16.711400 33.465420 3.7870580
94 0.0000000 76.087000 0.0000000 19.667230 39.399030 4.4318910
95 0.0000000 81.460700 0.0000000 23.096930 46.283910 5.1801030
96 0.0000000 87.209300 0.0000000 27.120570 54.361080 6.0578880
97 24.859300 100.00000 51.238100 42.704900 76.722910 28.573660
98 28.432700 100.00000 73.999400 48.372760 78.557290 56.681920
99 41.327100 100.00000 83.665200 54.289530 80.953610 73.752440
100 23.019800 85.296900 100.00000 45.554490 57.893900 107.55230
101 48.937000 91.404400 100.00000 55.972880 69.931390 108.51780
102 46.973600 100.00000 100.00000 62.388930 83.726620 110.05230
103 60.891900 33.356000 100.00000 33.635920 18.242100 102.63610
104 68.168900 47.147100 100.00000 40.542790 26.687330 103.34470
105 76.060100 68.537300 100.00000 53.833030 46.704110 105.26290
106 0.0000000 0.0000000 13.157900 0.2575750 0.1356020 1.1376540
107 0.0000000 0.0000000 15.100700 0.3301460 0.1573470 1.5419650
108 0.0000000 0.0000000 17.123300 0.4199510 0.1842560 2.0422910
109 0.0000000 0.0000000 19.230800 0.5289930 0.2169290 2.6497860
110 0.0000000 0.0000000 21.428600 0.6586980 0.2557940 3.3724080
111 0.0000000 0.0000000 23.722600 0.8100960 0.3011580 4.2158790
112 0.0000000 0.0000000 26.119400 0.9835690 0.3531380 5.1823390
113 0.0000000 0.0000000 28.625900 1.1797170 0.4119110 6.2751300
114 0.0000000 0.0000000 31.250000 1.3978540 0.4772730 7.4904230
115 0.0000000 0.0000000 34.000000 1.6367770 0.5488630 8.8215200
116 0.0000000 0.0000000 36.885200 1.9015430 0.6281980 10.296600
117 0.0000000 0.0000000 39.916000 2.2052630 0.7192040 11.988700
118 0.0000000 0.0000000 43.103500 2.5626900 0.8263020 13.980010
119 0.0000000 0.0000000 46.460200 2.9951190 0.9558750 16.389180
120 0.0000000 0.0000000 50.000000 3.5273570 1.1153530 19.354400
121 0.0000000 0.0000000 53.738300 4.1478940 1.3012900 22.811560
122 0.0000000 0.0000000 57.692300 4.8439740 1.5098620 26.689600
123 0.0000000 0.0000000 61.881200 5.6757120 1.7590820 31.323410
124 0.0000000 0.0000000 66.326500 6.7384270 2.0775120 37.244060
125 0.0000000 0.0000000 71.052600 7.9634140 2.4445650 44.068760
126 0.0000000 0.0000000 76.087000 9.4035030 2.8760700 52.091840
127 0.0000000 0.0000000 81.460700 11.106730 3.3864220 61.580940
128 0.0000000 0.0000000 87.209300 13.127550 3.9919350 72.839410
129 0.0000000 0.0000000 93.373500 15.487470 4.6990580 85.987110
130 0.0000000 88.908600 100.00000 46.616710 62.294920 108.11810
131 0.0000000 100.00000 100.00000 55.519570 80.166760 110.06030
132 26.753700 100.00000 100.00000 57.650780 81.271210 110.05790
133 1.4451000 0.0000000 0.0000000 0.0862617 0.0852116 0.1592260
134 2.9412000 0.0000000 0.0000000 0.0924733 0.0884306 0.1592190
135 2.4366000 2.4366000 2.4366000 0.0997194 0.1029600 0.1755490
136 2.9412000 2.9412000 2.9412000 0.1054690 0.1083190 0.1814840
137 3.4517000 3.4517000 3.4517000 0.1142530 0.1171610 0.1915090
138 3.9683000 3.9683000 3.9683000 0.1263050 0.1287980 0.2045340
139 4.4910000 4.4910000 4.4910000 0.1421140 0.1454080 0.2210650
140 5.0201000 5.0201000 5.0201000 0.1617370 0.1659750 0.2419710
141 5.5556000 5.5556000 5.5556000 0.1864030 0.1916050 0.2688540
142 6.0976000 6.0976000 6.0976000 0.2147500 0.2212970 0.2995610
143 6.6462000 6.6462000 6.6462000 0.2480500 0.2565570 0.3364980
144 7.2016000 7.2016000 7.2016000 0.2875080 0.2987690 0.3783950
145 7.7640000 7.7640000 7.7640000 0.3324730 0.3464380 0.4270650
146 8.3333000 8.3333000 8.3333000 0.3829700 0.4001130 0.4830730
147 8.9099000 8.9099000 8.9099000 0.4399750 0.4608950 0.5462030
148 9.4937000 9.4937000 9.4937000 0.5038070 0.5290540 0.6167430
149 10.084900 10.084900 10.084900 0.5747450 0.6050040 0.6943360
150 10.683800 10.683800 10.683800 0.6526820 0.6886460 0.7812950
151 11.290300 11.290300 11.290300 0.7388820 0.7808880 0.8765750
152 11.904800 11.904800 11.904800 0.8322140 0.8804750 0.9816610
153 12.527200 12.527200 12.527200 0.9339170 0.9897240 1.0946690
154 13.157900 13.157900 13.157900 1.0453320 1.1090130 1.2199740
155 13.796900 13.796900 13.796900 1.1651110 1.2374070 1.3540070
156 14.444400 14.444400 14.444400 1.2944380 1.3759150 1.5000560
157 15.100700 15.100700 15.100700 1.4341530 1.5260570 1.6579980
158 15.765800 15.765800 15.765800 1.5833190 1.6856650 1.8259430
159 16.439900 16.439900 16.439900 1.7427350 1.8562720 2.0069500
160 17.123300 17.123300 17.123300 1.9141280 2.0401070 2.1998350
161 17.816100 17.816100 17.816100 2.0954120 2.2342800 2.4054430
162 18.518500 18.518500 18.518500 2.2893580 2.4421760 2.6245690
163 19.230800 19.230800 19.230800 2.4947060 2.6617140 2.8575280
164 19.953100 19.953100 19.953100 2.7115990 2.8935840 3.1039480
165 20.685600 20.685600 20.685600 2.9424510 3.1404950 3.3652600
166 21.428600 21.428600 21.428600 3.1848720 3.3995820 3.6396690
167 22.182200 22.182200 22.182200 3.4408820 3.6731970 3.9290110
168 22.946900 22.946900 22.946900 3.7099900 3.9603270 4.2336460
169 23.722600 23.722600 23.722600 3.9928090 4.2621370 4.5526200
170 24.509800 24.509800 24.509800 4.2898210 4.5787080 4.8864050
171 25.308600 25.308600 25.308600 4.6003690 4.9095360 5.2354920
172 26.119400 26.119400 26.119400 4.9252350 5.2557770 5.5989550
173 26.942400 26.942400 26.942400 5.2651590 5.6173570 5.9788360
174 27.777800 27.777800 27.777800 5.6186750 5.9929730 6.3727490
175 28.625900 28.625900 28.625900 5.9871520 6.3845370 6.7822440
176 29.487200 29.487200 29.487200 6.3711130 6.7922360 7.2064830
177 30.361800 30.361800 30.361800 6.7692370 7.2148760 7.6456060
178 31.250000 31.250000 31.250000 7.1827520 7.6530120 8.0989870
179 32.152200 32.152200 32.152200 7.6106340 8.1062540 8.5656830
180 33.068800 33.068800 33.068800 8.0539520 8.5756500 9.0471680
181 34.000000 34.000000 34.000000 8.5126600 9.0610140 9.5423680
182 34.946200 34.946200 34.946200 8.9892150 9.5648050 10.055120
183 35.907900 35.907900 35.907900 9.4847940 10.089860 10.587170
184 36.885200 36.885200 36.885200 10.001880 10.637510 11.143070
185 37.878800 37.878800 37.878800 10.541730 11.209590 11.725070
186 38.888900 38.888900 38.888900 11.105960 11.808420 12.335180
187 39.916000 39.916000 39.916000 11.697420 12.436250 12.978820
188 40.960500 40.960500 40.960500 12.317930 13.096500 13.658120
189 42.022800 42.022800 42.022800 12.970000 13.791310 14.375450
190 43.103500 43.103500 43.103500 13.657450 14.524670 15.137760
191 44.202900 44.202900 44.202900 14.383760 15.301860 15.948560
192 45.321600 45.321600 45.321600 15.153860 16.127570 16.816330
193 46.460200 46.460200 46.460200 15.970860 17.004910 17.747370
194 47.619100 47.619100 47.619100 16.840340 17.939600 18.749390
195 48.798800 48.798800 48.798800 17.760770 18.929920 19.820230
196 50.000000 50.000000 50.000000 18.731590 19.973800 20.953680
197 51.223200 51.223200 51.223200 19.754970 21.073940 22.142680
198 52.469100 52.469100 52.469100 20.832650 22.231560 23.390030
199 53.738300 53.738300 53.738300 21.962610 23.444150 24.692280
200 55.031400 55.031400 55.031400 23.145180 24.710110 26.044200
201 56.349200 56.349200 56.349200 24.383780 26.035220 27.438050
202 57.692300 57.692300 57.692300 25.690070 27.433570 28.892250
203 59.061500 59.061500 59.061500 27.081640 28.924100 30.441060
204 60.457500 60.457500 60.457500 28.563370 30.512290 32.110610
205 61.881200 61.881200 61.881200 30.149830 32.214920 33.912410
206 63.333300 63.333300 63.333300 31.856020 34.049710 35.877910
207 64.814800 64.814800 64.814800 33.679050 36.005970 38.024530
208 66.326500 66.326500 66.326500 35.603280 38.066660 40.307760
209 67.869400 67.869400 67.869400 37.625980 40.230400 42.691390
210 69.444400 69.444400 69.444400 39.719950 42.466510 45.165060
211 71.052600 71.052600 71.052600 41.886370 44.788900 47.676500
212 72.695000 72.695000 72.695000 44.169130 47.241890 50.334600
213 74.372800 74.372800 74.372800 46.601710 49.865860 53.204310
214 76.087000 76.087000 76.087000 49.201790 52.666960 56.341020
215 77.838800 77.838800 77.838800 51.946310 55.615260 59.660310
216 79.629600 79.629600 79.629600 54.800900 58.668920 63.082260
217 81.460700 81.460700 81.460700 57.764240 61.839450 66.574350
218 83.333300 83.333300 83.333300 60.921610 65.212900 70.281710
219 85.249000 85.249000 85.249000 64.375300 68.894440 74.433940
220 87.209300 87.209300 87.209300 67.918700 72.652040 78.705830
221 89.215700 89.215700 89.215700 71.606790 76.563050 83.048340
222 91.269800 91.269800 91.269800 75.552740 80.738720 87.699570
223 93.373500 93.373500 93.373500 79.768050 85.178300 92.858910
224 80.646500 29.731100 0.0000000 25.717810 17.138140 0.6846770
225 100.00000 52.585400 16.137000 46.903910 36.580930 3.5456170
226 73.122000 69.460900 0.0000000 34.315140 41.310290 3.5784260
227 100.00000 77.707000 0.0000000 58.960920 61.283980 4.6104030
228 100.00000 100.00000 0.0000000 75.520060 94.525270 8.2228910
229 100.00000 100.00000 50.911800 79.111990 95.601550 28.234440
230 53.757000 0.0000000 100.00000 27.505140 10.300500 101.94160
231 69.906900 0.0000000 100.00000 35.015320 14.192450 101.93290
232 86.894000 21.011100 100.00000 47.049910 22.182550 102.17710
233 100.00000 23.306300 100.00000 58.116440 28.385450 102.23320
234 100.00000 40.805200 100.00000 61.396420 34.969770 102.94870
235 0.0000000 71.626200 85.253300 29.361870 37.795230 72.575590
236 0.0000000 73.361600 100.00000 36.284880 41.554500 105.86410
237 50.862300 78.937700 100.00000 47.866280 52.707990 106.60940
238 0.0000000 43.172000 61.689900 10.989830 12.497030 32.262570
239 39.974000 57.796900 62.528400 20.955000 24.828560 34.335510
240 47.087400 78.725300 67.096500 35.095480 48.383680 42.972760
241 100.00000 84.191800 100.00000 81.508620 75.343590 107.33630
242 0.0000000 0.0000000 1.4451000 0.0832632 0.0833718 0.1665190
243 0.0000000 0.0000000 2.9412000 0.0855849 0.0840675 0.1794530
244 0.0000000 0.0000000 4.4910000 0.0921791 0.0860434 0.2161910
245 0.0000000 0.0000000 6.0976000 0.1051950 0.0899434 0.2887050
246 0.0000000 23.075200 11.832800 1.6744520 3.0508650 1.2242600
247 14.935700 27.427100 0.0000000 2.7702780 4.6544190 0.6241810
248 26.014900 35.130700 0.0000000 5.6303420 8.2374310 0.9302570
249 36.716100 64.112300 0.0000000 17.242710 28.338650 2.9908620
250 39.724500 76.788800 0.0000000 24.987150 42.811550 4.5222650
251 54.924000 100.00000 21.755100 47.436320 79.841070 11.584100
252 48.736900 100.00000 0.0000000 44.668420 78.537250 8.2587290
253 61.429300 100.00000 55.654500 53.977120 82.399650 32.761500
254 63.400000 100.00000 69.177800 57.909090 83.782510 49.449240
255 49.691500 40.528600 29.920200 13.722270 13.897880 7.8842830
256 62.976400 78.161700 34.452800 35.634140 49.277180 13.589530
257 73.951600 100.00000 35.492500 57.879210 85.014120 17.657030
258 0.0000000 25.046100 56.471100 6.3762210 4.9603360 25.849690
259 0.0000000 27.945000 69.363100 9.7465310 6.7725300 42.111620
260 0.0000000 46.819100 73.463000 14.987150 15.424630 49.110390
261 84.499600 47.757300 83.227300 44.109690 30.271050 66.236470
262 85.412200 0.0000000 67.719100 33.531520 15.884140 39.205660
263 84.959600 0.0000000 82.211500 37.455450 16.987660 62.908460
264 0.0000000 0.0000000 100.00000 18.353100 5.5577080 101.95220
265 22.057900 0.0000000 100.00000 19.735670 6.2741870 101.95060
266 24.301100 28.265200 100.00000 22.350410 11.018750 102.44680
267 43.467200 63.672800 100.00000 36.995120 34.259040 104.73470
268 53.899400 72.231500 100.00000 44.841890 45.023780 105.71210
269 82.820600 90.181200 100.00000 72.120610 76.907590 108.29410
270 100.00000 92.341100 100.00000 87.484150 87.339050 108.63990
271 0.0000000 0.0000000 9.4937000 0.1576970 0.1056750 0.5812090
272 18.504300 0.0000000 16.353100 1.3054300 0.6509680 1.8415000
273 28.384900 0.0000000 20.160100 3.0067390 1.4893930 2.9416450
274 34.102800 47.794700 22.978800 10.999270 15.518330 5.3830140
275 44.153400 70.231700 43.460800 24.835020 36.458560 17.742710
276 0.0000000 86.746800 36.693900 28.590700 54.235780 16.021840
277 0.0000000 100.00000 53.582300 41.287580 75.902320 30.770470
278 0.0000000 100.00000 67.538800 44.216030 76.779790 47.085550
279 64.250400 100.00000 93.556400 66.416800 86.423410 94.510930
280 0.0000000 26.265400 50.294500 5.5180480 5.0313070 20.040130
281 23.531000 42.810500 53.606300 10.989000 12.689150 23.831630
282 64.916700 72.407200 61.212300 36.935970 43.877040 34.305090
283 0.0000000 31.435900 21.572800 3.5072560 5.9586370 4.0422210
284 0.0000000 100.00000 21.158500 37.808280 74.859790 11.386460
285 28.195300 100.00000 36.127800 41.386210 76.454230 18.003520
286 31.196000 0.0000000 88.542600 16.577100 5.6744430 75.515460
287 42.054700 18.567400 100.00000 24.710730 10.165140 102.13820
288 51.079700 44.521700 100.00000 32.262290 21.273200 103.18900
289 0.0000000 15.796300 35.112900 2.3337780 1.7774160 9.5084130
290 0.0000000 22.475200 40.382900 3.6290700 3.4925390 12.565290
291 49.080600 40.416500 66.331000 18.950430 15.375980 38.262810
292 65.050700 50.214400 66.852700 28.404110 24.360470 39.602890
293 0.9579000 0.9579000 0.9579000 0.0885436 0.0903133 0.1651880
294 23.674700 46.670200 0.0000000 8.0285360 13.618150 1.5368710
295 47.904600 55.779900 0.0000000 16.657740 22.699450 2.2056890
296 70.485800 58.198900 0.0000000 27.417440 29.670210 2.3986110
297 76.613100 77.253900 94.246600 56.713660 56.243130 92.460470
298 95.528500 95.528500 95.528500 84.211450 89.859790 98.315700
299 0.0000000 42.660600 100.00000 23.578140 16.046610 103.09210
300 0.0000000 58.499400 100.00000 28.829830 26.589010 104.23780
301 30.273000 70.997600 100.00000 37.737280 40.322770 105.57020
302 50.422400 0.0000000 35.908300 9.7826660 4.7324650 9.7753200
303 63.178900 0.0000000 37.977900 15.166180 7.4790610 10.871960
304 72.780000 27.914300 43.723100 23.119570 14.763270 14.859730
305 100.00000 38.203300 54.517100 46.737370 29.572150 24.430480
306 33.309600 11.967000 0.0000000 3.7855460 2.4466280 0.2203710
307 44.667200 13.552100 0.0000000 6.6819030 4.1118280 0.2411940
308 55.750100 38.301100 41.684700 16.512760 14.352620 13.968610
309 64.429500 47.619500 48.589900 23.693040 21.459160 19.553300
310 93.373500 0.0000000 0.0000000 32.689560 16.980990 0.1213530
311 100.00000 0.0000000 22.027400 38.968270 20.100400 3.5393180
312 100.00000 0.0000000 40.575500 40.547410 20.573570 12.337100
313 100.00000 21.091500 41.508900 41.837760 22.988760 13.167430
314 100.00000 0.0000000 0.0000000 38.353590 19.916220 0.1147730
315 100.00000 0.0000000 13.711600 38.548280 19.974550 1.1994350
316 100.00000 0.0000000 60.815000 43.722060 21.524810 30.023840
317 100.00000 34.998500 62.953100 47.704330 28.726970 33.375020
318 100.00000 70.040800 65.701700 60.932150 54.143970 39.824430
319 100.00000 70.641100 89.667700 68.691330 57.022300 81.318100
320 100.00000 91.673300 91.770200 83.440300 85.244360 88.878420
321 87.209300 0.0000000 0.0000000 27.834500 14.464980 0.1269920
322 100.00000 33.926300 0.0000000 41.662480 26.558570 0.8366290
323 100.00000 38.353700 15.128200 42.818630 28.453710 2.4234150
324 100.00000 37.216000 25.146600 43.154920 28.137970 5.6025340
325 100.00000 37.717100 35.206900 44.094800 28.600860 10.270640
326 0.0000000 0.0000000 7.7640000 0.1262840 0.0962625 0.4061970
327 0.0000000 14.709400 26.156700 1.4875920 1.3601250 5.3073520
328 0.0000000 17.778700 45.619000 3.6748370 2.5164620 15.922780
329 0.0000000 18.221500 57.294700 5.6144200 3.1799930 26.470510
330 0.0000000 71.847600 64.753100 23.411570 36.222380 38.766500
331 52.475500 100.00000 75.717600 55.141300 81.952110 59.549460
332 71.758700 100.00000 81.501100 65.973900 87.165540 69.741040
333 72.493700 47.272200 0.0000000 24.689430 22.522220 1.5572830
334 72.370100 65.619600 41.306300 34.148880 37.732330 15.808390
335 88.561300 100.00000 60.727200 71.366710 91.203400 38.042240
336 100.00000 100.00000 64.058200 81.611680 96.350550 42.160790
337 18.731500 13.760400 0.0000000 1.4544920 1.4263610 0.2507270
338 20.285400 18.762300 0.0000000 2.1262930 2.4879260 0.3550140
339 56.954700 34.546400 0.0000000 13.901430 12.351430 0.8952780
340 68.856000 40.124800 19.911800 21.273190 17.828110 3.8520520
341 0.0000000 9.3330000 17.830200 0.6113980 0.5091380 2.2703550
342 0.0000000 17.552800 17.934700 1.2306650 1.7432540 2.4337200
343 0.0000000 21.339700 15.860500 1.5824300 2.6165440 1.9865340
344 0.0000000 25.842100 27.983300 3.0045060 4.1630440 6.3973860
345 0.0000000 55.788500 33.651800 11.027940 19.453710 10.704940
346 0.0000000 74.816600 59.283800 23.945150 39.343090 32.458460
347 0.0000000 100.00000 89.825800 51.239470 78.884290 86.214890
348 30.179600 23.760800 0.0000000 4.4063790 4.6439270 0.4958680
349 42.080200 28.371300 0.0000000 7.8590030 7.5297560 0.6533560
350 100.00000 46.434100 0.0000000 44.607430 32.470360 1.4790910
351 100.00000 67.575900 0.0000000 53.127800 49.574410 3.3378690
352 100.00000 75.010200 33.462700 58.781190 58.348900 12.640290
353 100.00000 85.920500 44.002600 67.064360 73.127790 20.243030
354 100.00000 100.00000 84.662100 87.633410 98.154890 75.709320
355 0.0000000 50.093100 54.848600 11.743510 16.220470 25.498240
356 0.0000000 59.014800 55.051600 15.064180 22.825880 26.412580
357 0.0000000 63.572200 66.728600 19.577880 27.675810 40.596720
358 0.0000000 0.0000000 0.0000000 0.0819551 0.0829799 0.1592310
359 0.4762000 0.4762000 0.4762000 0.0851515 0.0866020 0.1617520
360 28.431100 29.104600 16.564400 5.2481050 6.2973340 2.4214300
361 29.138700 55.208300 45.125800 14.587480 20.712520 17.390900
362 100.00000 62.396800 45.029200 53.247600 45.168970 17.926680
363 100.00000 82.258300 59.718600 67.039830 68.712730 33.922360
364 100.00000 91.264500 71.128700 76.282990 82.562810 50.686410
365 25.470300 0.0000000 37.557600 3.8779920 1.6382640 10.655650
366 43.535200 0.0000000 40.614500 8.1548680 3.7860880 12.398280
367 100.00000 0.0000000 70.874100 46.188360 22.263810 43.764200
368 100.00000 17.293200 78.626500 49.222670 24.442880 56.688650
