storage/madVR 2019-05-01 17-25 0.3127x 0.329y S XYZLUT+MTX/madVR 2019-05-01 17-25 0.3127x 0.329y S XYZLUT+MTX.ti3
CTI3   

DESCRIPTOR "Argyll Calibration Target chart information 3"
ORIGINATOR "Argyll dispread"
CREATED "Wed May 01 17:28:17 2019"
DEVICE_CLASS "DISPLAY"
SINGLE_DIM_STEPS "33"
COMP_GREY_STEPS "97"
DARK_REGION_EMPHASIS "1.6"
COLOR_REP "RGB_XYZ"
TARGET_INSTRUMENT "X-Rite i1 DisplayPro, ColorMunki Display"
DISPLAY_TYPE_REFRESH "NO"
DISPLAY_TYPE_BASE_ID "1"
INSTRUMENT_TYPE_SPECTRAL "NO"
LUMINANCE_XYZ_CDM2 "202.571729 216.086284 243.409391"
NORMALIZED_TO_Y_100 "YES"
VIDEO_LUT_CALIBRATION_POSSIBLE "YES"

BEGIN_ARGYLL_COLPROF_ARGS
-v -qh -aX -bl -C "No copyright. Created with DisplayCAL 3.8.0.0 and ArgyllCMS 2.1.0_mod" -M "madVR"
END_ARGYLL_COLPROF_ARGS

OBSERVER "1931_2"
USE_BLACK_POINT_COMPENSATION "NO"
BLACK_POINT_CORRECTION "0.0"
HIRES_B2A "NO"
HIRES_B2A_SIZE "-1"
SMOOTH_B2A "YES"
PATCH_SEQUENCE "OPTIMIZE_DISPLAY_RESPONSE_DELAY"
3DLUT_HDR_MAXMLL_ALT_CLIP "1"
3DLUT_HDR_SAT "0.5"
3DLUT_HDR_PEAK_LUMINANCE "480.0"
3DLUT_HDR_MAXMLL "10000.0"
3DLUT_GAMUT_MAPPING_MODE "G"
3DLUT_HDR_MINMLL "0.0"
3DLUT_SOURCE_PROFILE "ref/Rec709.icm"
3DLUT_RENDERING_INTENT "aw"
3DLUT_HDR_DISPLAY "0"
3DLUT_FORMAT "madVR"
3DLUT_HDR_AMBIENT_LUMINANCE "5.0"
3DLUT_APPLY_CAL "1"
3DLUT_SIZE "65"
3DLUT_GAMMA "-2.4"
3DLUT_INPUT_ENCODING "t"
3DLUT_OUTPUT_ENCODING "t"
3DLUT_INPUT_BITDEPTH "10"
3DLUT_TRC "bt1886"
3DLUT_OUTPUT_BITDEPTH "12"
3DLUT_DEGREE_OF_BLACK_OUTPUT_OFFSET "0.0"
3DLUT_HDR_HUE "0.5"
3DLUT_CONTENT_COLORSPACE_WHITE_X "0.3127"
3DLUT_CONTENT_COLORSPACE_WHITE_Y "0.329"
3DLUT_CONTENT_COLORSPACE_RED_X "0.68"
3DLUT_CONTENT_COLORSPACE_RED_Y "0.32"
3DLUT_CONTENT_COLORSPACE_GREEN_X "0.265"
3DLUT_CONTENT_COLORSPACE_GREEN_Y "0.69"
3DLUT_CONTENT_COLORSPACE_BLUE_X "0.15"
3DLUT_CONTENT_COLORSPACE_BLUE_Y "0.06"

NUMBER_OF_FIELDS 7
BEGIN_DATA_FORMAT
SAMPLE_ID RGB_R RGB_G RGB_B XYZ_X XYZ_Y XYZ_Z
END_DATA_FORMAT

NUMBER_OF_SETS 1545
BEGIN_DATA
1 100.00000 100.00000 100.00000 93.745760 100.00000 112.64450
2 1.9608000 1.9608000 1.9608000 0.0966421 0.0983632 0.1716710
3 3.9216000 3.9216000 3.9216000 0.1167950 0.1195940 0.1948320
4 5.8824000 5.8824000 5.8824000 0.1903920 0.1977380 0.2766760
5 9.8039000 9.8039000 9.8039000 0.5355940 0.5654310 0.6605360
6 13.726000 13.726000 13.726000 1.2018660 1.2747180 1.3973650
7 17.647000 17.647000 17.647000 2.0791180 2.2108300 2.3685020
8 21.569000 21.569000 21.569000 3.1979300 3.4022820 3.6048720
9 25.490000 25.490000 25.490000 4.5620400 4.8556900 5.1169260
10 29.412000 29.412000 29.412000 6.1537110 6.5508890 6.8763860
11 33.333000 33.333000 33.333000 8.0499310 8.5728930 8.9766340
12 37.255000 37.255000 37.255000 10.159560 10.808180 11.316940
13 41.176000 41.176000 41.176000 12.464050 13.273240 13.915610
14 45.098000 45.098000 45.098000 15.004590 15.984550 16.768570
15 49.020000 49.020000 49.020000 17.829320 19.013090 19.948790
16 52.941000 52.941000 52.941000 21.054940 22.481950 23.577160
17 56.863000 56.863000 56.863000 24.724260 26.372960 27.734510
18 60.784000 60.784000 60.784000 28.819520 30.794120 32.425180
19 64.706000 64.706000 64.706000 33.468390 35.760280 37.733710
20 68.627000 68.627000 68.627000 38.442180 41.079740 43.484620
21 72.549000 72.549000 72.549000 43.722370 46.751870 49.590470
22 76.471000 76.471000 76.471000 49.446280 52.846170 56.225390
23 80.392000 80.392000 80.392000 55.689570 59.558200 63.481910
24 84.314000 84.314000 84.314000 62.378590 66.657790 71.354340
25 88.235000 88.235000 88.235000 69.367160 74.129430 79.670740
26 92.157000 92.157000 92.157000 76.804230 82.062610 88.781690
27 96.078000 96.078000 96.078000 85.161640 90.934740 99.393320
28 39.056800 25.776300 38.698100 8.5104800 6.7727130 11.697090
29 39.232800 31.981600 44.735500 10.281030 9.1127690 15.822440
30 42.241900 48.794100 61.852500 18.083130 18.646370 32.855990
31 0.0000000 1.4451000 0.0000000 0.0930139 0.0957643 0.1682010
32 0.0000000 2.9412000 0.0000000 0.0961739 0.1019880 0.1690530
33 31.292100 14.958300 16.408300 3.7407980 2.6948270 1.8796610
34 58.569800 29.686300 21.378100 14.015390 10.841920 3.8406680
35 76.198400 39.870100 37.902900 26.736410 20.321110 11.988010
36 100.00000 50.589000 46.203300 48.404140 35.706520 18.518900
37 4.4910000 0.0000000 0.0000000 0.1092420 0.1022940 0.1678250
38 6.0976000 0.0000000 0.0000000 0.1324870 0.1145390 0.1686850
39 7.7640000 0.0000000 0.0000000 0.1917290 0.1451610 0.1675940
40 9.4937000 0.0000000 0.0000000 0.2439880 0.1720690 0.1678060
41 11.290300 0.0000000 0.0000000 0.3452840 0.2247410 0.1673950
42 13.157900 0.0000000 0.0000000 0.4772030 0.2931530 0.1675340
43 15.100700 0.0000000 0.0000000 0.6051580 0.3598050 0.1672970
44 17.123300 0.0000000 0.0000000 0.8124200 0.4670840 0.1672420
45 19.230800 0.0000000 0.0000000 1.0328580 0.5815800 0.1662860
46 21.428600 0.0000000 0.0000000 1.3022370 0.7212410 0.1667980
47 23.722600 0.0000000 0.0000000 1.6067040 0.8792390 0.1653090
48 26.119400 0.0000000 0.0000000 1.9630260 1.0640510 0.1652040
49 28.625900 0.0000000 0.0000000 2.3932410 1.2873560 0.1644370
50 31.250000 0.0000000 0.0000000 2.8528660 1.5261180 0.1631270
51 34.000000 0.0000000 0.0000000 3.3850610 1.8022860 0.1626170
52 36.885200 0.0000000 0.0000000 4.0052630 2.1237210 0.1616240
53 39.916000 0.0000000 0.0000000 4.7294880 2.5000700 0.1601450
54 43.103500 0.0000000 0.0000000 5.5257530 2.9129130 0.1581060
55 46.460200 0.0000000 0.0000000 6.4556830 3.3956990 0.1564460
56 50.000000 0.0000000 0.0000000 7.5268080 3.9513730 0.1547130
57 53.738300 0.0000000 0.0000000 8.8069650 4.6163130 0.1524510
58 57.692300 0.0000000 0.0000000 10.354920 5.4210300 0.1496850
59 61.881200 0.0000000 0.0000000 12.209430 6.3793120 0.1453830
60 66.326500 0.0000000 0.0000000 14.397980 7.5186700 0.1419320
61 71.052600 0.0000000 0.0000000 16.930770 8.8313670 0.1375110
62 76.087000 0.0000000 0.0000000 19.951930 10.401180 0.1333220
63 81.460700 0.0000000 0.0000000 23.354810 12.163810 0.1259420
64 81.537200 0.0000000 20.195800 23.947020 12.368280 2.9236110
65 86.017100 0.0000000 54.579300 30.809070 15.133840 23.769110
66 100.00000 0.0000000 84.217600 49.639590 23.297240 66.564080
67 100.00000 0.0000000 100.00000 56.197420 25.192110 103.57130
68 100.00000 100.00000 100.00000 93.770570 99.981360 112.64160
69 0.0000000 4.4910000 0.0000000 0.1102980 0.1303030 0.1723390
70 0.0000000 6.0976000 0.0000000 0.1342720 0.1782560 0.1772860
71 0.0000000 7.7640000 0.0000000 0.1931430 0.2952500 0.1907670
72 0.0000000 9.4937000 0.0000000 0.2492750 0.4074470 0.2028080
73 0.0000000 11.290300 0.0000000 0.3434210 0.5947770 0.2231050
74 0.0000000 13.157900 0.0000000 0.4739820 0.8551300 0.2511430
75 0.0000000 15.100700 0.0000000 0.6019220 1.1106640 0.2785780
76 0.0000000 17.123300 0.0000000 0.7899250 1.4853520 0.3186980
77 0.0000000 19.230800 0.0000000 1.0225680 1.9489460 0.3691090
78 0.0000000 21.428600 0.0000000 1.2650560 2.4325420 0.4216920
79 0.0000000 23.722600 0.0000000 1.5620810 3.0255810 0.4863120
80 0.0000000 26.119400 0.0000000 1.9059600 3.7102200 0.5595190
81 0.0000000 28.625900 0.0000000 2.2904960 4.4786720 0.6432730
82 0.0000000 31.250000 0.0000000 2.7465100 5.3884500 0.7404430
83 0.0000000 34.000000 0.0000000 3.2717400 6.4365230 0.8545680
84 0.0000000 36.885200 0.0000000 3.8588590 7.6482950 0.9862590
85 0.0000000 39.916000 0.0000000 4.5782940 8.9857720 1.1290870
86 0.0000000 43.103500 0.0000000 5.3332770 10.537030 1.2964600
87 0.0000000 46.460200 0.0000000 6.2086680 12.335100 1.4918880
88 0.0000000 50.000000 0.0000000 7.2291880 14.361200 1.7107170
89 0.0000000 53.738300 0.0000000 8.4982090 16.826880 1.9777610
90 0.0000000 57.692300 0.0000000 10.033480 19.910660 2.3106720
91 0.0000000 61.881200 0.0000000 11.792080 23.452770 2.6943910
92 0.0000000 66.326500 0.0000000 13.936230 27.716510 3.1557040
93 0.0000000 71.052600 0.0000000 16.346780 32.598350 3.6836150
94 0.0000000 76.087000 0.0000000 19.245780 38.413350 4.3117980
95 0.0000000 81.460700 0.0000000 22.651320 45.196790 5.0484660
96 0.0000000 87.209300 0.0000000 26.709300 53.319970 5.9317460
97 24.859300 100.00000 51.238100 42.616640 76.736940 28.470640
98 28.432700 100.00000 73.999400 48.149750 78.483930 56.335360
99 41.327100 100.00000 83.665200 54.015370 80.920020 72.932220
100 23.019800 85.296900 100.00000 45.612850 57.793830 109.07230
101 48.937000 91.404400 100.00000 56.029470 69.751460 110.13550
102 46.973600 100.00000 100.00000 62.656840 84.041880 111.75690
103 60.891900 33.356000 100.00000 33.658930 18.454130 104.33860
104 68.168900 47.147100 100.00000 40.760450 27.172970 105.12740
105 76.060100 68.537300 100.00000 53.998130 47.111040 106.73600
106 0.0000000 0.0000000 13.157900 0.2609810 0.1449440 1.1243580
107 0.0000000 0.0000000 15.100700 0.3149380 0.1614390 1.4283910
108 0.0000000 0.0000000 17.123300 0.4025660 0.1879540 1.9249540
109 0.0000000 0.0000000 19.230800 0.5015750 0.2178640 2.4864460
110 0.0000000 0.0000000 21.428600 0.6148890 0.2527580 3.1262010
111 0.0000000 0.0000000 23.722600 0.7498510 0.2938750 3.8875230
112 0.0000000 0.0000000 26.119400 0.9052530 0.3409760 4.7672850
113 0.0000000 0.0000000 28.625900 1.0930430 0.3985010 5.8285790
114 0.0000000 0.0000000 31.250000 1.2896700 0.4583200 6.9402630
115 0.0000000 0.0000000 34.000000 1.5270750 0.5306130 8.2807510
116 0.0000000 0.0000000 36.885200 1.8012020 0.6141330 9.8328530
117 0.0000000 0.0000000 39.916000 2.1202990 0.7115020 11.638370
118 0.0000000 0.0000000 43.103500 2.4759230 0.8199690 13.645650
119 0.0000000 0.0000000 46.460200 2.8873280 0.9447840 15.974450
120 0.0000000 0.0000000 50.000000 3.3724610 1.0906430 18.709760
121 0.0000000 0.0000000 53.738300 3.9500250 1.2677710 21.982430
122 0.0000000 0.0000000 57.692300 4.6384080 1.4766160 25.874110
123 0.0000000 0.0000000 61.881200 5.4833570 1.7328220 30.650190
124 0.0000000 0.0000000 66.326500 6.4817970 2.0379030 36.310850
125 0.0000000 0.0000000 71.052600 7.6714300 2.3963820 43.032540
126 0.0000000 0.0000000 76.087000 9.0971910 2.8235070 51.080680
127 0.0000000 0.0000000 81.460700 10.692200 3.3042590 60.101710
128 0.0000000 0.0000000 87.209300 12.691400 3.9034900 71.422080
129 0.0000000 0.0000000 93.373500 15.132820 4.6257250 85.218190
130 0.0000000 88.908600 100.00000 46.569130 62.252890 109.14140
131 0.0000000 100.00000 100.00000 55.355170 80.160710 111.08650
132 26.753700 100.00000 100.00000 57.743210 81.485140 111.67720
133 1.4451000 0.0000000 0.0000000 0.0941048 0.0944918 0.1683480
134 2.9412000 0.0000000 0.0000000 0.0966727 0.0956141 0.1683830
135 2.4366000 2.4366000 2.4366000 0.1000020 0.1011710 0.1763860
136 2.9412000 2.9412000 2.9412000 0.1032100 0.1050140 0.1799880
137 3.4517000 3.4517000 3.4517000 0.1095410 0.1117740 0.1874800
138 3.9683000 3.9683000 3.9683000 0.1189310 0.1215480 0.1977840
139 4.4910000 4.4910000 4.4910000 0.1386770 0.1448300 0.2175960
140 5.0201000 5.0201000 5.0201000 0.1659500 0.1723910 0.2497460
141 5.5556000 5.5556000 5.5556000 0.1724600 0.1791710 0.2570670
142 6.0976000 6.0976000 6.0976000 0.1982670 0.2092490 0.2836570
143 6.6462000 6.6462000 6.6462000 0.2282830 0.2377870 0.3206530
144 7.2016000 7.2016000 7.2016000 0.2779470 0.2960080 0.3703370
145 7.7640000 7.7640000 7.7640000 0.3461720 0.3661420 0.4501090
146 8.3333000 8.3333000 8.3333000 0.4086130 0.4295580 0.5158900
147 8.9099000 8.9099000 8.9099000 0.4393980 0.4615900 0.5585340
148 9.4937000 9.4937000 9.4937000 0.4875750 0.5180580 0.6076010
149 10.084900 10.084900 10.084900 0.6051380 0.6484620 0.7355760
150 10.683800 10.683800 10.683800 0.6968140 0.7339440 0.8463950
151 11.290300 11.290300 11.290300 0.7323200 0.7800670 0.8793460
152 11.904800 11.904800 11.904800 0.8669260 0.9176150 1.0391240
153 12.527200 12.527200 12.527200 0.9355750 0.9923060 1.1125150
154 13.157900 13.157900 13.157900 1.0613910 1.1417500 1.2393340
155 13.796900 13.796900 13.796900 1.2134290 1.2930190 1.4193940
156 14.444400 14.444400 14.444400 1.2929790 1.3712670 1.5156380
157 15.100700 15.100700 15.100700 1.3907730 1.4929470 1.6051910
158 15.765800 15.765800 15.765800 1.5342280 1.6367250 1.7782420
159 16.439900 16.439900 16.439900 1.6825280 1.7900440 1.9487970
160 17.123300 17.123300 17.123300 1.8788820 2.0154490 2.1526180
161 17.816100 17.816100 17.816100 2.1057200 2.2563180 2.4020040
162 18.518500 18.518500 18.518500 2.3066020 2.4631320 2.6374850
163 19.230800 19.230800 19.230800 2.4846740 2.6435650 2.8476780
164 19.953100 19.953100 19.953100 2.6922630 2.8695540 3.0753720
165 20.685600 20.685600 20.685600 2.9077210 3.1015070 3.3047290
166 21.428600 21.428600 21.428600 3.1444370 3.3646270 3.5640720
167 22.182200 22.182200 22.182200 3.3745140 3.6144380 3.8165250
168 22.946900 22.946900 22.946900 3.6283090 3.8901100 4.0957370
169 23.722600 23.722600 23.722600 3.9060630 4.1863700 4.4067380
170 24.509800 24.509800 24.509800 4.1712170 4.4725210 4.7011650
171 25.308600 25.308600 25.308600 4.4834260 4.8033920 5.0520240
172 26.119400 26.119400 26.119400 4.7990320 5.1361700 5.4099920
173 26.942400 26.942400 26.942400 5.1133200 5.4652760 5.7695200
174 27.777800 27.777800 27.777800 5.4810220 5.8493460 6.1944470
175 28.625900 28.625900 28.625900 5.8636730 6.2411970 6.6276170
176 29.487200 29.487200 29.487200 6.1656690 6.5962030 6.9804740
177 30.361800 30.361800 30.361800 6.5616400 7.0354580 7.4039010
178 31.250000 31.250000 31.250000 7.0089810 7.4950350 7.8936230
179 32.152200 32.152200 32.152200 7.4391740 7.9227910 8.4010140
180 33.068800 33.068800 33.068800 7.8790730 8.4310720 8.8665460
181 34.000000 34.000000 34.000000 8.3576420 8.9236620 9.4101120
182 34.946200 34.946200 34.946200 8.8623680 9.4518130 10.000360
183 35.907900 35.907900 35.907900 9.3710680 10.014770 10.531630
184 36.885200 36.885200 36.885200 9.9558700 10.649660 11.269560
185 37.878800 37.878800 37.878800 10.461490 11.212520 11.786150
186 38.888900 38.888900 38.888900 11.136280 11.880600 12.552120
187 39.916000 39.916000 39.916000 11.702400 12.514830 13.201340
188 40.960500 40.960500 40.960500 12.331560 13.200980 13.872220
189 42.022800 42.022800 42.022800 13.033580 13.904670 14.689920
190 43.103500 43.103500 43.103500 13.635390 14.574820 15.430810
191 44.202900 44.202900 44.202900 14.410360 15.419680 16.284360
192 45.321600 45.321600 45.321600 15.157650 16.228920 17.083900
193 46.460200 46.460200 46.460200 15.974450 17.109880 18.058730
194 47.619100 47.619100 47.619100 16.815820 18.006730 18.950350
195 48.798800 48.798800 48.798800 17.675710 18.904220 19.930110
196 50.000000 50.000000 50.000000 18.578220 19.926770 21.001590
197 51.223200 51.223200 51.223200 19.624910 20.999430 22.158930
198 52.469100 52.469100 52.469100 20.716240 22.162550 23.495440
199 53.738300 53.738300 53.738300 21.874830 23.323420 24.829650
200 55.031400 55.031400 55.031400 23.013650 24.626850 26.080740
201 56.349200 56.349200 56.349200 24.231360 25.948030 27.507320
202 57.692300 57.692300 57.692300 25.644760 27.390400 29.109320
203 59.061500 59.061500 59.061500 27.021870 28.940100 30.627450
204 60.457500 60.457500 60.457500 28.556800 30.525290 32.496630
205 61.881200 61.881200 61.881200 30.199610 32.267900 34.367800
206 63.333300 63.333300 63.333300 31.738120 34.011510 36.064840
207 64.814800 64.814800 64.814800 33.637750 36.001030 38.291230
208 66.326500 66.326500 66.326500 35.485840 37.919440 40.427960
209 67.869400 67.869400 67.869400 37.504970 40.086380 42.834020
210 69.444400 69.444400 69.444400 39.634000 42.376130 45.329500
211 71.052600 71.052600 71.052600 41.779510 44.701120 47.825630
212 72.695000 72.695000 72.695000 44.016400 47.148300 50.323010
213 74.372800 74.372800 74.372800 46.418710 49.720180 53.174240
214 76.087000 76.087000 76.087000 49.035200 52.413890 56.288920
215 77.838800 77.838800 77.838800 51.679400 55.390460 59.235130
216 79.629600 79.629600 79.629600 54.564310 58.351060 62.882580
217 81.460700 81.460700 81.460700 57.551070 61.572900 66.269750
218 83.333300 83.333300 83.333300 60.675850 64.972790 69.924710
219 85.249000 85.249000 85.249000 64.059440 68.584980 74.022240
220 87.209300 87.209300 87.209300 67.536400 72.284750 78.208400
221 89.215700 89.215700 89.215700 71.165880 76.232410 82.575650
222 91.269800 91.269800 91.269800 75.226460 80.497700 87.649650
223 93.373500 93.373500 93.373500 79.527320 84.974640 93.077980
224 80.646500 29.731100 0.0000000 25.460940 16.783740 0.6437360
225 100.00000 52.585400 16.137000 46.338950 36.111170 3.5132320
226 73.122000 69.460900 0.0000000 33.920650 40.491100 3.4668660
227 100.00000 77.707000 0.0000000 58.059710 60.114100 4.4839710
228 100.00000 100.00000 0.0000000 75.107760 94.407660 8.2762710
229 100.00000 100.00000 50.911800 78.743420 95.564400 29.081560
230 53.757000 0.0000000 100.00000 27.071760 10.092030 103.28460
231 69.906900 0.0000000 100.00000 34.680400 13.995920 103.71080
232 86.894000 21.011100 100.00000 46.991920 22.251440 104.13950
233 100.00000 23.306300 100.00000 57.854400 28.380450 103.83050
234 100.00000 40.805200 100.00000 61.237570 35.291480 104.67430
235 0.0000000 71.626200 85.253300 29.044680 37.778470 71.116550
236 0.0000000 73.361600 100.00000 36.589290 41.991230 107.29170
237 50.862300 78.937700 100.00000 47.994510 52.823230 108.19440
238 0.0000000 43.172000 61.689900 10.978290 12.710310 31.708180
239 39.974000 57.796900 62.528400 20.951520 24.885710 34.477150
240 47.087400 78.725300 67.096500 34.915420 48.060870 42.825010
241 100.00000 84.191800 100.00000 81.290850 75.257670 109.24880
242 0.0000000 0.0000000 1.4451000 0.0921300 0.0931954 0.1707860
243 0.0000000 0.0000000 2.9412000 0.0934394 0.0937178 0.1778650
244 0.0000000 0.0000000 4.4910000 0.1002490 0.0960260 0.2138440
245 0.0000000 0.0000000 6.0976000 0.1091800 0.0986192 0.2648760
246 0.0000000 23.075200 11.832800 1.6567240 2.9838170 1.2505940
247 14.935700 27.427100 0.0000000 2.6343610 4.3920130 0.6027170
248 26.014900 35.130700 0.0000000 5.4353330 7.8994450 0.8984230
249 36.716100 64.112300 0.0000000 16.905120 27.634920 2.9058750
250 39.724500 76.788800 0.0000000 24.572650 41.854770 4.3979910
251 54.924000 100.00000 21.755100 47.544100 79.920510 11.553480
252 48.736900 100.00000 0.0000000 44.749360 78.607970 8.3028760
253 61.429300 100.00000 55.654500 54.151130 82.687180 32.961790
254 63.400000 100.00000 69.177800 57.991600 84.010500 49.556580
255 49.691500 40.528600 29.920200 13.564440 13.861830 7.6918470
256 62.976400 78.161700 34.452800 35.413410 48.762810 13.528120
257 73.951600 100.00000 35.492500 57.891950 84.980430 17.788150
258 0.0000000 25.046100 56.471100 6.2044890 4.9079820 25.202270
259 0.0000000 27.945000 69.363100 9.5007580 6.6896170 41.209750
260 0.0000000 46.819100 73.463000 14.861330 15.622300 48.091240
261 84.499600 47.757300 83.227300 43.896690 30.457150 65.863580
262 85.412200 0.0000000 67.719100 33.149470 15.758090 39.443270
263 84.959600 0.0000000 82.211500 36.860490 16.798030 62.505510
264 0.0000000 0.0000000 100.00000 18.398430 5.5700680 103.57980
265 22.057900 0.0000000 100.00000 19.648540 6.2257640 103.29690
266 24.301100 28.265200 100.00000 22.387440 11.150480 103.82560
267 43.467200 63.672800 100.00000 37.245740 34.786500 106.13120
268 53.899400 72.231500 100.00000 45.148320 45.420120 107.49340
269 82.820600 90.181200 100.00000 72.245720 76.984380 109.59790
270 100.00000 92.341100 100.00000 87.123930 87.091770 110.27580
271 0.0000000 0.0000000 9.4937000 0.1582800 0.1136190 0.5451270
272 18.504300 0.0000000 16.353100 1.2444990 0.6306730 1.7624390
273 28.384900 0.0000000 20.160100 2.8274000 1.4101990 2.8716870
274 34.102800 47.794700 22.978800 10.848460 15.402260 5.2325830
275 44.153400 70.231700 43.460800 24.747760 36.264950 17.944850
276 0.0000000 86.746800 36.693900 28.281590 53.625650 15.514600
277 0.0000000 100.00000 53.582300 41.040650 75.893050 30.038180
278 0.0000000 100.00000 67.538800 43.952660 76.848600 46.294970
279 64.250400 100.00000 93.556400 66.353350 86.619520 94.073500
280 0.0000000 26.265400 50.294500 5.3352650 4.9563670 19.290490
281 23.531000 42.810500 53.606300 10.965220 12.864770 23.467230
282 64.916700 72.407200 61.212300 36.863400 43.737610 34.630610
283 0.0000000 31.435900 21.572800 3.4161700 5.8210060 3.7934330
284 0.0000000 100.00000 21.158500 37.785290 75.020780 11.269320
285 28.195300 100.00000 36.127800 41.303340 76.412490 18.001960
286 31.196000 0.0000000 88.542600 16.036760 5.5067140 74.744930
287 42.054700 18.567400 100.00000 24.748770 10.271220 104.07410
288 51.079700 44.521700 100.00000 32.521830 21.848930 104.85290
289 0.0000000 15.796300 35.112900 2.2346510 1.7406190 9.0732520
290 0.0000000 22.475200 40.382900 3.5542350 3.4713410 12.265370
291 49.080600 40.416500 66.331000 18.871870 15.547920 38.206510
292 65.050700 50.214400 66.852700 28.188140 24.345840 39.547950
293 0.9579000 0.9579000 0.9579000 0.0935429 0.0951209 0.1700210
294 23.674700 46.670200 0.0000000 7.8806450 13.337140 1.5077720
295 47.904600 55.779900 0.0000000 16.277160 22.030110 2.1307030
296 70.485800 58.198900 0.0000000 27.006130 29.048010 2.3237800
297 76.613100 77.253900 94.246600 56.369360 56.118100 91.992510
298 95.528500 95.528500 95.528500 83.929390 89.715790 98.587320
299 0.0000000 42.660600 100.00000 23.944390 16.675430 104.76770
300 0.0000000 58.499400 100.00000 29.195760 27.174360 105.58900
301 30.273000 70.997600 100.00000 37.987950 40.694010 106.93540
302 50.422400 0.0000000 35.908300 9.3471610 4.5335710 9.7433260
303 63.178900 0.0000000 37.977900 14.778170 7.2950020 11.068690
304 72.780000 27.914300 43.723100 23.003370 14.659230 15.273110
305 100.00000 38.203300 54.517100 46.490750 29.584290 25.137280
306 33.309600 11.967000 0.0000000 3.6399120 2.3851020 0.2284450
307 44.667200 13.552100 0.0000000 6.5158400 4.0516370 0.2483560
308 55.750100 38.301100 41.684700 16.433650 14.378600 14.241690
309 64.429500 47.619500 48.589900 23.644810 21.570500 19.819970
310 93.373500 0.0000000 0.0000000 32.412980 16.876240 0.1174810
311 100.00000 0.0000000 22.027400 38.517900 19.920420 3.6230570
312 100.00000 0.0000000 40.575500 40.365640 20.516150 13.090570
313 100.00000 21.091500 41.508900 41.500620 22.847630 13.967460
314 100.00000 0.0000000 0.0000000 37.889610 19.722490 0.1216210
315 100.00000 0.0000000 13.711600 38.237570 19.855810 1.3585420
316 100.00000 0.0000000 60.815000 43.469920 21.432380 31.149280
317 100.00000 34.998500 62.953100 47.358390 28.627920 34.291470
318 100.00000 70.040800 65.701700 60.594730 53.946520 40.607740
319 100.00000 70.641100 89.667700 68.188670 57.004620 81.253370
320 100.00000 91.673300 91.770200 82.686910 84.802270 88.768030
321 87.209300 0.0000000 0.0000000 27.543250 14.343030 0.1217560
322 100.00000 33.926300 0.0000000 41.126950 26.054170 0.8014550
323 100.00000 38.353700 15.128200 42.342390 28.219640 2.4799080
324 100.00000 37.216000 25.146600 42.793600 27.981600 5.6928450
325 100.00000 37.717100 35.206900 43.751910 28.502600 10.650390
326 0.0000000 0.0000000 7.7640000 0.1367770 0.1069520 0.4212450
327 0.0000000 14.709400 26.156700 1.4079160 1.3376400 4.8841830
328 0.0000000 17.778700 45.619000 3.6253330 2.5597810 15.646850
329 0.0000000 18.221500 57.294700 5.4683160 3.2027560 25.775970
330 0.0000000 71.847600 64.753100 23.253410 36.146860 38.063200
331 52.475500 100.00000 75.717600 55.169360 82.215790 59.311740
332 71.758700 100.00000 81.501100 65.924770 87.349330 69.340930
333 72.493700 47.272200 0.0000000 24.416940 22.125590 1.5091410
334 72.370100 65.619600 41.306300 34.094260 37.608450 16.183900
335 88.561300 100.00000 60.727200 71.442730 91.350390 38.813420
336 100.00000 100.00000 64.058200 81.234760 96.294230 43.282730
337 18.731500 13.760400 0.0000000 1.4481880 1.4433790 0.2613600
338 20.285400 18.762300 0.0000000 2.0821160 2.4286080 0.3564550
339 56.954700 34.546400 0.0000000 13.659320 11.990660 0.8609870
340 68.856000 40.124800 19.911800 21.107420 17.796280 3.8730640
341 0.0000000 9.3330000 17.830200 0.5935920 0.5075180 2.1612370
342 0.0000000 17.552800 17.934700 1.2271230 1.7599400 2.3363720
343 0.0000000 21.339700 15.860500 1.5567040 2.5826000 1.8762640
344 0.0000000 25.842100 27.983300 2.8976420 4.0747200 5.9627670
345 0.0000000 55.788500 33.651800 10.957220 19.329410 10.228100
346 0.0000000 74.816600 59.283800 23.777550 39.185880 31.761810
347 0.0000000 100.00000 89.825800 50.863470 78.908240 85.273260
348 30.179600 23.760800 0.0000000 4.2213080 4.4234390 0.4827580
